P3
# VIMS seamless irregular brushed-metal calibration texture
128 128
255
161 161 161 161 161 161 157 157 157 158 158 158 156 156 156 157 157 157 161 161 161 159 159 159 159 159 159 161 161 161 160 160 160 160 160 160 160 160 160 159 159 159 160 160 160 158 158 158 158 158 158 161 161 161 161 161 161 165 165 165 159 159 159 161 161 161 157 157 157 154 154 154 150 150 150 151 151 151 152 152 152 151 151 151 153 153 153 151 151 151 152 152 152 148 148 148 148 148 148 147 147 147 150 150 150 152 152 152 154 154 154 159 159 159 157 157 157 158 158 158 158 158 158 156 156 156 156 156 156 155 155 155 153 153 153 155 155 155 155 155 155 158 158 158 159 159 159 161 161 161 162 162 162 162 162 162 161 161 161 162 162 162 160 160 160 161 161 161 162 162 162 163 163 163 163 163 163 161 161 161 161 161 161 157 157 157 154 154 154 152 152 152 149 149 149 153 153 153 153 153 153 153 153 153 151 151 151 153 153 153 155 155 155 154 154 154 151 151 151 150 150 150 151 151 151 155 155 155 155 155 155 155 155 155 157 157 157 152 152 152 151 151 151 150 150 150 148 148 148 148 148 148 151 151 151 151 151 151 156 156 156 156 156 156 158 158 158 162 162 162 162 162 162 161 161 161 163 163 163 163 163 163 161 161 161 165 165 165 163 163 163 161 161 161 163 163 163 158 158 158 159 159 159 153 153 153 155 155 155 155 155 155 154 154 154 154 154 154 159 159 159 156 156 156 160 160 160 157 157 157 156 156 156 154 154 154 152 152 152 160 160 160 153 153 153 153 153 153 149 149 149 150 150 150 151 151 151 148 148 148 148 148 148 148 148 148 146 146 146 151 151 151 150 150 150 154 154 154 160 160 160 154 154 154
162 162 162 162 162 162 163 163 163 161 161 161 160 160 160 158 158 158 156 156 156 158 158 158 161 161 161 158 158 158 160 160 160 158 158 158 158 158 158 157 157 157 156 156 156 159 159 159 160 160 160 162 162 162 160 160 160 162 162 162 159 159 159 159 159 159 154 154 154 153 153 153 151 151 151 148 148 148 148 148 148 149 149 149 149 149 149 150 150 150 152 152 152 147 147 147 150 150 150 148 148 148 149 149 149 155 155 155 153 153 153 157 157 157 158 158 158 157 157 157 155 155 155 159 159 159 157 157 157 154 154 154 151 151 151 152 152 152 153 153 153 159 159 159 158 158 158 161 161 161 160 160 160 161 161 161 159 159 159 159 159 159 164 164 164 163 163 163 162 162 162 156 156 156 163 163 163 161 161 161 162 162 162 159 159 159 154 154 154 152 152 152 150 150 150 153 153 153 153 153 153 153 153 153 153 153 153 154 154 154 156 156 156 152 152 152 150 150 150 151 151 151 152 152 152 152 152 152 153 153 153 154 154 154 152 152 152 152 152 152 151 151 151 151 151 151 150 150 150 151 151 151 151 151 151 151 151 151 157 157 157 160 160 160 161 161 161 160 160 160 161 161 161 163 163 163 161 161 161 160 160 160 161 161 161 162 162 162 165 165 165 162 162 162 170 170 170 162 162 162 157 157 157 154 154 154 157 157 157 155 155 155 156 156 156 155 155 155 156 156 156 157 157 157 159 159 159 160 160 160 156 156 156 157 157 157 152 152 152 154 154 154 152 152 152 152 152 152 152 152 152 151 151 151 151 151 151 151 151 151 147 147 147 147 147 147 149 149 149 149 149 149 150 150 150 156 156 156 158 158 158 160 160 160
162 162 162 163 163 163 161 161 161 159 159 159 157 157 157 156 156 156 159 159 159 159 159 159 161 161 161 160 160 160 158 158 158 158 158 158 159 159 159 157 157 157 158 158 158 160 160 160 161 161 161 161 161 161 162 162 162 165 165 165 161 161 161 157 157 157 157 157 157 152 152 152 149 149 149 149 149 149 151 151 151 149 149 149 150 150 150 153 153 153 150 150 150 151 151 151 152 152 152 152 152 152 149 149 149 151 151 151 154 154 154 156 156 156 160 160 160 158 158 158 155 155 155 156 156 156 153 153 153 153 153 153 153 153 153 156 156 156 157 157 157 155 155 155 160 160 160 160 160 160 160 160 160 163 163 163 161 161 161 163 163 163 163 163 163 161 161 161 163 163 163 165 165 165 165 165 165 162 162 162 158 158 158 155 155 155 153 153 153 154 154 154 148 148 148 153 153 153 151 151 151 153 153 153 156 156 156 154 154 154 153 153 153 152 152 152 153 153 153 151 151 151 151 151 151 154 154 154 156 156 156 155 155 155 155 155 155 153 153 153 152 152 152 151 151 151 152 152 152 161 161 161 152 152 152 154 154 154 156 156 156 157 157 157 160 160 160 160 160 160 161 161 161 164 164 164 160 160 160 164 164 164 159 159 159 162 162 162 160 160 160 164 164 164 160 160 160 162 162 162 158 158 158 157 157 157 153 153 153 154 154 154 154 154 154 153 153 153 156 156 156 159 159 159 160 160 160 160 160 160 156 156 156 157 157 157 154 154 154 153 153 153 143 143 143 150 150 150 152 152 152 150 150 150 151 151 151 148 148 148 151 151 151 148 148 148 149 149 149 152 152 152 155 155 155 153 153 153 156 156 156 159 159 159
162 162 162 161 161 161 163 163 163 158 158 158 158 158 158 160 160 160 158 158 158 159 159 159 160 160 160 158 158 158 158 158 158 161 161 161 161 161 161 158 158 158 161 161 161 160 160 160 161 161 161 161 161 161 160 160 160 161 161 161 161 161 161 157 157 157 158 158 158 155 155 155 149 149 149 147 147 147 150 150 150 147 147 147 152 152 152 152 152 152 150 150 150 152 152 152 150 150 150 152 152 152 152 152 152 154 154 154 152 152 152 154 154 154 159 159 159 159 159 159 158 158 158 156 156 156 156 156 156 153 153 153 144 144 144 155 155 155 153 153 153 158 158 158 159 159 159 161 161 161 161 161 161 163 163 163 160 160 160 163 163 163 164 164 164 163 163 163 164 164 164 162 162 162 162 162 162 159 159 159 161 161 161 156 156 156 153 153 153 152 152 152 149 149 149 151 151 151 152 152 152 155 155 155 165 165 165 156 156 156 154 154 154 156 156 156 152 152 152 153 153 153 150 150 150 154 154 154 153 153 153 152 152 152 152 152 152 154 154 154 153 153 153 152 152 152 152 152 152 148 148 148 149 149 149 155 155 155 155 155 155 160 160 160 160 160 160 162 162 162 162 162 162 163 163 163 164 164 164 162 162 162 162 162 162 160 160 160 160 160 160 161 161 161 162 162 162 159 159 159 155 155 155 158 158 158 154 154 154 156 156 156 152 152 152 154 154 154 158 158 158 160 160 160 161 161 161 157 157 157 156 156 156 157 157 157 155 155 155 152 152 152 148 148 148 152 152 152 151 151 151 148 148 148 153 153 153 152 152 152 150 150 150 149 149 149 151 151 151 149 149 149 155 155 155 153 153 153 156 156 156 160 160 160
161 161 161 161 161 161 159 159 159 158 158 158 157 157 157 156 156 156 159 159 159 156 156 156 160 160 160 157 157 157 160 160 160 159 159 159 159 159 159 160 160 160 157 157 157 161 161 161 161 161 161 159 159 159 159 159 159 164 164 164 160 160 160 157 157 157 155 155 155 150 150 150 149 149 149 147 147 147 150 150 150 150 150 150 148 148 148 151 151 151 152 152 152 153 153 153 152 152 152 150 150 150 150 150 150 154 154 154 156 156 156 156 156 156 160 160 160 161 161 161 156 156 156 157 157 157 156 156 156 156 156 156 154 154 154 154 154 154 155 155 155 156 156 156 158 158 158 161 161 161 161 161 161 162 162 162 164 164 164 170 170 170 163 163 163 162 162 162 164 164 164 163 163 163 161 161 161 162 162 162 157 157 157 157 157 157 153 153 153 149 149 149 152 152 152 151 151 151 149 149 149 154 154 154 154 154 154 156 156 156 154 154 154 155 155 155 155 155 155 150 150 150 151 151 151 154 154 154 151 151 151 155 155 155 155 155 155 154 154 154 150 150 150 154 154 154 153 153 153 148 148 148 151 151 151 155 155 155 158 158 158 158 158 158 163 163 163 164 164 164 163 163 163 166 166 166 160 160 160 162 162 162 160 160 160 162 162 162 159 159 159 160 160 160 162 162 162 158 158 158 159 159 159 149 149 149 152 152 152 156 156 156 155 155 155 155 155 155 157 157 157 158 158 158 160 160 160 159 159 159 158 158 158 156 156 156 151 151 151 151 151 151 150 150 150 151 151 151 152 152 152 148 148 148 149 149 149 148 148 148 149 149 149 152 152 152 149 149 149 149 149 149 151 151 151 157 157 157 156 156 156 163 163 163
161 161 161 160 160 160 159 159 159 158 158 158 157 157 157 160 160 160 155 155 155 159 159 159 157 157 157 159 159 159 159 159 159 159 159 159 161 161 161 162 162 162 161 161 161 157 157 157 158 158 158 161 161 161 160 160 160 161 161 161 161 161 161 157 157 157 157 157 157 152 152 152 149 149 149 147 147 147 150 150 150 146 146 146 151 151 151 151 151 151 152 152 152 143 143 143 152 152 152 151 151 151 151 151 151 151 151 151 153 153 153 156 156 156 169 169 169 159 159 159 158 158 158 159 159 159 158 158 158 157 157 157 152 152 152 156 156 156 156 156 156 155 155 155 160 160 160 161 161 161 164 164 164 162 162 162 161 161 161 162 162 162 161 161 161 161 161 161 163 163 163 162 162 162 162 162 162 161 161 161 157 157 157 155 155 155 153 153 153 149 149 149 150 150 150 152 152 152 150 150 150 150 150 150 153 153 153 156 156 156 154 154 154 155 155 155 154 154 154 154 154 154 152 152 152 151 151 151 154 154 154 154 154 154 153 153 153 152 152 152 153 153 153 153 153 153 152 152 152 151 151 151 151 151 151 156 156 156 157 157 157 160 160 160 161 161 161 165 165 165 164 164 164 166 166 166 162 162 162 163 163 163 158 158 158 160 160 160 160 160 160 162 162 162 162 162 162 161 161 161 157 157 157 156 156 156 155 155 155 152 152 152 151 151 151 153 153 153 158 158 158 157 157 157 158 158 158 156 156 156 157 157 157 153 153 153 151 151 151 152 152 152 148 148 148 147 147 147 147 147 147 149 149 149 148 148 148 151 151 151 149 149 149 151 151 151 149 149 149 150 150 150 155 155 155 158 158 158 158 158 158 160 160 160
160 160 160 164 164 164 163 163 163 158 158 158 157 157 157 160 160 160 157 157 157 157 157 157 160 160 160 159 159 159 162 162 162 159 159 159 158 158 158 162 162 162 159 159 159 159 159 159 160 160 160 157 157 157 159 159 159 158 158 158 158 158 158 156 156 156 153 153 153 161 161 161 147 147 147 150 150 150 145 145 145 148 148 148 151 151 151 151 151 151 154 154 154 153 153 153 154 154 154 150 150 150 151 151 151 155 155 155 154 154 154 158 158 158 155 155 155 156 156 156 157 157 157 159 159 159 156 156 156 153 153 153 155 155 155 155 155 155 158 158 158 156 156 156 161 161 161 164 164 164 161 161 161 166 166 166 164 164 164 162 162 162 163 163 163 162 162 162 160 160 160 161 161 161 161 161 161 160 160 160 158 158 158 155 155 155 154 154 154 153 153 153 148 148 148 149 149 149 153 153 153 151 151 151 153 153 153 155 155 155 155 155 155 155 155 155 154 154 154 154 154 154 152 152 152 153 153 153 153 153 153 154 154 154 152 152 152 155 155 155 151 151 151 153 153 153 154 154 154 151 151 151 152 152 152 154 154 154 157 157 157 160 160 160 155 155 155 166 166 166 166 166 166 166 166 166 161 161 161 160 160 160 160 160 160 159 159 159 158 158 158 162 162 162 159 159 159 159 159 159 158 158 158 155 155 155 153 153 153 155 155 155 155 155 155 153 153 153 158 158 158 157 157 157 161 161 161 159 159 159 156 156 156 157 157 157 153 153 153 152 152 152 150 150 150 148 148 148 147 147 147 147 147 147 148 148 148 151 151 151 153 153 153 152 152 152 153 153 153 152 152 152 152 152 152 156 156 156 156 156 156 163 163 163
163 163 163 164 164 164 162 162 162 158 158 158 157 157 157 159 159 159 159 159 159 156 156 156 168 168 168 161 161 161 159 159 159 159 159 159 163 163 163 162 162 162 159 159 159 158 158 158 157 157 157 157 157 157 152 152 152 160 160 160 159 159 159 158 158 158 155 155 155 152 152 152 149 149 149 148 148 148 145 145 145 145 145 145 149 149 149 151 151 151 153 153 153 154 154 154 152 152 152 152 152 152 153 153 153 152 152 152 154 154 154 158 158 158 158 158 158 160 160 160 156 156 156 159 159 159 159 159 159 153 153 153 154 154 154 153 153 153 155 155 155 155 155 155 158 158 158 161 161 161 161 161 161 165 165 165 164 164 164 162 162 162 164 164 164 161 161 161 161 161 161 159 159 159 161 161 161 159 159 159 156 156 156 156 156 156 153 153 153 149 149 149 147 147 147 150 150 150 152 152 152 152 152 152 153 153 153 155 155 155 155 155 155 154 154 154 157 157 157 152 152 152 153 153 153 149 149 149 151 151 151 151 151 151 154 154 154 154 154 154 153 153 153 155 155 155 154 154 154 153 153 153 154 154 154 156 156 156 156 156 156 161 161 161 165 165 165 163 163 163 164 164 164 166 166 166 164 164 164 164 164 164 162 162 162 161 161 161 159 159 159 159 159 159 160 160 160 157 157 157 156 156 156 158 158 158 156 156 156 155 155 155 154 154 154 157 157 157 155 155 155 159 159 159 160 160 160 157 157 157 158 158 158 153 153 153 150 150 150 150 150 150 149 149 149 149 149 149 148 148 148 149 149 149 153 153 153 150 150 150 150 150 150 161 161 161 153 153 153 154 154 154 154 154 154 158 158 158 161 161 161 161 161 161
164 164 164 165 165 165 164 164 164 161 161 161 159 159 159 156 156 156 155 155 155 159 159 159 157 157 157 158 158 158 161 161 161 163 163 163 163 163 163 162 162 162 158 158 158 161 161 161 159 159 159 159 159 159 159 159 159 162 162 162 158 158 158 157 157 157 155 155 155 152 152 152 151 151 151 150 150 150 147 147 147 146 146 146 149 149 149 151 151 151 153 153 153 153 153 153 154 154 154 155 155 155 153 153 153 154 154 154 155 155 155 153 153 153 155 155 155 156 156 156 159 159 159 159 159 159 156 156 156 154 154 154 157 157 157 153 153 153 154 154 154 157 157 157 160 160 160 163 163 163 163 163 163 165 165 165 162 162 162 163 163 163 163 163 163 163 163 163 159 159 159 158 158 158 158 158 158 157 157 157 157 157 157 156 156 156 151 151 151 152 152 152 149 149 149 148 148 148 150 150 150 153 153 153 154 154 154 155 155 155 158 158 158 158 158 158 156 156 156 152 152 152 150 150 150 142 142 142 150 150 150 151 151 151 151 151 151 155 155 155 152 152 152 152 152 152 155 155 155 154 154 154 153 153 153 153 153 153 156 156 156 161 161 161 163 163 163 164 164 164 163 163 163 167 167 167 165 165 165 160 160 160 162 162 162 157 157 157 159 159 159 158 158 158 160 160 160 157 157 157 157 157 157 155 155 155 157 157 157 153 153 153 156 156 156 154 154 154 165 165 165 159 159 159 158 158 158 158 158 158 157 157 157 155 155 155 151 151 151 149 149 149 148 148 148 149 149 149 148 148 148 148 148 148 150 150 150 154 154 154 153 153 153 155 155 155 152 152 152 155 155 155 156 156 156 158 158 158 159 159 159 162 162 162
162 162 162 164 164 164 160 160 160 161 161 161 158 158 158 151 151 151 155 155 155 155 155 155 155 155 155 156 156 156 159 159 159 162 162 162 160 160 160 161 161 161 160 160 160 161 161 161 158 158 158 161 161 161 158 158 158 159 159 159 159 159 159 157 157 157 156 156 156 153 153 153 148 148 148 146 146 146 148 148 148 149 149 149 147 147 147 150 150 150 155 155 155 153 153 153 155 155 155 153 153 153 155 155 155 152 152 152 154 154 154 155 155 155 154 154 154 159 159 159 158 158 158 158 158 158 159 159 159 154 154 154 155 155 155 155 155 155 156 156 156 156 156 156 161 161 161 162 162 162 164 164 164 165 165 165 166 166 166 166 166 166 161 161 161 159 159 159 159 159 159 160 160 160 158 158 158 159 159 159 154 154 154 155 155 155 152 152 152 153 153 153 152 152 152 148 148 148 147 147 147 151 151 151 154 154 154 155 155 155 155 155 155 158 158 158 154 154 154 155 155 155 151 151 151 152 152 152 150 150 150 149 149 149 153 153 153 153 153 153 152 152 152 152 152 152 154 154 154 156 156 156 155 155 155 157 157 157 155 155 155 160 160 160 164 164 164 164 164 164 168 168 168 173 173 173 165 165 165 163 163 163 161 161 161 160 160 160 158 158 158 158 158 158 157 157 157 158 158 158 157 157 157 158 158 158 155 155 155 156 156 156 157 157 157 156 156 156 154 154 154 158 158 158 155 155 155 156 156 156 155 155 155 155 155 155 152 152 152 150 150 150 150 150 150 148 148 148 147 147 147 150 150 150 148 148 148 150 150 150 152 152 152 155 155 155 153 153 153 157 157 157 155 155 155 158 158 158 160 160 160 163 163 163
163 163 163 162 162 162 162 162 162 163 163 163 157 157 157 157 157 157 155 155 155 158 158 158 158 158 158 160 160 160 159 159 159 159 159 159 160 160 160 160 160 160 160 160 160 157 157 157 159 159 159 157 157 157 160 160 160 159 159 159 158 158 158 156 156 156 153 153 153 154 154 154 150 150 150 146 146 146 145 145 145 146 146 146 150 150 150 151 151 151 152 152 152 156 156 156 157 157 157 154 154 154 156 156 156 154 154 154 155 155 155 153 153 153 154 154 154 159 159 159 158 158 158 157 157 157 159 159 159 155 155 155 155 155 155 157 157 157 157 157 157 157 157 157 162 162 162 160 160 160 165 165 165 163 163 163 163 163 163 163 163 163 160 160 160 162 162 162 159 159 159 156 156 156 157 157 157 157 157 157 157 157 157 155 155 155 144 144 144 153 153 153 152 152 152 149 149 149 152 152 152 151 151 151 154 154 154 154 154 154 154 154 154 158 158 158 155 155 155 154 154 154 151 151 151 151 151 151 162 162 162 152 152 152 151 151 151 152 152 152 155 155 155 153 153 153 152 152 152 156 156 156 152 152 152 154 154 154 160 160 160 160 160 160 162 162 162 165 165 165 164 164 164 166 166 166 164 164 164 164 164 164 158 158 158 158 158 158 156 156 156 159 159 159 159 159 159 160 160 160 160 160 160 155 155 155 156 156 156 154 154 154 153 153 153 157 157 157 157 157 157 156 156 156 159 159 159 159 159 159 154 154 154 156 156 156 152 152 152 150 150 150 146 146 146 145 145 145 148 148 148 150 150 150 151 151 151 151 151 151 152 152 152 156 156 156 154 154 154 156 156 156 154 154 154 159 159 159 159 159 159 162 162 162
164 164 164 165 165 165 161 161 161 162 162 162 158 158 158 156 156 156 156 156 156 155 155 155 157 157 157 157 157 157 160 160 160 160 160 160 163 163 163 162 162 162 161 161 161 159 159 159 160 160 160 157 157 157 158 158 158 158 158 158 154 154 154 153 153 153 153 153 153 153 153 153 151 151 151 148 148 148 145 145 145 148 148 148 148 148 148 150 150 150 155 155 155 157 157 157 153 153 153 157 157 157 154 154 154 154 154 154 153 153 153 154 154 154 154 154 154 156 156 156 158 158 158 157 157 157 157 157 157 156 156 156 157 157 157 157 157 157 159 159 159 157 157 157 162 162 162 161 161 161 167 167 167 165 165 165 163 163 163 165 165 165 161 161 161 158 158 158 160 160 160 160 160 160 154 154 154 155 155 155 157 157 157 165 165 165 151 151 151 154 154 154 151 151 151 150 150 150 151 151 151 153 153 153 151 151 151 156 156 156 157 157 157 154 154 154 158 158 158 153 153 153 152 152 152 149 149 149 152 152 152 150 150 150 149 149 149 153 153 153 151 151 151 154 154 154 157 157 157 156 156 156 153 153 153 156 156 156 156 156 156 161 161 161 165 165 165 165 165 165 164 164 164 163 163 163 164 164 164 160 160 160 158 158 158 157 157 157 159 159 159 154 154 154 158 158 158 158 158 158 157 157 157 156 156 156 158 158 158 155 155 155 154 154 154 155 155 155 156 156 156 155 155 155 157 157 157 155 155 155 157 157 157 153 153 153 151 151 151 147 147 147 147 147 147 146 146 146 148 148 148 149 149 149 149 149 149 143 143 143 156 156 156 152 152 152 155 155 155 156 156 156 158 158 158 158 158 158 159 159 159 160 160 160
160 160 160 160 160 160 162 162 162 162 162 162 160 160 160 157 157 157 156 156 156 156 156 156 156 156 156 156 156 156 162 162 162 159 159 159 161 161 161 161 161 161 160 160 160 158 158 158 159 159 159 156 156 156 158 158 158 156 156 156 158 158 158 154 154 154 154 154 154 152 152 152 149 149 149 150 150 150 149 149 149 146 146 146 146 146 146 150 150 150 151 151 151 156 156 156 157 157 157 156 156 156 153 153 153 154 154 154 155 155 155 155 155 155 155 155 155 157 157 157 158 158 158 160 160 160 156 156 156 158 158 158 154 154 154 158 158 158 169 169 169 158 158 158 160 160 160 155 155 155 166 166 166 165 165 165 163 163 163 162 162 162 162 162 162 158 158 158 157 157 157 156 156 156 155 155 155 155 155 155 156 156 156 153 153 153 154 154 154 151 151 151 153 153 153 148 148 148 148 148 148 152 152 152 152 152 152 153 153 153 154 154 154 158 158 158 154 154 154 155 155 155 151 151 151 148 148 148 148 148 148 152 152 152 150 150 150 153 153 153 156 156 156 156 156 156 153 153 153 156 156 156 158 158 158 157 157 157 159 159 159 160 160 160 163 163 163 164 164 164 166 166 166 164 164 164 166 166 166 164 164 164 159 159 159 156 156 156 157 157 157 158 158 158 154 154 154 157 157 157 155 155 155 156 156 156 158 158 158 153 153 153 155 155 155 152 152 152 153 153 153 154 154 154 155 155 155 158 158 158 155 155 155 156 156 156 154 154 154 148 148 148 147 147 147 145 145 145 146 146 146 146 146 146 149 149 149 153 153 153 154 154 154 156 156 156 158 158 158 156 156 156 157 157 157 157 157 157 161 161 161 162 162 162
161 161 161 160 160 160 162 162 162 159 159 159 160 160 160 160 160 160 158 158 158 154 154 154 158 158 158 156 156 156 159 159 159 163 163 163 161 161 161 163 163 163 163 163 163 162 162 162 158 158 158 159 159 159 154 154 154 156 156 156 154 154 154 155 155 155 151 151 151 153 153 153 147 147 147 146 146 146 145 145 145 146 146 146 147 147 147 152 152 152 154 154 154 164 164 164 158 158 158 159 159 159 154 154 154 158 158 158 153 153 153 155 155 155 154 154 154 154 154 154 156 156 156 158 158 158 158 158 158 159 159 159 157 157 157 157 157 157 156 156 156 160 160 160 159 159 159 165 165 165 167 167 167 167 167 167 165 165 165 165 165 165 161 161 161 158 158 158 159 159 159 154 154 154 157 157 157 155 155 155 155 155 155 156 156 156 152 152 152 153 153 153 151 151 151 152 152 152 151 151 151 152 152 152 150 150 150 156 156 156 156 156 156 156 156 156 156 156 156 154 154 154 151 151 151 152 152 152 149 149 149 148 148 148 153 153 153 154 154 154 155 155 155 157 157 157 155 155 155 155 155 155 156 156 156 156 156 156 161 161 161 159 159 159 162 162 162 164 164 164 165 165 165 164 164 164 162 162 162 164 164 164 159 159 159 158 158 158 156 156 156 155 155 155 157 157 157 155 155 155 156 156 156 159 159 159 158 158 158 157 157 157 156 156 156 156 156 156 148 148 148 153 153 153 155 155 155 158 158 158 157 157 157 152 152 152 151 151 151 148 148 148 148 148 148 146 146 146 147 147 147 149 149 149 152 152 152 150 150 150 155 155 155 158 158 158 159 159 159 160 160 160 156 156 156 159 159 159 161 161 161 161 161 161
160 160 160 163 163 163 164 164 164 161 161 161 158 158 158 157 157 157 155 155 155 158 158 158 156 156 156 156 156 156 158 158 158 161 161 161 161 161 161 163 163 163 161 161 161 162 162 162 170 170 170 156 156 156 154 154 154 156 156 156 156 156 156 155 155 155 150 150 150 153 153 153 150 150 150 149 149 149 149 149 149 147 147 147 147 147 147 149 149 149 154 154 154 157 157 157 156 156 156 158 158 158 156 156 156 154 154 154 150 150 150 153 153 153 157 157 157 157 157 157 159 159 159 156 156 156 156 156 156 160 160 160 156 156 156 158 158 158 157 157 157 157 157 157 162 162 162 163 163 163 162 162 162 164 164 164 166 166 166 165 165 165 162 162 162 159 159 159 156 156 156 154 154 154 153 153 153 152 152 152 156 156 156 151 151 151 155 155 155 152 152 152 152 152 152 148 148 148 150 150 150 152 152 152 150 150 150 153 153 153 157 157 157 156 156 156 157 157 157 152 152 152 155 155 155 149 149 149 151 151 151 151 151 151 149 149 149 150 150 150 153 153 153 154 154 154 157 157 157 159 159 159 157 157 157 158 158 158 158 158 158 161 161 161 160 160 160 166 166 166 165 165 165 164 164 164 163 163 163 160 160 160 158 158 158 159 159 159 155 155 155 156 156 156 157 157 157 158 158 158 155 155 155 158 158 158 157 157 157 159 159 159 154 154 154 157 157 157 155 155 155 155 155 155 156 156 156 153 153 153 155 155 155 156 156 156 152 152 152 150 150 150 148 148 148 145 145 145 146 146 146 145 145 145 148 148 148 155 155 155 156 156 156 155 155 155 156 156 156 159 159 159 156 156 156 159 159 159 158 158 158 161 161 161
159 159 159 172 172 172 163 163 163 158 158 158 158 158 158 158 158 158 157 157 157 156 156 156 154 154 154 156 156 156 161 161 161 161 161 161 164 164 164 163 163 163 161 161 161 160 160 160 157 157 157 156 156 156 156 156 156 151 151 151 152 152 152 154 154 154 152 152 152 149 149 149 148 148 148 149 149 149 148 148 148 148 148 148 150 150 150 153 153 153 152 152 152 154 154 154 157 157 157 160 160 160 159 159 159 157 157 157 156 156 156 156 156 156 155 155 155 156 156 156 156 156 156 158 158 158 160 160 160 160 160 160 157 157 157 158 158 158 158 158 158 158 158 158 160 160 160 162 162 162 166 166 166 164 164 164 166 166 166 166 166 166 162 162 162 157 157 157 157 157 157 154 154 154 153 153 153 155 155 155 151 151 151 154 154 154 151 151 151 154 154 154 152 152 152 151 151 151 150 150 150 151 151 151 152 152 152 156 156 156 157 157 157 157 157 157 157 157 157 156 156 156 154 154 154 152 152 152 148 148 148 148 148 148 148 148 148 151 151 151 153 153 153 158 158 158 156 156 156 157 157 157 157 157 157 157 157 157 159 159 159 159 159 159 162 162 162 164 164 164 166 166 166 165 165 165 162 162 162 154 154 154 160 160 160 154 154 154 155 155 155 157 157 157 154 154 154 156 156 156 156 156 156 156 156 156 155 155 155 157 157 157 158 158 158 156 156 156 153 153 153 152 152 152 152 152 152 155 155 155 155 155 155 155 155 155 152 152 152 151 151 151 156 156 156 145 145 145 148 148 148 149 149 149 151 151 151 153 153 153 154 154 154 158 158 158 158 158 158 158 158 158 161 161 161 157 157 157 157 157 157 160 160 160
162 162 162 163 163 163 163 163 163 160 160 160 160 160 160 159 159 159 157 157 157 154 154 154 155 155 155 157 157 157 161 161 161 162 162 162 162 162 162 162 162 162 164 164 164 161 161 161 157 157 157 158 158 158 156 156 156 155 155 155 152 152 152 150 150 150 154 154 154 145 145 145 148 148 148 149 149 149 149 149 149 150 150 150 147 147 147 149 149 149 154 154 154 156 156 156 158 158 158 159 159 159 157 157 157 156 156 156 157 157 157 156 156 156 152 152 152 157 157 157 154 154 154 158 158 158 157 157 157 158 158 158 156 156 156 158 158 158 161 161 161 157 157 157 158 158 158 165 165 165 163 163 163 166 166 166 163 163 163 163 163 163 161 161 161 158 158 158 156 156 156 154 154 154 153 153 153 151 151 151 153 153 153 153 153 153 155 155 155 150 150 150 150 150 150 149 149 149 152 152 152 149 149 149 155 155 155 156 156 156 153 153 153 155 155 155 154 154 154 155 155 155 153 153 153 150 150 150 151 151 151 151 151 151 149 149 149 151 151 151 153 153 153 158 158 158 159 159 159 159 159 159 161 161 161 161 161 161 160 160 160 162 162 162 165 165 165 162 162 162 165 165 165 164 164 164 165 165 165 163 163 163 160 160 160 158 158 158 153 153 153 155 155 155 154 154 154 168 168 168 154 154 154 160 160 160 156 156 156 158 158 158 154 154 154 153 153 153 152 152 152 156 156 156 155 155 155 156 156 156 156 156 156 154 154 154 152 152 152 152 152 152 148 148 148 147 147 147 149 149 149 146 146 146 151 151 151 153 153 153 158 158 158 156 156 156 158 158 158 161 161 161 159 159 159 161 161 161 160 160 160 157 157 157
161 161 161 160 160 160 160 160 160 160 160 160 160 160 160 159 159 159 158 158 158 155 155 155 156 156 156 157 157 157 161 161 161 158 158 158 161 161 161 162 162 162 161 161 161 159 159 159 155 155 155 154 154 154 155 155 155 153 153 153 150 150 150 152 152 152 151 151 151 151 151 151 149 149 149 149 149 149 147 147 147 150 150 150 149 149 149 149 149 149 152 152 152 158 158 158 158 158 158 159 159 159 159 159 159 159 159 159 153 153 153 153 153 153 152 152 152 153 153 153 154 154 154 156 156 156 159 159 159 158 158 158 159 159 159 158 158 158 159 159 159 158 158 158 159 159 159 161 161 161 166 166 166 167 167 167 166 166 166 164 164 164 160 160 160 158 158 158 154 154 154 156 156 156 154 154 154 150 150 150 150 150 150 154 154 154 153 153 153 155 155 155 154 154 154 153 153 153 151 151 151 151 151 151 154 154 154 155 155 155 156 156 156 156 156 156 153 153 153 152 152 152 155 155 155 149 149 149 148 148 148 152 152 152 150 150 150 152 152 152 147 147 147 157 157 157 158 158 158 159 159 159 172 172 172 159 159 159 159 159 159 161 161 161 163 163 163 161 161 161 165 165 165 162 162 162 164 164 164 159 159 159 160 160 160 156 156 156 157 157 157 156 156 156 152 152 152 154 154 154 155 155 155 158 158 158 160 160 160 159 159 159 158 158 158 156 156 156 154 154 154 152 152 152 152 152 152 155 155 155 153 153 153 152 152 152 150 150 150 148 148 148 146 146 146 146 146 146 146 146 146 146 146 146 149 149 149 155 155 155 155 155 155 159 159 159 158 158 158 162 162 162 158 158 158 161 161 161 157 157 157 160 160 160
157 157 157 161 161 161 161 161 161 162 162 162 160 160 160 157 157 157 157 157 157 157 157 157 158 158 158 156 156 156 150 150 150 163 163 163 164 164 164 164 164 164 162 162 162 161 161 161 156 156 156 155 155 155 151 151 151 150 150 150 153 153 153 153 153 153 151 151 151 151 151 151 149 149 149 147 147 147 150 150 150 150 150 150 147 147 147 152 152 152 156 156 156 155 155 155 155 155 155 156 156 156 160 160 160 158 158 158 157 157 157 153 153 153 154 154 154 155 155 155 157 157 157 156 156 156 157 157 157 157 157 157 160 160 160 161 161 161 160 160 160 160 160 160 163 163 163 163 163 163 163 163 163 164 164 164 166 166 166 164 164 164 160 160 160 157 157 157 157 157 157 151 151 151 154 154 154 150 150 150 154 154 154 152 152 152 154 154 154 153 153 153 153 153 153 151 151 151 151 151 151 152 152 152 151 151 151 162 162 162 155 155 155 154 154 154 153 153 153 155 155 155 151 151 151 153 153 153 149 149 149 149 149 149 148 148 148 153 153 153 154 154 154 158 158 158 158 158 158 159 159 159 162 162 162 163 163 163 160 160 160 162 162 162 160 160 160 165 165 165 163 163 163 163 163 163 162 162 162 162 162 162 158 158 158 156 156 156 156 156 156 152 152 152 152 152 152 157 157 157 154 154 154 159 159 159 156 156 156 159 159 159 158 158 158 155 155 155 152 152 152 150 150 150 153 153 153 150 150 150 153 153 153 152 152 152 150 150 150 148 148 148 150 150 150 150 150 150 149 149 149 149 149 149 151 151 151 153 153 153 155 155 155 159 159 159 160 160 160 160 160 160 160 160 160 159 159 159 160 160 160 157 157 157
161 161 161 161 161 161 162 162 162 158 158 158 162 162 162 160 160 160 159 159 159 157 157 157 155 155 155 158 158 158 159 159 159 159 159 159 164 164 164 161 161 161 162 162 162 162 162 162 157 157 157 157 157 157 152 152 152 149 149 149 151 151 151 152 152 152 150 150 150 152 152 152 149 149 149 148 148 148 150 150 150 148 148 148 150 150 150 150 150 150 153 153 153 158 158 158 155 155 155 157 157 157 160 160 160 160 160 160 157 157 157 153 153 153 155 155 155 153 153 153 157 157 157 159 159 159 160 160 160 159 159 159 159 159 159 159 159 159 160 160 160 161 161 161 161 161 161 160 160 160 163 163 163 162 162 162 164 164 164 166 166 166 171 171 171 161 161 161 154 154 154 151 151 151 150 150 150 151 151 151 152 152 152 153 153 153 152 152 152 151 151 151 155 155 155 153 153 153 153 153 153 147 147 147 150 150 150 151 151 151 154 154 154 156 156 156 154 154 154 155 155 155 151 151 151 150 150 150 150 150 150 148 148 148 150 150 150 152 152 152 154 154 154 158 158 158 160 160 160 163 163 163 161 161 161 164 164 164 160 160 160 162 162 162 162 162 162 163 163 163 161 161 161 162 162 162 162 162 162 163 163 163 160 160 160 158 158 158 153 153 153 152 152 152 152 152 152 155 155 155 156 156 156 157 157 157 160 160 160 159 159 159 156 156 156 155 155 155 156 156 156 152 152 152 150 150 150 151 151 151 151 151 151 153 153 153 152 152 152 151 151 151 149 149 149 148 148 148 146 146 146 148 148 148 150 150 150 152 152 152 154 154 154 161 161 161 160 160 160 162 162 162 162 162 162 162 162 162 159 159 159 160 160 160
158 158 158 159 159 159 158 158 158 160 160 160 158 158 158 158 158 158 160 160 160 160 160 160 156 156 156 157 157 157 157 157 157 162 162 162 162 162 162 162 162 162 163 163 163 158 158 158 157 157 157 156 156 156 150 150 150 151 151 151 151 151 151 148 148 148 147 147 147 152 152 152 150 150 150 150 150 150 151 151 151 151 151 151 148 148 148 151 151 151 152 152 152 155 155 155 155 155 155 160 160 160 161 161 161 156 156 156 155 155 155 156 156 156 155 155 155 165 165 165 154 154 154 156 156 156 157 157 157 158 158 158 158 158 158 162 162 162 163 163 163 160 160 160 160 160 160 164 164 164 164 164 164 164 164 164 165 165 165 164 164 164 159 159 159 156 156 156 155 155 155 151 151 151 150 150 150 148 148 148 153 153 153 150 150 150 155 155 155 153 153 153 155 155 155 153 153 153 152 152 152 150 150 150 154 154 154 154 154 154 152 152 152 153 153 153 154 154 154 156 156 156 151 151 151 153 153 153 151 151 151 150 150 150 148 148 148 150 150 150 153 153 153 157 157 157 161 161 161 160 160 160 164 164 164 162 162 162 164 164 164 161 161 161 164 164 164 164 164 164 164 164 164 163 163 163 163 163 163 162 162 162 156 156 156 155 155 155 156 156 156 153 153 153 152 152 152 157 157 157 157 157 157 157 157 157 158 158 158 156 156 156 158 158 158 156 156 156 154 154 154 154 154 154 149 149 149 150 150 150 149 149 149 151 151 151 150 150 150 149 149 149 147 147 147 149 149 149 150 150 150 149 149 149 151 151 151 155 155 155 157 157 157 160 160 160 163 163 163 159 159 159 153 153 153 163 163 163 157 157 157 158 158 158
158 158 158 157 157 157 159 159 159 159 159 159 159 159 159 159 159 159 161 161 161 159 159 159 156 156 156 158 158 158 156 156 156 158 158 158 160 160 160 164 164 164 161 161 161 159 159 159 155 155 155 154 154 154 153 153 153 149 149 149 148 148 148 148 148 148 149 149 149 149 149 149 162 162 162 149 149 149 149 149 149 149 149 149 152 152 152 154 154 154 155 155 155 156 156 156 156 156 156 156 156 156 158 158 158 158 158 158 154 154 154 157 157 157 152 152 152 153 153 153 155 155 155 157 157 157 159 159 159 162 162 162 163 163 163 162 162 162 162 162 162 161 161 161 162 162 162 162 162 162 164 164 164 161 161 161 162 162 162 161 161 161 152 152 152 157 157 157 157 157 157 152 152 152 150 150 150 150 150 150 152 152 152 152 152 152 155 155 155 156 156 156 153 153 153 152 152 152 153 153 153 153 153 153 151 151 151 155 155 155 152 152 152 154 154 154 155 155 155 155 155 155 154 154 154 154 154 154 151 151 151 148 148 148 153 153 153 153 153 153 156 156 156 160 160 160 162 162 162 164 164 164 164 164 164 162 162 162 161 161 161 160 160 160 160 160 160 164 164 164 164 164 164 162 162 162 162 162 162 161 161 161 158 158 158 158 158 158 156 156 156 153 153 153 156 156 156 152 152 152 154 154 154 158 158 158 158 158 158 158 158 158 159 159 159 156 156 156 153 153 153 152 152 152 148 148 148 151 151 151 153 153 153 150 150 150 152 152 152 148 148 148 149 149 149 149 149 149 147 147 147 148 148 148 152 152 152 156 156 156 159 159 159 161 161 161 162 162 162 160 160 160 163 163 163 161 161 161 159 159 159 158 158 158
156 156 156 160 160 160 161 161 161 159 159 159 160 160 160 161 161 161 159 159 159 156 156 156 160 160 160 167 167 167 159 159 159 160 160 160 162 162 162 160 160 160 158 158 158 158 158 158 156 156 156 154 154 154 152 152 152 149 149 149 150 150 150 148 148 148 150 150 150 148 148 148 152 152 152 149 149 149 150 150 150 151 151 151 150 150 150 152 152 152 154 154 154 156 156 156 159 159 159 159 159 159 158 158 158 157 157 157 157 157 157 154 154 154 154 154 154 154 154 154 155 155 155 155 155 155 158 158 158 160 160 160 162 162 162 164 164 164 164 164 164 164 164 164 163 163 163 160 160 160 162 162 162 164 164 164 161 161 161 162 162 162 161 161 161 156 156 156 153 153 153 153 153 153 153 153 153 150 150 150 151 151 151 152 152 152 155 155 155 153 153 153 154 154 154 154 154 154 156 156 156 154 154 154 151 151 151 152 152 152 154 154 154 156 156 156 153 153 153 154 154 154 152 152 152 150 150 150 152 152 152 149 149 149 152 152 152 152 152 152 154 154 154 158 158 158 163 163 163 163 163 163 162 162 162 161 161 161 164 164 164 161 161 161 161 161 161 160 160 160 162 162 162 160 160 160 159 159 159 160 160 160 159 159 159 157 157 157 156 156 156 151 151 151 154 154 154 154 154 154 154 154 154 157 157 157 159 159 159 157 157 157 156 156 156 157 157 157 155 155 155 151 151 151 152 152 152 149 149 149 148 148 148 144 144 144 152 152 152 152 152 152 149 149 149 151 151 151 149 149 149 152 152 152 152 152 152 154 154 154 158 158 158 159 159 159 172 172 172 160 160 160 163 163 163 162 162 162 158 158 158 161 161 161
156 156 156 158 158 158 159 159 159 160 160 160 160 160 160 161 161 161 158 158 158 159 159 159 157 157 157 156 156 156 161 161 161 161 161 161 162 162 162 162 162 162 159 159 159 157 157 157 155 155 155 155 155 155 152 152 152 147 147 147 150 150 150 150 150 150 148 148 148 149 149 149 149 149 149 149 149 149 153 153 153 149 149 149 151 151 151 152 152 152 156 156 156 153 153 153 155 155 155 160 160 160 160 160 160 158 158 158 158 158 158 154 154 154 155 155 155 154 154 154 153 153 153 150 150 150 159 159 159 160 160 160 164 164 164 163 163 163 163 163 163 163 163 163 160 160 160 163 163 163 164 164 164 163 163 163 161 161 161 163 163 163 160 160 160 156 156 156 154 154 154 154 154 154 152 152 152 149 149 149 152 152 152 148 148 148 153 153 153 153 153 153 154 154 154 153 153 153 152 152 152 151 151 151 153 153 153 154 154 154 155 155 155 154 154 154 155 155 155 156 156 156 152 152 152 152 152 152 152 152 152 152 152 152 150 150 150 152 152 152 154 154 154 159 159 159 163 163 163 161 161 161 164 164 164 164 164 164 164 164 164 162 162 162 163 163 163 161 161 161 161 161 161 158 158 158 160 160 160 158 158 158 156 156 156 154 154 154 155 155 155 153 153 153 155 155 155 156 156 156 156 156 156 156 156 156 156 156 156 157 157 157 158 158 158 154 154 154 156 156 156 163 163 163 151 151 151 150 150 150 151 151 151 149 149 149 150 150 150 149 149 149 153 153 153 151 151 151 150 150 150 153 153 153 155 155 155 154 154 154 157 157 157 159 159 159 163 163 163 164 164 164 160 160 160 159 159 159 158 158 158 159 159 159
157 157 157 159 159 159 156 156 156 160 160 160 158 158 158 158 158 158 160 160 160 158 158 158 158 158 158 156 156 156 160 160 160 157 157 157 158 158 158 158 158 158 158 158 158 157 157 157 158 158 158 151 151 151 153 153 153 148 148 148 145 145 145 146 146 146 148 148 148 148 148 148 152 152 152 154 154 154 153 153 153 151 151 151 154 154 154 152 152 152 154 154 154 154 154 154 157 157 157 156 156 156 159 159 159 158 158 158 159 159 159 158 158 158 154 154 154 156 156 156 157 157 157 157 157 157 159 159 159 161 161 161 160 160 160 162 162 162 163 163 163 162 162 162 160 160 160 159 159 159 163 163 163 161 161 161 163 163 163 158 158 158 162 162 162 158 158 158 154 154 154 153 153 153 148 148 148 147 147 147 149 149 149 150 150 150 153 153 153 154 154 154 156 156 156 156 156 156 155 155 155 152 152 152 150 150 150 154 154 154 154 154 154 153 153 153 152 152 152 153 153 153 152 152 152 153 153 153 154 154 154 152 152 152 152 152 152 155 155 155 156 156 156 157 157 157 163 163 163 164 164 164 165 165 165 166 166 166 165 165 165 161 161 161 160 160 160 158 158 158 160 160 160 162 162 162 172 172 172 161 161 161 157 157 157 155 155 155 153 153 153 152 152 152 145 145 145 152 152 152 156 156 156 156 156 156 159 159 159 159 159 159 157 157 157 154 154 154 154 154 154 152 152 152 152 152 152 150 150 150 148 148 148 149 149 149 152 152 152 152 152 152 149 149 149 149 149 149 151 151 151 154 154 154 155 155 155 154 154 154 159 159 159 162 162 162 164 164 164 163 163 163 162 162 162 162 162 162 161 161 161 158 158 158
157 157 157 159 159 159 157 157 157 161 161 161 161 161 161 160 160 160 158 158 158 160 160 160 161 161 161 159 159 159 159 159 159 157 157 157 161 161 161 159 159 159 158 158 158 159 159 159 154 154 154 155 155 155 149 149 149 150 150 150 148 148 148 149 149 149 146 146 146 147 147 147 149 149 149 153 153 153 151 151 151 155 155 155 148 148 148 154 154 154 154 154 154 156 156 156 157 157 157 156 156 156 157 157 157 159 159 159 159 159 159 158 158 158 154 154 154 156 156 156 157 157 157 154 154 154 157 157 157 159 159 159 165 165 165 163 163 163 161 161 161 161 161 161 164 164 164 161 161 161 159 159 159 159 159 159 158 158 158 160 160 160 157 157 157 158 158 158 153 153 153 152 152 152 150 150 150 149 149 149 147 147 147 148 148 148 154 154 154 152 152 152 157 157 157 154 154 154 154 154 154 154 154 154 154 154 154 153 153 153 154 154 154 151 151 151 153 153 153 152 152 152 155 155 155 151 151 151 152 152 152 165 165 165 150 150 150 155 155 155 155 155 155 160 160 160 162 162 162 165 165 165 165 165 165 166 166 166 163 163 163 164 164 164 161 161 161 162 162 162 161 161 161 158 158 158 157 157 157 158 158 158 157 157 157 158 158 158 155 155 155 152 152 152 153 153 153 153 153 153 155 155 155 154 154 154 159 159 159 155 155 155 158 158 158 154 154 154 153 153 153 149 149 149 150 150 150 146 146 146 150 150 150 148 148 148 152 152 152 152 152 152 151 151 151 150 150 150 150 150 150 152 152 152 151 151 151 158 158 158 158 158 158 159 159 159 160 160 160 162 162 162 164 164 164 161 161 161 160 160 160 157 157 157
157 157 157 158 158 158 158 158 158 161 161 161 162 162 162 159 159 159 159 159 159 159 159 159 159 159 159 158 158 158 157 157 157 157 157 157 161 161 161 159 159 159 158 158 158 158 158 158 156 156 156 153 153 153 150 150 150 149 149 149 145 145 145 145 145 145 149 149 149 147 147 147 152 152 152 151 151 151 154 154 154 153 153 153 151 151 151 152 152 152 156 156 156 153 153 153 154 154 154 156 156 156 157 157 157 156 156 156 158 158 158 158 158 158 155 155 155 152 152 152 156 156 156 158 158 158 160 160 160 163 163 163 162 162 162 166 166 166 165 165 165 164 164 164 161 161 161 163 163 163 161 161 161 159 159 159 161 161 161 159 159 159 159 159 159 159 159 159 154 154 154 151 151 151 148 148 148 149 149 149 150 150 150 149 149 149 163 163 163 154 154 154 155 155 155 155 155 155 157 157 157 155 155 155 153 153 153 150 150 150 150 150 150 154 154 154 151 151 151 154 154 154 152 152 152 153 153 153 156 156 156 152 152 152 153 153 153 155 155 155 157 157 157 160 160 160 159 159 159 162 162 162 164 164 164 158 158 158 163 163 163 164 164 164 163 163 163 158 158 158 158 158 158 161 161 161 160 160 160 156 156 156 156 156 156 158 158 158 155 155 155 154 154 154 155 155 155 153 153 153 153 153 153 157 157 157 158 158 158 156 156 156 158 158 158 153 153 153 152 152 152 153 153 153 151 151 151 148 148 148 149 149 149 150 150 150 151 151 151 149 149 149 151 151 151 151 151 151 153 153 153 155 155 155 153 153 153 155 155 155 157 157 157 160 160 160 163 163 163 161 161 161 163 163 163 163 163 163 161 161 161 158 158 158
159 159 159 157 157 157 158 158 158 158 158 158 158 158 158 160 160 160 159 159 159 159 159 159 158 158 158 158 158 158 158 158 158 161 161 161 157 157 157 156 156 156 157 157 157 149 149 149 156 156 156 155 155 155 151 151 151 146 146 146 146 146 146 146 146 146 146 146 146 150 150 150 150 150 150 152 152 152 155 155 155 155 155 155 153 153 153 156 156 156 153 153 153 154 154 154 158 158 158 156 156 156 159 159 159 157 157 157 157 157 157 159 159 159 156 156 156 152 152 152 154 154 154 159 159 159 160 160 160 163 163 163 164 164 164 165 165 165 162 162 162 173 173 173 163 163 163 163 163 163 158 158 158 161 161 161 160 160 160 156 156 156 156 156 156 158 158 158 154 154 154 149 149 149 151 151 151 151 151 151 146 146 146 150 150 150 153 153 153 155 155 155 155 155 155 154 154 154 153 153 153 152 152 152 153 153 153 150 150 150 151 151 151 150 150 150 154 154 154 151 151 151 151 151 151 153 153 153 156 156 156 153 153 153 153 153 153 153 153 153 158 158 158 161 161 161 161 161 161 164 164 164 165 165 165 166 166 166 165 165 165 164 164 164 162 162 162 161 161 161 158 158 158 156 156 156 159 159 159 160 160 160 155 155 155 158 158 158 155 155 155 152 152 152 154 154 154 152 152 152 156 156 156 158 158 158 155 155 155 155 155 155 159 159 159 155 155 155 153 153 153 150 150 150 150 150 150 149 149 149 149 149 149 146 146 146 148 148 148 149 149 149 150 150 150 153 153 153 152 152 152 152 152 152 155 155 155 156 156 156 160 160 160 160 160 160 163 163 163 162 162 162 162 162 162 163 163 163 158 158 158 158 158 158
158 158 158 156 156 156 156 156 156 157 157 157 160 160 160 159 159 159 159 159 159 160 160 160 160 160 160 160 160 160 158 158 158 155 155 155 157 157 157 156 156 156 155 155 155 158 158 158 153 153 153 153 153 153 149 149 149 146 146 146 146 146 146 144 144 144 145 145 145 148 148 148 153 153 153 154 154 154 153 153 153 154 154 154 157 157 157 155 155 155 156 156 156 153 153 153 165 165 165 159 159 159 157 157 157 157 157 157 158 158 158 156 156 156 157 157 157 158 158 158 154 154 154 159 159 159 161 161 161 162 162 162 162 162 162 163 163 163 167 167 167 164 164 164 164 164 164 163 163 163 161 161 161 161 161 161 159 159 159 158 158 158 155 155 155 153 153 153 155 155 155 152 152 152 151 151 151 150 150 150 148 148 148 149 149 149 153 153 153 155 155 155 157 157 157 155 155 155 156 156 156 155 155 155 153 153 153 151 151 151 150 150 150 151 151 151 142 142 142 152 152 152 155 155 155 153 153 153 157 157 157 156 156 156 155 155 155 155 155 155 155 155 155 161 161 161 163 163 163 166 166 166 167 167 167 166 166 166 166 166 166 161 161 161 161 161 161 156 156 156 159 159 159 157 157 157 160 160 160 157 157 157 156 156 156 159 159 159 156 156 156 156 156 156 154 154 154 155 155 155 154 154 154 155 155 155 156 156 156 159 159 159 155 155 155 156 156 156 154 154 154 153 153 153 147 147 147 149 149 149 150 150 150 149 149 149 150 150 150 152 152 152 153 153 153 151 151 151 155 155 155 156 156 156 154 154 154 154 154 154 160 160 160 158 158 158 161 161 161 163 163 163 161 161 161 161 161 161 163 163 163 158 158 158
157 157 157 155 155 155 149 149 149 155 155 155 157 157 157 161 161 161 160 160 160 162 162 162 158 158 158 161 161 161 157 157 157 160 160 160 156 156 156 159 159 159 156 156 156 155 155 155 157 157 157 161 161 161 150 150 150 148 148 148 144 144 144 145 145 145 148 148 148 149 149 149 153 153 153 156 156 156 154 154 154 156 156 156 158 158 158 156 156 156 154 154 154 156 156 156 156 156 156 159 159 159 159 159 159 159 159 159 160 160 160 157 157 157 154 154 154 156 156 156 155 155 155 158 158 158 159 159 159 163 163 163 165 165 165 167 167 167 167 167 167 163 163 163 163 163 163 159 159 159 160 160 160 159 159 159 160 160 160 158 158 158 155 155 155 157 157 157 154 154 154 152 152 152 148 148 148 151 151 151 147 147 147 152 152 152 153 153 153 154 154 154 156 156 156 154 154 154 158 158 158 156 156 156 154 154 154 151 151 151 149 149 149 149 149 149 153 153 153 151 151 151 156 156 156 153 153 153 157 157 157 152 152 152 157 157 157 158 158 158 155 155 155 159 159 159 163 163 163 167 167 167 163 163 163 167 167 167 166 166 166 163 163 163 162 162 162 160 160 160 155 155 155 156 156 156 157 157 157 156 156 156 157 157 157 158 158 158 156 156 156 157 157 157 152 152 152 155 155 155 152 152 152 156 156 156 158 158 158 155 155 155 157 157 157 157 157 157 155 155 155 150 150 150 150 150 150 147 147 147 145 145 145 149 149 149 151 151 151 149 149 149 151 151 151 152 152 152 156 156 156 156 156 156 157 157 157 154 154 154 160 160 160 161 161 161 163 163 163 163 163 163 162 162 162 161 161 161 160 160 160 159 159 159
156 156 156 158 158 158 165 165 165 158 158 158 160 160 160 160 160 160 160 160 160 160 160 160 160 160 160 159 159 159 156 156 156 157 157 157 156 156 156 157 157 157 154 154 154 156 156 156 152 152 152 153 153 153 149 149 149 149 149 149 148 148 148 144 144 144 146 146 146 147 147 147 151 151 151 156 156 156 154 154 154 156 156 156 158 158 158 156 156 156 155 155 155 156 156 156 156 156 156 159 159 159 159 159 159 161 161 161 161 161 161 155 155 155 156 156 156 154 154 154 155 155 155 157 157 157 158 158 158 160 160 160 162 162 162 166 166 166 165 165 165 163 163 163 162 162 162 162 162 162 159 159 159 156 156 156 156 156 156 155 155 155 156 156 156 155 155 155 155 155 155 151 151 151 152 152 152 144 144 144 149 149 149 149 149 149 153 153 153 155 155 155 154 154 154 158 158 158 158 158 158 156 156 156 154 154 154 151 151 151 152 152 152 149 149 149 152 152 152 155 155 155 154 154 154 154 154 154 154 154 154 154 154 154 156 156 156 157 157 157 157 157 157 162 162 162 160 160 160 165 165 165 166 166 166 163 163 163 162 162 162 163 163 163 162 162 162 156 156 156 155 155 155 155 155 155 158 158 158 156 156 156 159 159 159 158 158 158 155 155 155 153 153 153 152 152 152 154 154 154 154 154 154 154 154 154 156 156 156 154 154 154 157 157 157 156 156 156 151 151 151 149 149 149 146 146 146 149 149 149 146 146 146 146 146 146 150 150 150 151 151 151 155 155 155 163 163 163 157 157 157 158 158 158 157 157 157 155 155 155 158 158 158 160 160 160 163 163 163 162 162 162 162 162 162 161 161 161 161 161 161 158 158 158
156 156 156 156 156 156 156 156 156 159 159 159 160 160 160 162 162 162 160 160 160 162 162 162 163 163 163 159 159 159 158 158 158 156 156 156 155 155 155 153 153 153 155 155 155 154 154 154 154 154 154 152 152 152 151 151 151 150 150 150 144 144 144 149 149 149 146 146 146 150 150 150 153 153 153 153 153 153 157 157 157 154 154 154 155 155 155 155 155 155 153 153 153 154 154 154 154 154 154 155 155 155 158 158 158 158 158 158 159 159 159 158 158 158 157 157 157 156 156 156 155 155 155 158 158 158 158 158 158 163 163 163 163 163 163 167 167 167 167 167 167 167 167 167 162 162 162 163 163 163 159 159 159 158 158 158 157 157 157 156 156 156 157 157 157 155 155 155 155 155 155 153 153 153 152 152 152 148 148 148 149 149 149 152 152 152 152 152 152 154 154 154 156 156 156 156 156 156 158 158 158 154 154 154 154 154 154 151 151 151 153 153 153 151 151 151 150 150 150 154 154 154 153 153 153 154 154 154 157 157 157 155 155 155 158 158 158 157 157 157 160 160 160 161 161 161 161 161 161 164 164 164 164 164 164 167 167 167 163 163 163 163 163 163 162 162 162 160 160 160 154 154 154 154 154 154 157 157 157 157 157 157 156 156 156 157 157 157 157 157 157 154 154 154 156 156 156 153 153 153 164 164 164 155 155 155 154 154 154 156 156 156 153 153 153 157 157 157 154 154 154 150 150 150 150 150 150 145 145 145 147 147 147 149 149 149 150 150 150 149 149 149 154 154 154 157 157 157 150 150 150 159 159 159 157 157 157 159 159 159 158 158 158 159 159 159 163 163 163 160 160 160 163 163 163 162 162 162 159 159 159 158 158 158
159 159 159 157 157 157 155 155 155 156 156 156 159 159 159 161 161 161 163 163 163 161 161 161 161 161 161 161 161 161 159 159 159 155 155 155 157 157 157 154 154 154 152 152 152 155 155 155 154 154 154 150 150 150 152 152 152 148 148 148 149 149 149 147 147 147 146 146 146 149 149 149 154 154 154 156 156 156 154 154 154 156 156 156 156 156 156 157 157 157 156 156 156 157 157 157 155 155 155 158 158 158 155 155 155 160 160 160 156 156 156 160 160 160 159 159 159 159 159 159 159 159 159 158 158 158 159 159 159 163 163 163 162 162 162 164 164 164 158 158 158 165 165 165 162 162 162 159 159 159 158 158 158 157 157 157 157 157 157 156 156 156 152 152 152 155 155 155 152 152 152 153 153 153 152 152 152 148 148 148 150 150 150 151 151 151 151 151 151 155 155 155 153 153 153 155 155 155 156 156 156 157 157 157 152 152 152 152 152 152 152 152 152 149 149 149 152 152 152 151 151 151 153 153 153 156 156 156 156 156 156 159 159 159 156 156 156 156 156 156 157 157 157 158 158 158 161 161 161 163 163 163 167 167 167 173 173 173 167 167 167 165 165 165 159 159 159 158 158 158 158 158 158 154 154 154 153 153 153 158 158 158 156 156 156 155 155 155 155 155 155 158 158 158 157 157 157 154 154 154 155 155 155 155 155 155 156 156 156 153 153 153 154 154 154 152 152 152 154 154 154 152 152 152 147 147 147 145 145 145 149 149 149 147 147 147 152 152 152 152 152 152 156 156 156 158 158 158 155 155 155 158 158 158 159 159 159 158 158 158 161 161 161 158 158 158 163 163 163 164 164 164 165 165 165 164 164 164 160 160 160 160 160 160
157 157 157 157 157 157 155 155 155 158 158 158 160 160 160 159 159 159 161 161 161 161 161 161 163 163 163 159 159 159 157 157 157 158 158 158 156 156 156 152 152 152 156 156 156 152 152 152 155 155 155 153 153 153 151 151 151 150 150 150 149 149 149 148 148 148 149 149 149 151 151 151 151 151 151 153 153 153 157 157 157 159 159 159 157 157 157 154 154 154 155 155 155 153 153 153 154 154 154 157 157 157 158 158 158 159 159 159 156 156 156 159 159 159 156 156 156 156 156 156 159 159 159 158 158 158 158 158 158 160 160 160 164 164 164 164 164 164 164 164 164 164 164 164 161 161 161 158 158 158 157 157 157 153 153 153 154 154 154 154 154 154 151 151 151 154 154 154 154 154 154 153 153 153 150 150 150 152 152 152 149 149 149 149 149 149 153 153 153 154 154 154 156 156 156 156 156 156 155 155 155 157 157 157 154 154 154 153 153 153 161 161 161 149 149 149 151 151 151 154 154 154 153 153 153 156 156 156 159 159 159 158 158 158 160 160 160 160 160 160 158 158 158 161 161 161 160 160 160 162 162 162 164 164 164 164 164 164 162 162 162 161 161 161 160 160 160 159 159 159 155 155 155 155 155 155 153 153 153 157 157 157 158 158 158 155 155 155 154 154 154 156 156 156 156 156 156 153 153 153 155 155 155 155 155 155 155 155 155 149 149 149 154 154 154 155 155 155 152 152 152 153 153 153 146 146 146 146 146 146 149 149 149 149 149 149 151 151 151 153 153 153 156 156 156 158 158 158 156 156 156 159 159 159 160 160 160 159 159 159 161 161 161 162 162 162 163 163 163 161 161 161 164 164 164 159 159 159 162 162 162 161 161 161
160 160 160 159 159 159 158 158 158 155 155 155 158 158 158 160 160 160 163 163 163 160 160 160 161 161 161 159 159 159 161 161 161 158 158 158 152 152 152 152 152 152 153 153 153 154 154 154 154 154 154 153 153 153 151 151 151 151 151 151 150 150 150 146 146 146 147 147 147 152 152 152 153 153 153 152 152 152 158 158 158 157 157 157 158 158 158 159 159 159 158 158 158 155 155 155 155 155 155 146 146 146 156 156 156 159 159 159 159 159 159 159 159 159 160 160 160 161 161 161 158 158 158 159 159 159 159 159 159 159 159 159 161 161 161 163 163 163 164 164 164 166 166 166 165 165 165 161 161 161 156 156 156 153 153 153 154 154 154 155 155 155 154 154 154 161 161 161 153 153 153 154 154 154 152 152 152 150 150 150 150 150 150 148 148 148 153 153 153 153 153 153 155 155 155 157 157 157 156 156 156 155 155 155 154 154 154 150 150 150 153 153 153 148 148 148 150 150 150 151 151 151 155 155 155 154 154 154 156 156 156 157 157 157 158 158 158 159 159 159 160 160 160 163 163 163 160 160 160 165 165 165 164 164 164 165 165 165 165 165 165 165 165 165 158 158 158 157 157 157 153 153 153 154 154 154 153 153 153 153 153 153 155 155 155 156 156 156 156 156 156 155 155 155 157 157 157 154 154 154 152 152 152 154 154 154 155 155 155 154 154 154 155 155 155 154 154 154 152 152 152 151 151 151 149 149 149 146 146 146 149 149 149 150 150 150 147 147 147 153 153 153 153 153 153 155 155 155 156 156 156 159 159 159 159 159 159 161 161 161 158 158 158 162 162 162 162 162 162 161 161 161 161 161 161 160 160 160 162 162 162 161 161 161
159 159 159 156 156 156 155 155 155 155 155 155 160 160 160 160 160 160 160 160 160 164 164 164 161 161 161 163 163 163 158 158 158 155 155 155 156 156 156 153 153 153 150 150 150 153 153 153 153 153 153 152 152 152 152 152 152 148 148 148 150 150 150 146 146 146 147 147 147 150 150 150 151 151 151 152 152 152 156 156 156 158 158 158 161 161 161 160 160 160 156 156 156 155 155 155 155 155 155 155 155 155 154 154 154 159 159 159 160 160 160 161 161 161 158 158 158 161 161 161 167 167 167 161 161 161 158 158 158 163 163 163 162 162 162 167 167 167 164 164 164 166 166 166 162 162 162 160 160 160 155 155 155 153 153 153 151 151 151 154 154 154 153 153 153 151 151 151 151 151 151 155 155 155 150 150 150 152 152 152 153 153 153 153 153 153 153 153 153 153 153 153 157 157 157 154 154 154 158 158 158 156 156 156 153 153 153 151 151 151 149 149 149 152 152 152 148 148 148 152 152 152 151 151 151 158 158 158 157 157 157 161 161 161 161 161 161 160 160 160 158 158 158 162 162 162 163 163 163 164 164 164 163 163 163 163 163 163 166 166 166 161 161 161 159 159 159 157 157 157 147 147 147 153 153 153 153 153 153 154 154 154 155 155 155 158 158 158 158 158 158 158 158 158 157 157 157 154 154 154 154 154 154 151 151 151 153 153 153 155 155 155 155 155 155 152 152 152 153 153 153 152 152 152 150 150 150 150 150 150 145 145 145 149 149 149 152 152 152 151 151 151 153 153 153 156 156 156 158 158 158 162 162 162 160 160 160 162 162 162 160 160 160 158 158 158 163 163 163 159 159 159 163 163 163 164 164 164 159 159 159 160 160 160
156 156 156 159 159 159 157 157 157 155 155 155 157 157 157 159 159 159 162 162 162 160 160 160 164 164 164 159 159 159 156 156 156 158 158 158 152 152 152 150 150 150 151 151 151 152 152 152 151 151 151 151 151 151 150 150 150 151 151 151 142 142 142 150 150 150 147 147 147 148 148 148 153 153 153 165 165 165 157 157 157 157 157 157 159 159 159 157 157 157 158 158 158 156 156 156 155 155 155 155 155 155 154 154 154 159 159 159 158 158 158 160 160 160 160 160 160 157 157 157 162 162 162 160 160 160 161 161 161 160 160 160 161 161 161 165 165 165 165 165 165 165 165 165 164 164 164 158 158 158 156 156 156 154 154 154 154 154 154 150 150 150 153 153 153 152 152 152 151 151 151 152 152 152 151 151 151 149 149 149 150 150 150 150 150 150 149 149 149 155 155 155 153 153 153 153 153 153 154 154 154 157 157 157 156 156 156 155 155 155 151 151 151 148 148 148 152 152 152 151 151 151 154 154 154 157 157 157 160 160 160 161 161 161 161 161 161 162 162 162 162 162 162 161 161 161 163 163 163 165 165 165 163 163 163 166 166 166 163 163 163 161 161 161 160 160 160 159 159 159 156 156 156 155 155 155 152 152 152 156 156 156 154 154 154 156 156 156 156 156 156 156 156 156 155 155 155 155 155 155 155 155 155 151 151 151 151 151 151 155 155 155 154 154 154 154 154 154 151 151 151 149 149 149 149 149 149 146 146 146 149 149 149 150 150 150 151 151 151 151 151 151 154 154 154 159 159 159 161 161 161 159 159 159 161 161 161 161 161 161 158 158 158 158 158 158 159 159 159 159 159 159 162 162 162 160 160 160 162 162 162 161 161 161
158 158 158 159 159 159 158 158 158 156 156 156 159 159 159 161 161 161 162 162 162 159 159 159 159 159 159 162 162 162 166 166 166 157 157 157 155 155 155 150 150 150 152 152 152 150 150 150 152 152 152 153 153 153 148 148 148 151 151 151 148 148 148 147 147 147 148 148 148 152 152 152 152 152 152 153 153 153 156 156 156 159 159 159 157 157 157 161 161 161 156 156 156 155 155 155 156 156 156 155 155 155 157 157 157 158 158 158 159 159 159 159 159 159 162 162 162 158 158 158 159 159 159 160 160 160 160 160 160 159 159 159 163 163 163 161 161 161 165 165 165 165 165 165 160 160 160 158 158 158 156 156 156 156 156 156 152 152 152 150 150 150 151 151 151 150 150 150 154 154 154 151 151 151 152 152 152 153 153 153 149 149 149 152 152 152 153 153 153 151 151 151 155 155 155 156 156 156 157 157 157 158 158 158 156 156 156 152 152 152 150 150 150 151 151 151 152 152 152 151 151 151 156 156 156 156 156 156 160 160 160 155 155 155 160 160 160 162 162 162 160 160 160 163 163 163 159 159 159 162 162 162 163 163 163 165 165 165 164 164 164 161 161 161 159 159 159 156 156 156 153 153 153 153 153 153 151 151 151 153 153 153 157 157 157 158 158 158 159 159 159 157 157 157 158 158 158 157 157 157 154 154 154 153 153 153 153 153 153 154 154 154 151 151 151 154 154 154 153 153 153 149 149 149 152 152 152 150 150 150 146 146 146 148 148 148 148 148 148 153 153 153 157 157 157 157 157 157 158 158 158 160 160 160 163 163 163 160 160 160 159 159 159 158 158 158 158 158 158 170 170 170 158 158 158 159 159 159 160 160 160 161 161 161
157 157 157 159 159 159 158 158 158 157 157 157 159 159 159 157 157 157 158 158 158 155 155 155 160 160 160 163 163 163 160 160 160 155 155 155 152 152 152 152 152 152 152 152 152 150 150 150 150 150 150 150 150 150 150 150 150 150 150 150 147 147 147 149 149 149 150 150 150 151 151 151 150 150 150 156 156 156 158 158 158 157 157 157 157 157 157 157 157 157 159 159 159 156 156 156 157 157 157 157 157 157 153 153 153 158 158 158 157 157 157 159 159 159 158 158 158 161 161 161 159 159 159 159 159 159 159 159 159 159 159 159 161 161 161 163 163 163 165 165 165 165 165 165 162 162 162 160 160 160 157 157 157 151 151 151 152 152 152 150 150 150 151 151 151 151 151 151 150 150 150 152 152 152 154 154 154 151 151 151 151 151 151 150 150 150 154 154 154 154 154 154 152 152 152 153 153 153 156 156 156 154 154 154 152 152 152 153 153 153 153 153 153 149 149 149 150 150 150 151 151 151 155 155 155 156 156 156 160 160 160 163 163 163 161 161 161 164 164 164 163 163 163 162 162 162 164 164 164 162 162 162 164 164 164 163 163 163 165 165 165 164 164 164 159 159 159 159 159 159 154 154 154 152 152 152 151 151 151 153 153 153 155 155 155 157 157 157 155 155 155 156 156 156 155 155 155 156 156 156 154 154 154 154 154 154 151 151 151 151 151 151 154 154 154 151 151 151 154 154 154 151 151 151 159 159 159 146 146 146 147 147 147 147 147 147 151 151 151 152 152 152 154 154 154 160 160 160 162 162 162 160 160 160 161 161 161 162 162 162 160 160 160 158 158 158 158 158 158 158 158 158 162 162 162 158 158 158 159 159 159 157 157 157
156 156 156 156 156 156 157 157 157 156 156 156 156 156 156 158 158 158 159 159 159 162 162 162 162 162 162 159 159 159 159 159 159 158 158 158 154 154 154 153 153 153 149 149 149 147 147 147 150 150 150 148 148 148 152 152 152 153 153 153 151 151 151 149 149 149 152 152 152 149 149 149 151 151 151 154 154 154 158 158 158 158 158 158 162 162 162 157 157 157 159 159 159 156 156 156 157 157 157 157 157 157 153 153 153 158 158 158 157 157 157 160 160 160 161 161 161 159 159 159 161 161 161 163 163 163 162 162 162 163 163 163 163 163 163 165 165 165 161 161 161 164 164 164 162 162 162 158 158 158 154 154 154 151 151 151 149 149 149 151 151 151 148 148 148 152 152 152 151 151 151 154 154 154 151 151 151 152 152 152 152 152 152 152 152 152 154 154 154 151 151 151 146 146 146 154 154 154 153 153 153 153 153 153 156 156 156 155 155 155 154 154 154 149 149 149 152 152 152 152 152 152 156 156 156 158 158 158 160 160 160 161 161 161 163 163 163 161 161 161 165 165 165 164 164 164 161 161 161 162 162 162 162 162 162 164 164 164 162 162 162 163 163 163 160 160 160 158 158 158 154 154 154 152 152 152 152 152 152 165 165 165 153 153 153 158 158 158 155 155 155 155 155 155 159 159 159 156 156 156 153 153 153 154 154 154 151 151 151 151 151 151 151 151 151 149 149 149 151 151 151 153 153 153 150 150 150 150 150 150 149 149 149 149 149 149 152 152 152 154 154 154 157 157 157 157 157 157 159 159 159 160 160 160 162 162 162 162 162 162 158 158 158 157 157 157 158 158 158 157 157 157 159 159 159 158 158 158 159 159 159 159 159 159
157 157 157 160 160 160 159 159 159 155 155 155 157 157 157 157 157 157 160 160 160 163 163 163 161 161 161 161 161 161 157 157 157 156 156 156 154 154 154 148 148 148 147 147 147 147 147 147 150 150 150 149 149 149 151 151 151 152 152 152 150 150 150 149 149 149 149 149 149 151 151 151 154 154 154 154 154 154 159 159 159 158 158 158 161 161 161 157 157 157 159 159 159 157 157 157 155 155 155 153 153 153 156 156 156 157 157 157 156 156 156 161 161 161 161 161 161 160 160 160 163 163 163 162 162 162 160 160 160 162 162 162 159 159 159 161 161 161 165 165 165 160 160 160 159 159 159 161 161 161 154 154 154 152 152 152 152 152 152 148 148 148 150 150 150 150 150 150 152 152 152 152 152 152 152 152 152 155 155 155 153 153 153 150 150 150 154 154 154 154 154 154 153 153 153 153 153 153 156 156 156 153 153 153 156 156 156 152 152 152 152 152 152 151 151 151 152 152 152 151 151 151 155 155 155 156 156 156 158 158 158 164 164 164 173 173 173 162 162 162 165 165 165 162 162 162 164 164 164 162 162 162 162 162 162 163 163 163 161 161 161 159 159 159 158 158 158 156 156 156 156 156 156 153 153 153 154 154 154 151 151 151 155 155 155 157 157 157 158 158 158 156 156 156 155 155 155 156 156 156 155 155 155 153 153 153 149 149 149 150 150 150 150 150 150 152 152 152 152 152 152 151 151 151 151 151 151 149 149 149 148 148 148 149 149 149 153 153 153 152 152 152 158 158 158 157 157 157 164 164 164 161 161 161 161 161 161 161 161 161 163 163 163 153 153 153 159 159 159 160 160 160 157 157 157 159 159 159 162 162 162 162 162 162
161 161 161 160 160 160 158 158 158 160 160 160 157 157 157 157 157 157 158 158 158 161 161 161 160 160 160 157 157 157 158 158 158 157 157 157 152 152 152 152 152 152 147 147 147 148 148 148 151 151 151 150 150 150 151 151 151 150 150 150 152 152 152 153 153 153 152 152 152 151 151 151 152 152 152 156 156 156 157 157 157 160 160 160 162 162 162 160 160 160 157 157 157 157 157 157 153 153 153 152 152 152 156 156 156 157 157 157 160 160 160 161 161 161 160 160 160 163 163 163 162 162 162 162 162 162 161 161 161 162 162 162 161 161 161 162 162 162 161 161 161 161 161 161 160 160 160 158 158 158 157 157 157 147 147 147 151 151 151 151 151 151 150 150 150 148 148 148 150 150 150 151 151 151 153 153 153 152 152 152 155 155 155 153 153 153 153 153 153 160 160 160 152 152 152 153 153 153 152 152 152 155 155 155 155 155 155 152 152 152 153 153 153 149 149 149 152 152 152 151 151 151 153 153 153 156 156 156 159 159 159 165 165 165 161 161 161 164 164 164 163 163 163 165 165 165 160 160 160 163 163 163 160 160 160 160 160 160 159 159 159 161 161 161 159 159 159 155 155 155 157 157 157 156 156 156 153 153 153 151 151 151 154 154 154 156 156 156 158 158 158 159 159 159 156 156 156 157 157 157 154 154 154 153 153 153 149 149 149 150 150 150 149 149 149 150 150 150 151 151 151 150 150 150 148 148 148 150 150 150 151 151 151 151 151 151 151 151 151 155 155 155 157 157 157 159 159 159 164 164 164 164 164 164 164 164 164 162 162 162 163 163 163 158 158 158 160 160 160 159 159 159 158 158 158 160 160 160 162 162 162 161 161 161
162 162 162 160 160 160 158 158 158 158 158 158 156 156 156 158 158 158 160 160 160 162 162 162 160 160 160 161 161 161 160 160 160 156 156 156 151 151 151 151 151 151 148 148 148 145 145 145 147 147 147 151 151 151 149 149 149 151 151 151 151 151 151 152 152 152 153 153 153 151 151 151 155 155 155 153 153 153 159 159 159 160 160 160 159 159 159 158 158 158 161 161 161 156 156 156 155 155 155 155 155 155 157 157 157 154 154 154 160 160 160 162 162 162 160 160 160 161 161 161 163 163 163 162 162 162 163 163 163 163 163 163 159 159 159 162 162 162 159 159 159 159 159 159 171 171 171 159 159 159 155 155 155 150 150 150 151 151 151 149 149 149 151 151 151 152 152 152 151 151 151 152 152 152 156 156 156 154 154 154 155 155 155 154 154 154 153 153 153 151 151 151 151 151 151 155 155 155 151 151 151 153 153 153 157 157 157 152 152 152 153 153 153 151 151 151 152 152 152 151 151 151 156 156 156 157 157 157 159 159 159 164 164 164 162 162 162 166 166 166 162 162 162 165 165 165 159 159 159 159 159 159 158 158 158 161 161 161 163 163 163 159 159 159 156 156 156 157 157 157 153 153 153 154 154 154 151 151 151 153 153 153 152 152 152 156 156 156 157 157 157 156 156 156 156 156 156 156 156 156 155 155 155 151 151 151 150 150 150 152 152 152 151 151 151 151 151 151 150 150 150 149 149 149 145 145 145 151 151 151 152 152 152 153 153 153 150 150 150 156 156 156 159 159 159 162 162 162 162 162 162 161 161 161 163 163 163 164 164 164 163 163 163 159 159 159 158 158 158 155 155 155 160 160 160 157 157 157 161 161 161 162 162 162
160 160 160 159 159 159 157 157 157 159 159 159 159 159 159 158 158 158 157 157 157 158 158 158 158 158 158 158 158 158 158 158 158 154 154 154 151 151 151 149 149 149 148 148 148 148 148 148 149 149 149 149 149 149 149 149 149 152 152 152 153 153 153 151 151 151 154 154 154 152 152 152 156 156 156 156 156 156 158 158 158 159 159 159 157 157 157 158 158 158 158 158 158 159 159 159 155 155 155 163 163 163 157 157 157 157 157 157 158 158 158 162 162 162 157 157 157 163 163 163 161 161 161 165 165 165 163 163 163 159 159 159 161 161 161 162 162 162 159 159 159 162 162 162 158 158 158 160 160 160 157 157 157 152 152 152 149 149 149 149 149 149 149 149 149 149 149 149 151 151 151 152 152 152 155 155 155 155 155 155 155 155 155 154 154 154 153 153 153 155 155 155 152 152 152 154 154 154 153 153 153 156 156 156 156 156 156 154 154 154 151 151 151 150 150 150 150 150 150 151 151 151 156 156 156 155 155 155 163 163 163 163 163 163 166 166 166 164 164 164 163 163 163 161 161 161 160 160 160 158 158 158 159 159 159 160 160 160 159 159 159 161 161 161 159 159 159 156 156 156 154 154 154 155 155 155 151 151 151 153 153 153 155 155 155 155 155 155 159 159 159 157 157 157 159 159 159 155 155 155 155 155 155 153 153 153 148 148 148 150 150 150 147 147 147 149 149 149 152 152 152 150 150 150 149 149 149 149 149 149 153 153 153 152 152 152 155 155 155 153 153 153 155 155 155 160 160 160 160 160 160 162 162 162 166 166 166 164 164 164 164 164 164 162 162 162 159 159 159 157 157 157 157 157 157 157 157 157 161 161 161 161 161 161
160 160 160 158 158 158 157 157 157 159 159 159 159 159 159 158 158 158 159 159 159 159 159 159 159 159 159 161 161 161 158 158 158 156 156 156 149 149 149 148 148 148 145 145 145 147 147 147 145 145 145 148 148 148 163 163 163 154 154 154 150 150 150 153 153 153 151 151 151 154 154 154 155 155 155 157 157 157 158 158 158 158 158 158 157 157 157 161 161 161 159 159 159 159 159 159 158 158 158 156 156 156 154 154 154 156 156 156 156 156 156 159 159 159 159 159 159 165 165 165 165 165 165 165 165 165 161 161 161 162 162 162 161 161 161 161 161 161 159 159 159 159 159 159 158 158 158 159 159 159 154 154 154 154 154 154 148 148 148 149 149 149 147 147 147 150 150 150 150 150 150 154 154 154 153 153 153 155 155 155 155 155 155 156 156 156 151 151 151 152 152 152 153 153 153 151 151 151 154 154 154 156 156 156 156 156 156 155 155 155 154 154 154 152 152 152 151 151 151 153 153 153 156 156 156 156 156 156 159 159 159 163 163 163 163 163 163 163 163 163 167 167 167 162 162 162 163 163 163 161 161 161 158 158 158 160 160 160 160 160 160 160 160 160 157 157 157 158 158 158 157 157 157 153 153 153 155 155 155 150 150 150 152 152 152 148 148 148 157 157 157 159 159 159 157 157 157 156 156 156 152 152 152 150 150 150 152 152 152 147 147 147 149 149 149 148 148 148 149 149 149 148 148 148 152 152 152 150 150 150 152 152 152 152 152 152 153 153 153 157 157 157 157 157 157 158 158 158 161 161 161 163 163 163 164 164 164 164 164 164 162 162 162 158 158 158 158 158 158 157 157 157 156 156 156 159 159 159 157 157 157 159 159 159
159 159 159 159 159 159 161 161 161 167 167 167 160 160 160 155 155 155 157 157 157 157 157 157 159 159 159 160 160 160 159 159 159 155 155 155 153 153 153 147 147 147 147 147 147 147 147 147 147 147 147 148 148 148 151 151 151 154 154 154 153 153 153 154 154 154 155 155 155 152 152 152 152 152 152 150 150 150 155 155 155 157 157 157 161 161 161 158 158 158 161 161 161 155 155 155 157 157 157 157 157 157 157 157 157 154 154 154 160 160 160 161 161 161 162 162 162 162 162 162 166 166 166 164 164 164 164 164 164 161 161 161 159 159 159 157 157 157 160 160 160 161 161 161 160 160 160 155 155 155 154 154 154 150 150 150 150 150 150 150 150 150 150 150 150 151 151 151 153 153 153 154 154 154 153 153 153 154 154 154 155 155 155 155 155 155 153 153 153 152 152 152 154 154 154 150 150 150 152 152 152 152 152 152 152 152 152 156 156 156 153 153 153 152 152 152 156 156 156 156 156 156 155 155 155 156 156 156 158 158 158 165 165 165 166 166 166 167 167 167 166 166 166 166 166 166 160 160 160 159 159 159 160 160 160 159 159 159 158 158 158 158 158 158 157 157 157 156 156 156 158 158 158 152 152 152 155 155 155 155 155 155 151 151 151 152 152 152 155 155 155 157 157 157 157 157 157 155 155 155 155 155 155 154 154 154 152 152 152 148 148 148 149 149 149 147 147 147 151 151 151 151 151 151 153 153 153 154 154 154 152 152 152 151 151 151 152 152 152 155 155 155 156 156 156 159 159 159 171 171 171 163 163 163 164 164 164 163 163 163 162 162 162 158 158 158 158 158 158 159 159 159 158 158 158 157 157 157 159 159 159 161 161 161
159 159 159 161 161 161 158 158 158 160 160 160 159 159 159 156 156 156 158 158 158 159 159 159 158 158 158 159 159 159 155 155 155 155 155 155 151 151 151 146 146 146 146 146 146 149 149 149 149 149 149 146 146 146 150 150 150 150 150 150 156 156 156 153 153 153 157 157 157 153 153 153 157 157 157 158 158 158 156 156 156 159 159 159 159 159 159 158 158 158 159 159 159 157 157 157 158 158 158 157 157 157 156 156 156 157 157 157 157 157 157 158 158 158 163 163 163 161 161 161 163 163 163 165 165 165 164 164 164 161 161 161 160 160 160 157 157 157 156 156 156 157 157 157 158 158 158 156 156 156 153 153 153 155 155 155 152 152 152 150 150 150 148 148 148 150 150 150 153 153 153 150 150 150 156 156 156 155 155 155 157 157 157 156 156 156 152 152 152 154 154 154 152 152 152 154 154 154 154 154 154 154 154 154 153 153 153 155 155 155 152 152 152 153 153 153 156 156 156 155 155 155 157 157 157 158 158 158 159 159 159 162 162 162 163 163 163 166 166 166 166 166 166 163 163 163 154 154 154 160 160 160 161 161 161 157 157 157 158 158 158 160 160 160 159 159 159 154 154 154 155 155 155 152 152 152 151 151 151 151 151 151 152 152 152 154 154 154 157 157 157 158 158 158 155 155 155 156 156 156 156 156 156 162 162 162 150 150 150 148 148 148 149 149 149 150 150 150 152 152 152 148 148 148 151 151 151 154 154 154 154 154 154 154 154 154 155 155 155 155 155 155 160 160 160 160 160 160 160 160 160 161 161 161 166 166 166 164 164 164 159 159 159 160 160 160 157 157 157 156 156 156 158 158 158 155 155 155 159 159 159 159 159 159
162 162 162 159 159 159 159 159 159 160 160 160 159 159 159 159 159 159 156 156 156 158 158 158 158 158 158 155 155 155 155 155 155 152 152 152 143 143 143 150 150 150 145 145 145 148 148 148 146 146 146 150 150 150 151 151 151 150 150 150 156 156 156 153 153 153 153 153 153 156 156 156 153 153 153 154 154 154 154 154 154 157 157 157 160 160 160 157 157 157 161 161 161 160 160 160 157 157 157 156 156 156 157 157 157 155 155 155 159 159 159 161 161 161 160 160 160 165 165 165 162 162 162 164 164 164 164 164 164 162 162 162 158 158 158 157 157 157 155 155 155 155 155 155 158 158 158 155 155 155 155 155 155 154 154 154 153 153 153 148 148 148 150 150 150 147 147 147 152 152 152 151 151 151 153 153 153 155 155 155 156 156 156 157 157 157 151 151 151 152 152 152 151 151 151 152 152 152 154 154 154 151 151 151 153 153 153 153 153 153 153 153 153 154 154 154 154 154 154 157 157 157 158 158 158 159 159 159 162 162 162 164 164 164 166 166 166 164 164 164 167 167 167 162 162 162 164 164 164 158 158 158 157 157 157 158 158 158 169 169 169 156 156 156 155 155 155 158 158 158 153 153 153 153 153 153 152 152 152 151 151 151 152 152 152 155 155 155 155 155 155 154 154 154 158 158 158 154 154 154 153 153 153 154 154 154 148 148 148 147 147 147 149 149 149 147 147 147 149 149 149 152 152 152 152 152 152 155 155 155 156 156 156 155 155 155 156 156 156 156 156 156 155 155 155 159 159 159 160 160 160 163 163 163 162 162 162 163 163 163 163 163 163 162 162 162 157 157 157 156 156 156 157 157 157 156 156 156 156 156 156 158 158 158
161 161 161 163 163 163 158 158 158 157 157 157 157 157 157 155 155 155 157 157 157 157 157 157 155 155 155 155 155 155 155 155 155 154 154 154 150 150 150 148 148 148 146 146 146 145 145 145 147 147 147 149 149 149 151 151 151 154 154 154 152 152 152 157 157 157 155 155 155 154 154 154 155 155 155 154 154 154 156 156 156 156 156 156 159 159 159 157 157 157 160 160 160 160 160 160 157 157 157 158 158 158 154 154 154 157 157 157 157 157 157 160 160 160 160 160 160 164 164 164 163 163 163 165 165 165 163 163 163 161 161 161 158 158 158 156 156 156 158 158 158 157 157 157 155 155 155 155 155 155 155 155 155 150 150 150 151 151 151 150 150 150 150 150 150 151 151 151 150 150 150 154 154 154 154 154 154 154 154 154 156 156 156 157 157 157 156 156 156 154 154 154 154 154 154 151 151 151 150 150 150 155 155 155 153 153 153 147 147 147 154 154 154 168 168 168 156 156 156 154 154 154 158 158 158 159 159 159 159 159 159 162 162 162 163 163 163 163 163 163 167 167 167 164 164 164 161 161 161 157 157 157 155 155 155 156 156 156 155 155 155 157 157 157 156 156 156 158 158 158 156 156 156 156 156 156 151 151 151 152 152 152 152 152 152 156 156 156 155 155 155 156 156 156 154 154 154 156 156 156 156 156 156 151 151 151 148 148 148 148 148 148 146 146 146 147 147 147 147 147 147 151 151 151 155 155 155 152 152 152 157 157 157 156 156 156 155 155 155 156 156 156 158 158 158 160 160 160 160 160 160 165 165 165 163 163 163 164 164 164 160 160 160 162 162 162 159 159 159 155 155 155 156 156 156 156 156 156 158 158 158 161 161 161
163 163 163 159 159 159 161 161 161 160 160 160 161 161 161 157 157 157 154 154 154 156 156 156 157 157 157 155 155 155 157 157 157 155 155 155 150 150 150 150 150 150 147 147 147 146 146 146 148 148 148 148 148 148 153 153 153 153 153 153 153 153 153 157 157 157 158 158 158 156 156 156 157 157 157 157 157 157 157 157 157 159 159 159 160 160 160 160 160 160 161 161 161 157 157 157 155 155 155 156 156 156 155 155 155 159 159 159 158 158 158 159 159 159 162 162 162 164 164 164 166 166 166 163 163 163 163 163 163 163 163 163 159 159 159 159 159 159 155 155 155 157 157 157 153 153 153 156 156 156 155 155 155 154 154 154 151 151 151 147 147 147 151 151 151 147 147 147 159 159 159 154 154 154 156 156 156 155 155 155 155 155 155 154 154 154 155 155 155 152 152 152 152 152 152 151 151 151 149 149 149 154 154 154 156 156 156 156 156 156 156 156 156 154 154 154 156 156 156 156 156 156 159 159 159 161 161 161 159 159 159 161 161 161 165 165 165 164 164 164 166 166 166 164 164 164 159 159 159 158 158 158 157 157 157 157 157 157 154 154 154 153 153 153 156 156 156 158 158 158 157 157 157 157 157 157 152 152 152 153 153 153 155 155 155 155 155 155 156 156 156 156 156 156 154 154 154 154 154 154 152 152 152 153 153 153 150 150 150 148 148 148 149 149 149 147 147 147 151 151 151 151 151 151 153 153 153 156 156 156 154 154 154 154 154 154 155 155 155 160 160 160 160 160 160 160 160 160 163 163 163 164 164 164 163 163 163 164 164 164 164 164 164 158 158 158 156 156 156 156 156 156 156 156 156 158 158 158 150 150 150 157 157 157
160 160 160 159 159 159 160 160 160 162 162 162 159 159 159 156 156 156 157 157 157 157 157 157 156 156 156 153 153 153 152 152 152 154 154 154 150 150 150 149 149 149 145 145 145 146 146 146 144 144 144 149 149 149 151 151 151 153 153 153 154 154 154 154 154 154 157 157 157 159 159 159 154 154 154 154 154 154 158 158 158 156 156 156 158 158 158 159 159 159 157 157 157 160 160 160 158 158 158 159 159 159 155 155 155 156 156 156 157 157 157 161 161 161 163 163 163 163 163 163 165 165 165 176 176 176 166 166 166 162 162 162 158 158 158 158 158 158 158 158 158 155 155 155 155 155 155 155 155 155 154 154 154 151 151 151 152 152 152 151 151 151 150 150 150 151 151 151 145 145 145 153 153 153 155 155 155 157 157 157 156 156 156 154 154 154 154 154 154 156 156 156 150 150 150 149 149 149 150 150 150 153 153 153 153 153 153 153 153 153 155 155 155 156 156 156 159 159 159 155 155 155 156 156 156 159 159 159 163 163 163 161 161 161 165 165 165 164 164 164 168 168 168 165 165 165 161 161 161 160 160 160 158 158 158 157 157 157 153 153 153 157 157 157 158 158 158 154 154 154 154 154 154 155 155 155 154 154 154 152 152 152 152 152 152 154 154 154 155 155 155 154 154 154 153 153 153 156 156 156 156 156 156 150 150 150 150 150 150 149 149 149 145 145 145 145 145 145 151 151 151 153 153 153 154 154 154 154 154 154 158 158 158 156 156 156 158 158 158 160 160 160 157 157 157 158 158 158 162 162 162 162 162 162 162 162 162 161 161 161 161 161 161 160 160 160 157 157 157 158 158 158 154 154 154 155 155 155 158 158 158 157 157 157
161 161 161 160 160 160 161 161 161 161 161 161 159 159 159 155 155 155 154 154 154 154 154 154 152 152 152 153 153 153 154 154 154 152 152 152 151 151 151 147 147 147 150 150 150 145 145 145 145 145 145 148 148 148 151 151 151 154 154 154 158 158 158 155 155 155 160 160 160 157 157 157 155 155 155 154 154 154 168 168 168 159 159 159 156 156 156 159 159 159 157 157 157 157 157 157 158 158 158 156 156 156 157 157 157 156 156 156 160 160 160 161 161 161 161 161 161 164 164 164 163 163 163 164 164 164 165 165 165 163 163 163 157 157 157 157 157 157 153 153 153 154 154 154 154 154 154 151 151 151 154 154 154 152 152 152 151 151 151 149 149 149 151 151 151 151 151 151 151 151 151 151 151 151 156 156 156 155 155 155 155 155 155 157 157 157 155 155 155 155 155 155 152 152 152 153 153 153 153 153 153 150 150 150 155 155 155 155 155 155 157 157 157 157 157 157 158 158 158 158 158 158 158 158 158 158 158 158 160 160 160 161 161 161 166 166 166 165 165 165 164 164 164 166 166 166 162 162 162 157 157 157 158 158 158 156 156 156 156 156 156 152 152 152 157 157 157 156 156 156 157 157 157 157 157 157 154 154 154 156 156 156 153 153 153 152 152 152 154 154 154 153 153 153 154 154 154 154 154 154 154 154 154 154 154 154 150 150 150 149 149 149 148 148 148 147 147 147 151 151 151 152 152 152 153 153 153 153 153 153 156 156 156 159 159 159 157 157 157 152 152 152 160 160 160 162 162 162 162 162 162 161 161 161 162 162 162 160 160 160 161 161 161 160 160 160 157 157 157 155 155 155 157 157 157 154 154 154 157 157 157 157 157 157
162 162 162 163 163 163 162 162 162 161 161 161 160 160 160 158 158 158 154 154 154 155 155 155 156 156 156 154 154 154 152 152 152 164 164 164 152 152 152 149 149 149 150 150 150 144 144 144 145 145 145 146 146 146 153 153 153 153 153 153 155 155 155 156 156 156 160 160 160 158 158 158 156 156 156 154 154 154 154 154 154 156 156 156 158 158 158 158 158 158 158 158 158 158 158 158 159 159 159 160 160 160 159 159 159 157 157 157 160 160 160 160 160 160 163 163 163 164 164 164 165 165 165 167 167 167 163 163 163 152 152 152 158 158 158 157 157 157 153 153 153 155 155 155 153 153 153 151 151 151 151 151 151 152 152 152 149 149 149 150 150 150 147 147 147 150 150 150 149 149 149 154 154 154 153 153 153 153 153 153 157 157 157 156 156 156 155 155 155 155 155 155 151 151 151 151 151 151 150 150 150 150 150 150 154 154 154 154 154 154 155 155 155 157 157 157 158 158 158 157 157 157 162 162 162 160 160 160 164 164 164 162 162 162 162 162 162 167 167 167 165 165 165 163 163 163 163 163 163 160 160 160 157 157 157 153 153 153 155 155 155 156 156 156 153 153 153 157 157 157 155 155 155 156 156 156 154 154 154 153 153 153 153 153 153 151 151 151 154 154 154 155 155 155 152 152 152 154 154 154 152 152 152 152 152 152 152 152 152 146 146 146 149 149 149 148 148 148 147 147 147 149 149 149 154 154 154 155 155 155 160 160 160 161 161 161 159 159 159 161 161 161 161 161 161 160 160 160 159 159 159 162 162 162 161 161 161 161 161 161 162 162 162 161 161 161 160 160 160 156 156 156 167 167 167 154 154 154 155 155 155 156 156 156
162 162 162 163 163 163 163 163 163 162 162 162 159 159 159 157 157 157 155 155 155 155 155 155 151 151 151 151 151 151 151 151 151 152 152 152 151 151 151 150 150 150 146 146 146 146 146 146 147 147 147 150 150 150 152 152 152 152 152 152 155 155 155 158 158 158 157 157 157 159 159 159 156 156 156 158 158 158 155 155 155 157 157 157 156 156 156 155 155 155 159 159 159 157 157 157 161 161 161 158 158 158 159 159 159 160 160 160 160 160 160 162 162 162 162 162 162 164 164 164 165 165 165 167 167 167 162 162 162 162 162 162 157 157 157 156 156 156 156 156 156 154 154 154 150 150 150 154 154 154 155 155 155 151 151 151 149 149 149 151 151 151 152 152 152 151 151 151 152 152 152 150 150 150 152 152 152 154 154 154 156 156 156 158 158 158 153 153 153 156 156 156 150 150 150 150 150 150 148 148 148 154 154 154 152 152 152 154 154 154 156 156 156 158 158 158 158 158 158 161 161 161 159 159 159 162 162 162 160 160 160 164 164 164 164 164 164 164 164 164 165 165 165 161 161 161 162 162 162 156 156 156 155 155 155 156 156 156 154 154 154 152 152 152 154 154 154 153 153 153 155 155 155 154 154 154 155 155 155 152 152 152 153 153 153 155 155 155 153 153 153 154 154 154 152 152 152 156 156 156 148 148 148 151 151 151 148 148 148 150 150 150 145 145 145 150 150 150 149 149 149 151 151 151 153 153 153 164 164 164 160 160 160 158 158 158 160 160 160 161 161 161 160 160 160 161 161 161 162 162 162 162 162 162 160 160 160 160 160 160 162 162 162 161 161 161 159 159 159 157 157 157 154 154 154 158 158 158 156 156 156 157 157 157
162 162 162 163 163 163 161 161 161 159 159 159 161 161 161 155 155 155 156 156 156 153 153 153 151 151 151 153 153 153 154 154 154 151 151 151 152 152 152 150 150 150 147 147 147 148 148 148 148 148 148 151 151 151 153 153 153 152 152 152 154 154 154 156 156 156 161 161 161 161 161 161 158 158 158 157 157 157 155 155 155 156 156 156 158 158 158 159 159 159 152 152 152 159 159 159 157 157 157 161 161 161 157 157 157 158 158 158 160 160 160 161 161 161 161 161 161 161 161 161 166 166 166 165 165 165 165 165 165 160 160 160 158 158 158 156 156 156 153 153 153 151 151 151 151 151 151 149 149 149 153 153 153 154 154 154 153 153 153 150 150 150 151 151 151 151 151 151 152 152 152 152 152 152 154 154 154 153 153 153 158 158 158 155 155 155 157 157 157 152 152 152 153 153 153 149 149 149 151 151 151 152 152 152 153 153 153 154 154 154 158 158 158 161 161 161 161 161 161 158 158 158 162 162 162 159 159 159 162 162 162 162 162 162 163 163 163 166 166 166 165 165 165 163 163 163 163 163 163 159 159 159 158 158 158 154 154 154 152 152 152 155 155 155 154 154 154 157 157 157 156 156 156 159 159 159 154 154 154 154 154 154 162 162 162 155 155 155 154 154 154 152 152 152 154 154 154 153 153 153 151 151 151 152 152 152 153 153 153 151 151 151 148 148 148 147 147 147 147 147 147 150 150 150 154 154 154 158 158 158 157 157 157 160 160 160 159 159 159 160 160 160 158 158 158 161 161 161 160 160 160 159 159 159 160 160 160 162 162 162 160 160 160 162 162 162 160 160 160 159 159 159 156 156 156 157 157 157 158 158 158 156 156 156
159 159 159 160 160 160 160 160 160 159 159 159 161 161 161 158 158 158 152 152 152 154 154 154 152 152 152 149 149 149 149 149 149 149 149 149 150 150 150 151 151 151 147 147 147 147 147 147 149 149 149 149 149 149 149 149 149 153 153 153 154 154 154 158 158 158 157 157 157 158 158 158 157 157 157 159 159 159 157 157 157 154 154 154 156 156 156 155 155 155 156 156 156 159 159 159 158 158 158 162 162 162 159 159 159 159 159 159 158 158 158 161 161 161 164 164 164 164 164 164 163 163 163 166 166 166 162 162 162 162 162 162 157 157 157 155 155 155 152 152 152 150 150 150 152 152 152 149 149 149 150 150 150 153 153 153 150 150 150 153 153 153 152 152 152 149 149 149 150 150 150 153 153 153 155 155 155 153 153 153 158 158 158 154 154 154 155 155 155 153 153 153 151 151 151 153 153 153 152 152 152 150 150 150 151 151 151 154 154 154 157 157 157 160 160 160 163 163 163 163 163 163 163 163 163 161 161 161 161 161 161 163 163 163 161 161 161 173 173 173 163 163 163 165 165 165 159 159 159 160 160 160 154 154 154 153 153 153 152 152 152 147 147 147 154 154 154 156 156 156 156 156 156 159 159 159 156 156 156 153 153 153 156 156 156 151 151 151 151 151 151 154 154 154 150 150 150 152 152 152 152 152 152 151 151 151 150 150 150 151 151 151 147 147 147 146 146 146 151 151 151 151 151 151 152 152 152 156 156 156 161 161 161 159 159 159 159 159 159 162 162 162 160 160 160 158 158 158 160 160 160 161 161 161 160 160 160 160 160 160 159 159 159 161 161 161 161 161 161 156 156 156 156 156 156 155 155 155 158 158 158 157 157 157
161 161 161 162 162 162 163 163 163 161 161 161 160 160 160 157 157 157 156 156 156 153 153 153 152 152 152 150 150 150 151 151 151 148 148 148 149 149 149 148 148 148 150 150 150 148 148 148 147 147 147 142 142 142 153 153 153 152 152 152 159 159 159 157 157 157 157 157 157 161 161 161 160 160 160 158 158 158 157 157 157 158 158 158 154 154 154 157 157 157 157 157 157 160 160 160 159 159 159 162 162 162 159 159 159 158 158 158 160 160 160 161 161 161 161 161 161 162 162 162 166 166 166 161 161 161 162 162 162 159 159 159 155 155 155 155 155 155 152 152 152 151 151 151 151 151 151 152 152 152 151 151 151 150 150 150 153 153 153 152 152 152 151 151 151 150 150 150 150 150 150 154 154 154 152 152 152 154 154 154 157 157 157 154 154 154 153 153 153 154 154 154 163 163 163 152 152 152 153 153 153 151 151 151 155 155 155 155 155 155 158 158 158 160 160 160 164 164 164 162 162 162 163 163 163 162 162 162 162 162 162 161 161 161 165 165 165 163 163 163 163 163 163 161 161 161 160 160 160 159 159 159 153 153 153 155 155 155 151 151 151 152 152 152 153 153 153 154 154 154 156 156 156 158 158 158 155 155 155 153 153 153 152 152 152 152 152 152 152 152 152 153 153 153 150 150 150 152 152 152 155 155 155 151 151 151 153 153 153 150 150 150 148 148 148 150 150 150 150 150 150 154 154 154 155 155 155 159 159 159 158 158 158 160 160 160 162 162 162 161 161 161 163 163 163 159 159 159 161 161 161 159 159 159 162 162 162 161 161 161 162 162 162 161 161 161 160 160 160 159 159 159 157 157 157 157 157 157 158 158 158 159 159 159
159 159 159 158 158 158 163 163 163 158 158 158 157 157 157 157 157 157 153 153 153 150 150 150 151 151 151 150 150 150 152 152 152 150 150 150 148 148 148 148 148 148 151 151 151 147 147 147 151 151 151 150 150 150 152 152 152 155 155 155 156 156 156 158 158 158 158 158 158 159 159 159 157 157 157 157 157 157 154 154 154 157 157 157 157 157 157 157 157 157 158 158 158 157 157 157 160 160 160 158 158 158 161 161 161 158 158 158 159 159 159 159 159 159 164 164 164 161 161 161 164 164 164 165 165 165 161 161 161 158 158 158 155 155 155 155 155 155 153 153 153 150 150 150 148 148 148 160 160 160 152 152 152 151 151 151 152 152 152 155 155 155 150 150 150 153 153 153 149 149 149 152 152 152 151 151 151 156 156 156 154 154 154 155 155 155 157 157 157 152 152 152 153 153 153 150 150 150 152 152 152 151 151 151 155 155 155 157 157 157 158 158 158 160 160 160 160 160 160 165 165 165 157 157 157 161 161 161 162 162 162 164 164 164 163 163 163 163 163 163 161 161 161 164 164 164 161 161 161 157 157 157 156 156 156 154 154 154 152 152 152 152 152 152 153 153 153 153 153 153 155 155 155 156 156 156 156 156 156 154 154 154 155 155 155 152 152 152 150 150 150 152 152 152 150 150 150 151 151 151 153 153 153 154 154 154 151 151 151 151 151 151 147 147 147 149 149 149 150 150 150 150 150 150 157 157 157 158 158 158 159 159 159 164 164 164 161 161 161 164 164 164 162 162 162 161 161 161 159 159 159 159 159 159 158 158 158 158 158 158 161 161 161 158 158 158 158 158 158 156 156 156 156 156 156 156 156 156 158 158 158 157 157 157
156 156 156 159 159 159 160 160 160 162 162 162 150 150 150 156 156 156 153 153 153 149 149 149 147 147 147 149 149 149 147 147 147 151 151 151 148 148 148 151 151 151 150 150 150 150 150 150 148 148 148 153 153 153 153 153 153 155 155 155 157 157 157 160 160 160 159 159 159 160 160 160 160 160 160 157 157 157 158 158 158 154 154 154 157 157 157 155 155 155 155 155 155 161 161 161 159 159 159 162 162 162 171 171 171 161 161 161 162 162 162 160 160 160 160 160 160 161 161 161 162 162 162 162 162 162 162 162 162 160 160 160 155 155 155 155 155 155 151 151 151 150 150 150 151 151 151 151 151 151 153 153 153 151 151 151 153 153 153 151 151 151 153 153 153 154 154 154 151 151 151 154 154 154 152 152 152 153 153 153 156 156 156 157 157 157 157 157 157 152 152 152 151 151 151 150 150 150 154 154 154 153 153 153 152 152 152 156 156 156 158 158 158 160 160 160 165 165 165 163 163 163 165 165 165 161 161 161 160 160 160 163 163 163 162 162 162 160 160 160 160 160 160 161 161 161 161 161 161 160 160 160 154 154 154 154 154 154 154 154 154 151 151 151 154 154 154 156 156 156 155 155 155 157 157 157 157 157 157 156 156 156 154 154 154 152 152 152 152 152 152 153 153 153 151 151 151 150 150 150 151 151 151 151 151 151 151 151 151 151 151 151 148 148 148 148 148 148 152 152 152 151 151 151 155 155 155 156 156 156 162 162 162 163 163 163 163 163 163 164 164 164 162 162 162 161 161 161 158 158 158 158 158 158 161 161 161 157 157 157 159 159 159 162 162 162 157 157 157 159 159 159 157 157 157 156 156 156 155 155 155 157 157 157
159 159 159 162 162 162 159 159 159 161 161 161 157 157 157 158 158 158 154 154 154 152 152 152 151 151 151 147 147 147 150 150 150 151 151 151 149 149 149 151 151 151 151 151 151 150 150 150 150 150 150 151 151 151 152 152 152 165 165 165 155 155 155 159 159 159 160 160 160 160 160 160 159 159 159 157 157 157 159 159 159 156 156 156 155 155 155 157 157 157 158 158 158 158 158 158 161 161 161 162 162 162 161 161 161 159 159 159 163 163 163 162 162 162 159 159 159 161 161 161 160 160 160 161 161 161 162 162 162 161 161 161 156 156 156 155 155 155 153 153 153 150 150 150 150 150 150 147 147 147 152 152 152 153 153 153 150 150 150 154 154 154 153 153 153 150 150 150 153 153 153 151 151 151 153 153 153 151 151 151 153 153 153 150 150 150 157 157 157 153 153 153 154 154 154 152 152 152 150 150 150 150 150 150 154 154 154 155 155 155 157 157 157 160 160 160 161 161 161 165 165 165 163 163 163 163 163 163 163 163 163 162 162 162 162 162 162 163 163 163 159 159 159 161 161 161 160 160 160 156 156 156 158 158 158 153 153 153 151 151 151 154 154 154 155 155 155 155 155 155 156 156 156 159 159 159 155 155 155 157 157 157 153 153 153 154 154 154 149 149 149 150 150 150 153 153 153 150 150 150 151 151 151 152 152 152 154 154 154 152 152 152 149 149 149 151 151 151 149 149 149 151 151 151 153 153 153 156 156 156 161 161 161 161 161 161 164 164 164 164 164 164 161 161 161 162 162 162 161 161 161 159 159 159 159 159 159 158 158 158 162 162 162 161 161 161 160 160 160 157 157 157 157 157 157 157 157 157 157 157 157 159 159 159
159 159 159 162 162 162 158 158 158 158 158 158 170 170 170 155 155 155 153 153 153 150 150 150 148 148 148 147 147 147 146 146 146 151 151 151 152 152 152 149 149 149 151 151 151 150 150 150 152 152 152 150 150 150 151 151 151 153 153 153 156 156 156 159 159 159 161 161 161 159 159 159 161 161 161 158 158 158 158 158 158 156 156 156 155 155 155 158 158 158 155 155 155 158 158 158 158 158 158 161 161 161 162 162 162 164 164 164 163 163 163 162 162 162 161 161 161 160 160 160 162 162 162 161 161 161 160 160 160 160 160 160 157 157 157 155 155 155 153 153 153 148 148 148 150 150 150 148 148 148 152 152 152 149 149 149 155 155 155 153 153 153 152 152 152 156 156 156 155 155 155 154 154 154 152 152 152 152 152 152 154 154 154 153 153 153 155 155 155 154 154 154 152 152 152 152 152 152 154 154 154 154 154 154 156 156 156 156 156 156 158 158 158 160 160 160 166 166 166 167 167 167 163 163 163 162 162 162 160 160 160 161 161 161 161 161 161 159 159 159 162 162 162 163 163 163 161 161 161 159 159 159 154 154 154 151 151 151 154 154 154 150 150 150 152 152 152 156 156 156 155 155 155 159 159 159 157 157 157 157 157 157 156 156 156 152 152 152 152 152 152 150 150 150 151 151 151 151 151 151 151 151 151 152 152 152 153 153 153 150 150 150 150 150 150 152 152 152 151 151 151 155 155 155 155 155 155 157 157 157 161 161 161 161 161 161 161 161 161 161 161 161 163 163 163 161 161 161 160 160 160 166 166 166 153 153 153 158 158 158 159 159 159 160 160 160 160 160 160 160 160 160 158 158 158 159 159 159 159 159 159 155 155 155
160 160 160 158 158 158 158 158 158 161 161 161 156 156 156 157 157 157 151 151 151 152 152 152 150 150 150 145 145 145 148 148 148 149 149 149 148 148 148 150 150 150 153 153 153 154 154 154 150 150 150 152 152 152 152 152 152 154 154 154 157 157 157 161 161 161 161 161 161 162 162 162 160 160 160 156 156 156 155 155 155 158 158 158 155 155 155 155 155 155 157 157 157 157 157 157 158 158 158 164 164 164 161 161 161 162 162 162 162 162 162 163 163 163 161 161 161 162 162 162 159 159 159 160 160 160 158 158 158 160 160 160 157 157 157 155 155 155 149 149 149 148 148 148 140 140 140 149 149 149 148 148 148 153 153 153 152 152 152 154 154 154 156 156 156 154 154 154 152 152 152 150 150 150 155 155 155 155 155 155 154 154 154 154 154 154 155 155 155 154 154 154 153 153 153 155 155 155 150 150 150 154 154 154 155 155 155 156 156 156 157 157 157 162 162 162 166 166 166 166 166 166 166 166 166 162 162 162 163 163 163 159 159 159 159 159 159 161 161 161 161 161 161 162 162 162 160 160 160 159 159 159 156 156 156 154 154 154 151 151 151 153 153 153 150 150 150 155 155 155 155 155 155 156 156 156 155 155 155 156 156 156 155 155 155 153 153 153 149 149 149 148 148 148 150 150 150 148 148 148 148 148 148 149 149 149 160 160 160 151 151 151 149 149 149 150 150 150 154 154 154 153 153 153 157 157 157 157 157 157 162 162 162 162 162 162 166 166 166 165 165 165 163 163 163 159 159 159 161 161 161 160 160 160 156 156 156 157 157 157 161 161 161 159 159 159 159 159 159 161 161 161 156 156 156 155 155 155 159 159 159 156 156 156
155 155 155 158 158 158 161 161 161 159 159 159 155 155 155 158 158 158 152 152 152 149 149 149 149 149 149 144 144 144 148 148 148 146 146 146 149 149 149 149 149 149 151 151 151 154 154 154 150 150 150 155 155 155 156 156 156 153 153 153 158 158 158 158 158 158 160 160 160 160 160 160 162 162 162 160 160 160 156 156 156 154 154 154 156 156 156 155 155 155 157 157 157 161 161 161 160 160 160 163 163 163 161 161 161 165 165 165 161 161 161 162 162 162 161 161 161 160 160 160 159 159 159 158 158 158 158 158 158 160 160 160 156 156 156 154 154 154 150 150 150 151 151 151 149 149 149 150 150 150 147 147 147 150 150 150 152 152 152 153 153 153 152 152 152 152 152 152 154 154 154 155 155 155 150 150 150 152 152 152 152 152 152 155 155 155 155 155 155 154 154 154 155 155 155 154 154 154 155 155 155 151 151 151 153 153 153 157 157 157 157 157 157 161 161 161 163 163 163 164 164 164 165 165 165 163 163 163 161 161 161 162 162 162 162 162 162 158 158 158 159 159 159 160 160 160 159 159 159 156 156 156 157 157 157 156 156 156 154 154 154 160 160 160 154 154 154 152 152 152 153 153 153 154 154 154 159 159 159 158 158 158 157 157 157 155 155 155 151 151 151 149 149 149 147 147 147 147 147 147 151 151 151 152 152 152 152 152 152 154 154 154 153 153 153 146 146 146 153 153 153 152 152 152 154 154 154 160 160 160 160 160 160 163 163 163 164 164 164 164 164 164 163 163 163 160 160 160 160 160 160 158 158 158 158 158 158 156 156 156 156 156 156 159 159 159 160 160 160 160 160 160 159 159 159 160 160 160 157 157 157 157 157 157
159 159 159 156 156 156 161 161 161 156 156 156 156 156 156 157 157 157 151 151 151 148 148 148 150 150 150 146 146 146 148 148 148 150 150 150 147 147 147 152 152 152 154 154 154 154 154 154 155 155 155 151 151 151 156 156 156 154 154 154 158 158 158 156 156 156 161 161 161 159 159 159 161 161 161 157 157 157 155 155 155 158 158 158 157 157 157 154 154 154 159 159 159 158 158 158 161 161 161 163 163 163 165 165 165 156 156 156 162 162 162 163 163 163 159 159 159 159 159 159 161 161 161 158 158 158 159 159 159 159 159 159 158 158 158 152 152 152 152 152 152 151 151 151 150 150 150 147 147 147 152 152 152 154 154 154 152 152 152 154 154 154 156 156 156 156 156 156 155 155 155 153 153 153 152 152 152 154 154 154 156 156 156 153 153 153 154 154 154 157 157 157 155 155 155 155 155 155 156 156 156 154 154 154 156 156 156 157 157 157 158 158 158 160 160 160 173 173 173 167 167 167 168 168 168 166 166 166 161 161 161 162 162 162 160 160 160 160 160 160 161 161 161 157 157 157 158 158 158 155 155 155 154 154 154 152 152 152 150 150 150 152 152 152 152 152 152 155 155 155 155 155 155 157 157 157 159 159 159 158 158 158 157 157 157 153 153 153 153 153 153 148 148 148 147 147 147 151 151 151 148 148 148 149 149 149 151 151 151 153 153 153 153 153 153 152 152 152 151 151 151 157 157 157 154 154 154 159 159 159 161 161 161 161 161 161 165 165 165 165 165 165 164 164 164 161 161 161 161 161 161 157 157 157 158 158 158 160 160 160 159 159 159 161 161 161 162 162 162 159 159 159 160 160 160 158 158 158 158 158 158 157 157 157
159 159 159 159 159 159 157 157 157 160 160 160 158 158 158 155 155 155 154 154 154 149 149 149 146 146 146 148 148 148 145 145 145 148 148 148 147 147 147 153 153 153 151 151 151 151 151 151 157 157 157 156 156 156 154 154 154 158 158 158 157 157 157 157 157 157 161 161 161 160 160 160 160 160 160 157 157 157 159 159 159 156 156 156 155 155 155 155 155 155 157 157 157 160 160 160 160 160 160 163 163 163 163 163 163 163 163 163 161 161 161 162 162 162 159 159 159 159 159 159 157 157 157 159 159 159 157 157 157 156 156 156 156 156 156 151 151 151 149 149 149 149 149 149 146 146 146 147 147 147 151 151 151 152 152 152 151 151 151 153 153 153 157 157 157 154 154 154 155 155 155 162 162 162 152 152 152 152 152 152 155 155 155 153 153 153 152 152 152 153 153 153 154 154 154 155 155 155 156 156 156 155 155 155 154 154 154 155 155 155 157 157 157 162 162 162 164 164 164 167 167 167 166 166 166 166 166 166 162 162 162 159 159 159 162 162 162 159 159 159 160 160 160 158 158 158 155 155 155 157 157 157 153 153 153 153 153 153 152 152 152 153 153 153 153 153 153 153 153 153 156 156 156 156 156 156 150 150 150 158 158 158 154 154 154 151 151 151 153 153 153 150 150 150 149 149 149 148 148 148 147 147 147 148 148 148 150 150 150 153 153 153 152 152 152 153 153 153 152 152 152 157 157 157 159 159 159 158 158 158 161 161 161 165 165 165 166 166 166 165 165 165 163 163 163 162 162 162 159 159 159 159 159 159 156 156 156 155 155 155 158 158 158 158 158 158 161 161 161 159 159 159 160 160 160 156 156 156 159 159 159 159 159 159
156 156 156 158 158 158 156 156 156 159 159 159 157 157 157 156 156 156 154 154 154 150 150 150 146 146 146 148 148 148 149 149 149 150 150 150 149 149 149 153 153 153 154 154 154 152 152 152 155 155 155 156 156 156 153 153 153 155 155 155 156 156 156 156 156 156 152 152 152 159 159 159 159 159 159 157 157 157 159 159 159 157 157 157 156 156 156 157 157 157 156 156 156 159 159 159 159 159 159 165 165 165 166 166 166 165 165 165 161 161 161 161 161 161 161 161 161 158 158 158 157 157 157 156 156 156 168 168 168 154 154 154 156 156 156 151 151 151 150 150 150 150 150 150 149 149 149 148 148 148 152 152 152 150 150 150 151 151 151 157 157 157 154 154 154 156 156 156 157 157 157 155 155 155 154 154 154 152 152 152 155 155 155 155 155 155 154 154 154 156 156 156 156 156 156 156 156 156 156 156 156 154 154 154 157 157 157 156 156 156 161 161 161 160 160 160 166 166 166 166 166 166 166 166 166 166 166 166 160 160 160 162 162 162 157 157 157 160 160 160 156 156 156 159 159 159 157 157 157 156 156 156 158 158 158 154 154 154 151 151 151 151 151 151 150 150 150 153 153 153 154 154 154 156 156 156 156 156 156 157 157 157 156 156 156 153 153 153 150 150 150 150 150 150 147 147 147 150 150 150 150 150 150 151 151 151 154 154 154 155 155 155 154 154 154 155 155 155 156 156 156 156 156 156 158 158 158 159 159 159 163 163 163 164 164 164 164 164 164 166 166 166 161 161 161 162 162 162 161 161 161 159 159 159 155 155 155 154 154 154 157 157 157 159 159 159 157 157 157 160 160 160 159 159 159 157 157 157 158 158 158 159 159 159
159 159 159 154 154 154 158 158 158 154 154 154 157 157 157 156 156 156 152 152 152 148 148 148 149 149 149 148 148 148 144 144 144 148 148 148 149 149 149 152 152 152 153 153 153 157 157 157 156 156 156 154 154 154 158 158 158 158 158 158 157 157 157 158 158 158 159 159 159 159 159 159 159 159 159 157 157 157 157 157 157 166 166 166 155 155 155 157 157 157 156 156 156 159 159 159 163 163 163 161 161 161 162 162 162 165 165 165 164 164 164 160 160 160 160 160 160 158 158 158 159 159 159 155 155 155 158 158 158 157 157 157 156 156 156 152 152 152 151 151 151 149 149 149 149 149 149 147 147 147 150 150 150 149 149 149 153 153 153 155 155 155 156 156 156 157 157 157 157 157 157 152 152 152 151 151 151 153 153 153 154 154 154 151 151 151 153 153 153 155 155 155 156 156 156 157 157 157 155 155 155 156 156 156 157 157 157 160 160 160 162 162 162 165 165 165 163 163 163 165 165 165 166 166 166 163 163 163 163 163 163 163 163 163 160 160 160 150 150 150 158 158 158 156 156 156 155 155 155 154 154 154 156 156 156 156 156 156 154 154 154 152 152 152 151 151 151 152 152 152 155 155 155 155 155 155 158 158 158 157 157 157 158 158 158 155 155 155 151 151 151 150 150 150 146 146 146 145 145 145 150 150 150 149 149 149 152 152 152 153 153 153 152 152 152 153 153 153 155 155 155 157 157 157 158 158 158 157 157 157 162 162 162 161 161 161 165 165 165 165 165 165 162 162 162 160 160 160 158 158 158 156 156 156 158 158 158 156 156 156 155 155 155 157 157 157 159 159 159 160 160 160 160 160 160 161 161 161 159 159 159 159 159 159
159 159 159 156 156 156 154 154 154 158 158 158 157 157 157 153 153 153 152 152 152 150 150 150 147 147 147 138 138 138 144 144 144 148 148 148 160 160 160 152 152 152 156 156 156 156 156 156 155 155 155 156 156 156 154 154 154 156 156 156 158 158 158 158 158 158 159 159 159 158 158 158 162 162 162 158 158 158 157 157 157 157 157 157 155 155 155 157 157 157 159 159 159 160 160 160 162 162 162 164 164 164 164 164 164 166 166 166 163 163 163 163 163 163 161 161 161 157 157 157 157 157 157 157 157 157 157 157 157 156 156 156 153 153 153 151 151 151 149 149 149 148 148 148 150 150 150 150 150 150 151 151 151 150 150 150 154 154 154 155 155 155 155 155 155 156 156 156 154 154 154 155 155 155 155 155 155 151 151 151 153 153 153 153 153 153 155 155 155 156 156 156 158 158 158 158 158 158 154 154 154 154 154 154 156 156 156 157 157 157 162 162 162 163 163 163 163 163 163 165 165 165 165 165 165 166 166 166 165 165 165 161 161 161 160 160 160 158 158 158 158 158 158 155 155 155 155 155 155 155 155 155 156 156 156 155 155 155 156 156 156 153 153 153 153 153 153 151 151 151 153 153 153 154 154 154 158 158 158 154 154 154 155 155 155 155 155 155 152 152 152 150 150 150 149 149 149 146 146 146 147 147 147 150 150 150 154 154 154 152 152 152 157 157 157 155 155 155 157 157 157 155 155 155 157 157 157 159 159 159 163 163 163 162 162 162 166 166 166 162 162 162 162 162 162 163 163 163 157 157 157 155 155 155 155 155 155 155 155 155 157 157 157 157 157 157 160 160 160 161 161 161 159 159 159 168 168 168 159 159 159 159 159 159
154 154 154 154 154 154 157 157 157 158 158 158 156 156 156 153 153 153 153 153 153 148 148 148 147 147 147 145 145 145 144 144 144 148 148 148 151 151 151 152 152 152 155 155 155 157 157 157 154 154 154 155 155 155 157 157 157 155 155 155 159 159 159 158 158 158 159 159 159 157 157 157 159 159 159 159 159 159 158 158 158 156 156 156 154 154 154 158 158 158 157 157 157 159 159 159 159 159 159 161 161 161 167 167 167 164 164 164 163 163 163 163 163 163 162 162 162 160 160 160 155 155 155 158 158 158 157 157 157 154 154 154 154 154 154 155 155 155 153 153 153 149 149 149 150 150 150 146 146 146 149 149 149 149 149 149 153 153 153 154 154 154 156 156 156 156 156 156 155 155 155 155 155 155 155 155 155 153 153 153 153 153 153 153 153 153 155 155 155 157 157 157 154 154 154 158 158 158 149 149 149 156 156 156 155 155 155 158 158 158 161 161 161 165 165 165 164 164 164 168 168 168 166 166 166 165 165 165 162 162 162 159 159 159 155 155 155 157 157 157 153 153 153 157 157 157 155 155 155 157 157 157 153 153 153 154 154 154 153 153 153 152 152 152 151 151 151 154 154 154 155 155 155 155 155 155 157 157 157 154 154 154 155 155 155 154 154 154 153 153 153 151 151 151 149 149 149 145 145 145 150 150 150 151 151 151 151 151 151 152 152 152 154 154 154 155 155 155 156 156 156 157 157 157 161 161 161 158 158 158 169 169 169 163 163 163 166 166 166 165 165 165 161 161 161 160 160 160 158 158 158 157 157 157 157 157 157 154 154 154 159 159 159 157 157 157 159 159 159 158 158 158 158 158 158 162 162 162 160 160 160 156 156 156
157 157 157 155 155 155 153 153 153 154 154 154 156 156 156 154 154 154 154 154 154 150 150 150 149 149 149 146 146 146 149 149 149 146 146 146 148 148 148 153 153 153 153 153 153 155 155 155 155 155 155 159 159 159 156 156 156 157 157 157 159 159 159 156 156 156 159 159 159 158 158 158 161 161 161 159 159 159 159 159 159 160 160 160 158 158 158 159 159 159 159 159 159 160 160 160 162 162 162 165 165 165 163 163 163 163 163 163 162 162 162 164 164 164 161 161 161 159 159 159 157 157 157 153 153 153 154 154 154 156 156 156 154 154 154 153 153 153 150 150 150 149 149 149 147 147 147 150 150 150 149 149 149 148 148 148 155 155 155 154 154 154 155 155 155 159 159 159 158 158 158 152 152 152 153 153 153 154 154 154 153 153 153 150 150 150 155 155 155 153 153 153 159 159 159 158 158 158 157 157 157 158 158 158 158 158 158 159 159 159 160 160 160 164 164 164 166 166 166 163 163 163 166 166 166 163 163 163 163 163 163 162 162 162 160 160 160 157 157 157 154 154 154 154 154 154 155 155 155 157 157 157 155 155 155 155 155 155 153 153 153 154 154 154 151 151 151 153 153 153 154 154 154 152 152 152 154 154 154 155 155 155 157 157 157 164 164 164 153 153 153 151 151 151 147 147 147 146 146 146 149 149 149 148 148 148 151 151 151 153 153 153 158 158 158 158 158 158 161 161 161 157 157 157 158 158 158 160 160 160 161 161 161 164 164 164 163 163 163 164 164 164 163 163 163 161 161 161 160 160 160 158 158 158 157 157 157 156 156 156 155 155 155 159 159 159 158 158 158 154 154 154 159 159 159 158 158 158 158 158 158 156 156 156
156 156 156 156 156 156 156 156 156 155 155 155 154 154 154 153 153 153 152 152 152 148 148 148 149 149 149 146 146 146 144 144 144 149 149 149 152 152 152 153 153 153 153 153 153 154 154 154 159 159 159 156 156 156 160 160 160 155 155 155 155 155 155 157 157 157 160 160 160 158 158 158 159 159 159 161 161 161 161 161 161 157 157 157 158 158 158 158 158 158 159 159 159 160 160 160 161 161 161 160 160 160 163 163 163 167 167 167 162 162 162 164 164 164 161 161 161 158 158 158 157 157 157 153 153 153 153 153 153 150 150 150 155 155 155 153 153 153 150 150 150 148 148 148 149 149 149 148 148 148 147 147 147 150 150 150 153 153 153 146 146 146 156 156 156 155 155 155 155 155 155 153 153 153 155 155 155 153 153 153 153 153 153 151 151 151 155 155 155 154 154 154 156 156 156 156 156 156 160 160 160 157 157 157 158 158 158 162 162 162 158 158 158 161 161 161 166 166 166 167 167 167 167 167 167 167 167 167 162 162 162 160 160 160 156 156 156 158 158 158 164 164 164 156 156 156 157 157 157 157 157 157 155 155 155 155 155 155 152 152 152 155 155 155 151 151 151 155 155 155 155 155 155 152 152 152 155 155 155 155 155 155 153 153 153 155 155 155 150 150 150 149 149 149 145 145 145 148 148 148 147 147 147 149 149 149 151 151 151 156 156 156 158 158 158 160 160 160 157 157 157 158 158 158 158 158 158 158 158 158 162 162 162 161 161 161 164 164 164 165 165 165 161 161 161 159 159 159 157 157 157 157 157 157 155 155 155 153 153 153 155 155 155 158 158 158 157 157 157 161 161 161 162 162 162 160 160 160 157 157 157 155 155 155
153 153 153 154 154 154 154 154 154 154 154 154 155 155 155 154 154 154 150 150 150 151 151 151 149 149 149 146 146 146 148 148 148 149 149 149 151 151 151 152 152 152 156 156 156 160 160 160 157 157 157 157 157 157 158 158 158 157 157 157 159 159 159 155 155 155 157 157 157 155 155 155 159 159 159 157 157 157 158 158 158 159 159 159 159 159 159 157 157 157 158 158 158 158 158 158 159 159 159 163 163 163 164 164 164 164 164 164 166 166 166 162 162 162 157 157 157 157 157 157 152 152 152 153 153 153 154 154 154 151 151 151 152 152 152 153 153 153 151 151 151 153 153 153 152 152 152 150 150 150 149 149 149 150 150 150 155 155 155 156 156 156 158 158 158 155 155 155 154 154 154 155 155 155 153 153 153 153 153 153 151 151 151 152 152 152 151 151 151 156 156 156 157 157 157 168 168 168 160 160 160 159 159 159 157 157 157 159 159 159 160 160 160 164 164 164 163 163 163 167 167 167 165 165 165 163 163 163 161 161 161 161 161 161 157 157 157 157 157 157 154 154 154 151 151 151 153 153 153 152 152 152 155 155 155 155 155 155 156 156 156 153 153 153 153 153 153 151 151 151 155 155 155 151 151 151 154 154 154 152 152 152 152 152 152 155 155 155 151 151 151 149 149 149 151 151 151 149 149 149 149 149 149 149 149 149 151 151 151 155 155 155 156 156 156 161 161 161 161 161 161 158 158 158 160 160 160 160 160 160 155 155 155 162 162 162 160 160 160 164 164 164 161 161 161 161 161 161 158 158 158 156 156 156 157 157 157 154 154 154 157 157 157 156 156 156 160 160 160 163 163 163 160 160 160 162 162 162 157 157 157 157 157 157
155 155 155 152 152 152 155 155 155 152 152 152 150 150 150 151 151 151 149 149 149 149 149 149 151 151 151 149 149 149 150 150 150 149 149 149 150 150 150 152 152 152 153 153 153 158 158 158 157 157 157 160 160 160 159 159 159 159 159 159 157 157 157 156 156 156 158 158 158 156 156 156 157 157 157 158 158 158 159 159 159 159 159 159 157 157 157 159 159 159 158 158 158 160 160 160 163 163 163 163 163 163 163 163 163 165 165 165 162 162 162 163 163 163 161 161 161 159 159 159 145 145 145 151 151 151 150 150 150 150 150 150 152 152 152 152 152 152 150 150 150 149 149 149 150 150 150 148 148 148 160 160 160 152 152 152 152 152 152 156 156 156 155 155 155 158 158 158 155 155 155 153 153 153 155 155 155 151 151 151 153 153 153 150 150 150 152 152 152 155 155 155 155 155 155 156 156 156 159 159 159 161 161 161 160 160 160 163 163 163 160 160 160 163 163 163 165 165 165 162 162 162 164 164 164 164 164 164 161 161 161 159 159 159 156 156 156 155 155 155 155 155 155 151 151 151 153 153 153 154 154 154 157 157 157 156 156 156 156 156 156 156 156 156 153 153 153 152 152 152 152 152 152 155 155 155 153 153 153 154 154 154 154 154 154 152 152 152 151 151 151 151 151 151 147 147 147 145 145 145 150 150 150 151 151 151 151 151 151 156 156 156 160 160 160 159 159 159 161 161 161 161 161 161 158 158 158 159 159 159 161 161 161 160 160 160 161 161 161 161 161 161 163 163 163 162 162 162 161 161 161 159 159 159 156 156 156 155 155 155 155 155 155 157 157 157 158 158 158 161 161 161 158 158 158 162 162 162 158 158 158 158 158 158
157 157 157 156 156 156 153 153 153 154 154 154 153 153 153 152 152 152 152 152 152 148 148 148 151 151 151 148 148 148 146 146 146 149 149 149 152 152 152 150 150 150 154 154 154 157 157 157 160 160 160 160 160 160 160 160 160 157 157 157 157 157 157 158 158 158 155 155 155 158 158 158 156 156 156 158 158 158 159 159 159 160 160 160 157 157 157 156 156 156 157 157 157 159 159 159 163 163 163 160 160 160 162 162 162 176 176 176 163 163 163 161 161 161 160 160 160 156 156 156 154 154 154 153 153 153 151 151 151 151 151 151 151 151 151 151 151 151 149 149 149 153 153 153 149 149 149 151 151 151 149 149 149 153 153 153 151 151 151 153 153 153 157 157 157 156 156 156 155 155 155 154 154 154 152 152 152 153 153 153 150 150 150 152 152 152 152 152 152 156 156 156 156 156 156 161 161 161 158 158 158 161 161 161 162 162 162 160 160 160 162 162 162 163 163 163 163 163 163 166 166 166 163 163 163 163 163 163 163 163 163 160 160 160 158 158 158 157 157 157 155 155 155 152 152 152 154 154 154 156 156 156 157 157 157 158 158 158 156 156 156 157 157 157 154 154 154 154 154 154 154 154 154 155 155 155 151 151 151 154 154 154 151 151 151 153 153 153 149 149 149 145 145 145 150 150 150 146 146 146 147 147 147 151 151 151 153 153 153 157 157 157 157 157 157 158 158 158 163 163 163 160 160 160 162 162 162 158 158 158 160 160 160 163 163 163 160 160 160 160 160 160 160 160 160 162 162 162 158 158 158 158 158 158 154 154 154 156 156 156 155 155 155 157 157 157 161 161 161 161 161 161 162 162 162 159 159 159 161 161 161 157 157 157
154 154 154 152 152 152 153 153 153 152 152 152 151 151 151 152 152 152 149 149 149 149 149 149 151 151 151 150 150 150 149 149 149 151 151 151 150 150 150 154 154 154 155 155 155 156 156 156 159 159 159 162 162 162 160 160 160 159 159 159 165 165 165 159 159 159 158 158 158 156 156 156 160 160 160 159 159 159 159 159 159 153 153 153 159 159 159 160 160 160 158 158 158 162 162 162 162 162 162 162 162 162 165 165 165 164 164 164 161 161 161 162 162 162 160 160 160 157 157 157 155 155 155 152 152 152 150 150 150 150 150 150 151 151 151 153 153 153 153 153 153 152 152 152 149 149 149 150 150 150 151 151 151 150 150 150 153 153 153 156 156 156 153 153 153 158 158 158 156 156 156 154 154 154 152 152 152 151 151 151 151 151 151 154 154 154 154 154 154 155 155 155 159 159 159 160 160 160 160 160 160 159 159 159 161 161 161 163 163 163 161 161 161 161 161 161 164 164 164 166 166 166 162 162 162 163 163 163 163 163 163 161 161 161 155 155 155 153 153 153 154 154 154 152 152 152 152 152 152 154 154 154 157 157 157 154 154 154 155 155 155 157 157 157 154 154 154 151 151 151 151 151 151 153 153 153 152 152 152 151 151 151 153 153 153 152 152 152 150 150 150 148 148 148 150 150 150 147 147 147 146 146 146 148 148 148 154 154 154 156 156 156 157 157 157 161 161 161 159 159 159 160 160 160 162 162 162 160 160 160 161 161 161 162 162 162 162 162 162 163 163 163 162 162 162 160 160 160 158 158 158 158 158 158 156 156 156 157 157 157 154 154 154 157 157 157 158 158 158 161 161 161 163 163 163 159 159 159 159 159 159 156 156 156
155 155 155 150 150 150 148 148 148 149 149 149 152 152 152 159 159 159 150 150 150 148 148 148 149 149 149 149 149 149 151 151 151 148 148 148 148 148 148 155 155 155 158 158 158 160 160 160 160 160 160 160 160 160 158 158 158 158 158 158 159 159 159 157 157 157 155 155 155 157 157 157 157 157 157 159 159 159 160 160 160 158 158 158 160 160 160 161 161 161 161 161 161 158 158 158 160 160 160 161 161 161 161 161 161 163 163 163 164 164 164 162 162 162 160 160 160 157 157 157 152 152 152 151 151 151 151 151 151 150 150 150 148 148 148 150 150 150 150 150 150 154 154 154 153 153 153 150 150 150 152 152 152 153 153 153 153 153 153 152 152 152 155 155 155 154 154 154 158 158 158 157 157 157 153 153 153 152 152 152 153 153 153 154 154 154 154 154 154 155 155 155 156 156 156 158 158 158 161 161 161 164 164 164 162 162 162 162 162 162 163 163 163 161 161 161 162 162 162 164 164 164 162 162 162 165 165 165 160 160 160 159 159 159 156 156 156 155 155 155 151 151 151 149 149 149 152 152 152 155 155 155 148 148 148 154 154 154 156 156 156 156 156 156 155 155 155 152 152 152 151 151 151 150 150 150 151 151 151 153 153 153 154 154 154 153 153 153 152 152 152 153 153 153 148 148 148 149 149 149 147 147 147 150 150 150 153 153 153 158 158 158 159 159 159 159 159 159 162 162 162 162 162 162 160 160 160 162 162 162 162 162 162 159 159 159 160 160 160 159 159 159 161 161 161 159 159 159 159 159 159 159 159 159 164 164 164 157 157 157 155 155 155 156 156 156 160 160 160 157 157 157 158 158 158 161 161 161 157 157 157 155 155 155
154 154 154 152 152 152 152 152 152 151 151 151 151 151 151 148 148 148 148 148 148 152 152 152 150 150 150 152 152 152 148 148 148 151 151 151 150 150 150 154 154 154 148 148 148 156 156 156 160 160 160 161 161 161 162 162 162 159 159 159 160 160 160 155 155 155 155 155 155 158 158 158 157 157 157 157 157 157 159 159 159 162 162 162 163 163 163 161 161 161 160 160 160 160 160 160 158 158 158 159 159 159 164 164 164 160 160 160 162 162 162 162 162 162 158 158 158 157 157 157 151 151 151 149 149 149 147 147 147 149 149 149 150 150 150 151 151 151 152 152 152 153 153 153 151 151 151 152 152 152 151 151 151 153 153 153 153 153 153 155 155 155 157 157 157 155 155 155 155 155 155 156 156 156 152 152 152 154 154 154 152 152 152 152 152 152 151 151 151 154 154 154 156 156 156 161 161 161 163 163 163 164 164 164 162 162 162 163 163 163 164 164 164 163 163 163 163 163 163 165 165 165 160 160 160 160 160 160 159 159 159 161 161 161 157 157 157 152 152 152 153 153 153 150 150 150 152 152 152 152 152 152 154 154 154 156 156 156 156 156 156 156 156 156 156 156 156 151 151 151 155 155 155 153 153 153 153 153 153 150 150 150 150 150 150 151 151 151 151 151 151 151 151 151 149 149 149 150 150 150 148 148 148 150 150 150 153 153 153 169 169 169 159 159 159 163 163 163 165 165 165 161 161 161 161 161 161 161 161 161 159 159 159 159 159 159 160 160 160 161 161 161 162 162 162 158 158 158 158 158 158 156 156 156 156 156 156 154 154 154 158 158 158 159 159 159 159 159 159 158 158 158 162 162 162 160 160 160 159 159 159 158 158 158
155 155 155 152 152 152 148 148 148 147 147 147 150 150 150 147 147 147 152 152 152 149 149 149 152 152 152 150 150 150 150 150 150 149 149 149 152 152 152 151 151 151 158 158 158 159 159 159 158 158 158 161 161 161 160 160 160 159 159 159 157 157 157 154 154 154 154 154 154 157 157 157 157 157 157 160 160 160 161 161 161 159 159 159 161 161 161 160 160 160 159 159 159 160 160 160 159 159 159 160 160 160 161 161 161 161 161 161 162 162 162 162 162 162 157 157 157 154 154 154 150 150 150 151 151 151 147 147 147 147 147 147 150 150 150 150 150 150 152 152 152 151 151 151 154 154 154 154 154 154 153 153 153 154 154 154 153 153 153 152 152 152 157 157 157 157 157 157 158 158 158 157 157 157 154 154 154 154 154 154 150 150 150 154 154 154 151 151 151 157 157 157 157 157 157 160 160 160 164 164 164 165 165 165 161 161 161 164 164 164 163 163 163 154 154 154 160 160 160 160 160 160 163 163 163 162 162 162 162 162 162 159 159 159 156 156 156 152 152 152 154 154 154 151 151 151 153 153 153 151 151 151 153 153 153 158 158 158 154 154 154 157 157 157 165 165 165 152 152 152 150 150 150 152 152 152 151 151 151 153 153 153 153 153 153 150 150 150 153 153 153 153 153 153 151 151 151 151 151 151 152 152 152 153 153 153 152 152 152 157 157 157 159 159 159 160 160 160 161 161 161 165 165 165 160 160 160 159 159 159 162 162 162 160 160 160 157 157 157 159 159 159 158 158 158 162 162 162 158 158 158 160 160 160 158 158 158 155 155 155 156 156 156 155 155 155 156 156 156 161 161 161 159 159 159 159 159 159 159 159 159 158 158 158
154 154 154 146 146 146 150 150 150 151 151 151 146 146 146 150 150 150 151 151 151 149 149 149 151 151 151 151 151 151 148 148 148 153 153 153 152 152 152 156 156 156 155 155 155 157 157 157 161 161 161 161 161 161 162 162 162 161 161 161 157 157 157 156 156 156 157 157 157 155 155 155 159 159 159 160 160 160 158 158 158 163 163 163 161 161 161 162 162 162 159 159 159 161 161 161 159 159 159 162 162 162 162 162 162 161 161 161 160 160 160 162 162 162 155 155 155 157 157 157 153 153 153 147 147 147 150 150 150 146 146 146 147 147 147 151 151 151 150 150 150 151 151 151 153 153 153 151 151 151 155 155 155 150 150 150 153 153 153 154 154 154 156 156 156 154 154 154 158 158 158 156 156 156 154 154 154 153 153 153 154 154 154 151 151 151 156 156 156 153 153 153 160 160 160 159 159 159 161 161 161 165 165 165 164 164 164 161 161 161 163 163 163 160 160 160 163 163 163 170 170 170 162 162 162 161 161 161 160 160 160 159 159 159 154 154 154 151 151 151 154 154 154 151 151 151 152 152 152 151 151 151 155 155 155 156 156 156 154 154 154 158 158 158 155 155 155 154 154 154 154 154 154 153 153 153 151 151 151 151 151 151 153 153 153 151 151 151 151 151 151 150 150 150 151 151 151 152 152 152 151 151 151 150 150 150 154 154 154 158 158 158 158 158 158 165 165 165 163 163 163 164 164 164 164 164 164 162 162 162 158 158 158 160 160 160 159 159 159 160 160 160 160 160 160 162 162 162 159 159 159 156 156 156 155 155 155 157 157 157 158 158 158 156 156 156 156 156 156 156 156 156 157 157 157 159 159 159 160 160 160 156 156 156
153 153 153 152 152 152 150 150 150 150 150 150 147 147 147 146 146 146 150 150 150 149 149 149 152 152 152 151 151 151 152 152 152 150 150 150 153 153 153 156 156 156 156 156 156 156 156 156 158 158 158 163 163 163 158 158 158 161 161 161 160 160 160 158 158 158 156 156 156 157 157 157 156 156 156 157 157 157 158 158 158 160 160 160 164 164 164 160 160 160 163 163 163 158 158 158 160 160 160 158 158 158 163 163 163 163 163 163 161 161 161 160 160 160 157 157 157 155 155 155 153 153 153 150 150 150 150 150 150 150 150 150 149 149 149 151 151 151 153 153 153 155 155 155 152 152 152 152 152 152 152 152 152 152 152 152 151 151 151 154 154 154 153 153 153 154 154 154 157 157 157 153 153 153 156 156 156 155 155 155 154 154 154 155 155 155 155 155 155 153 153 153 156 156 156 160 160 160 162 162 162 166 166 166 164 164 164 163 163 163 162 162 162 161 161 161 163 163 163 159 159 159 161 161 161 158 158 158 162 162 162 156 156 156 155 155 155 155 155 155 152 152 152 151 151 151 150 150 150 150 150 150 155 155 155 155 155 155 157 157 157 158 158 158 153 153 153 153 153 153 152 152 152 151 151 151 151 151 151 151 151 151 152 152 152 153 153 153 150 150 150 152 152 152 153 153 153 152 152 152 150 150 150 153 153 153 156 156 156 159 159 159 159 159 159 165 165 165 164 164 164 164 164 164 161 161 161 161 161 161 160 160 160 159 159 159 157 157 157 160 160 160 157 157 157 161 161 161 160 160 160 160 160 160 155 155 155 159 159 159 155 155 155 159 159 159 156 156 156 160 160 160 161 161 161 161 161 161 156 156 156 158 158 158
154 154 154 153 153 153 149 149 149 149 149 149 149 149 149 145 145 145 149 149 149 149 149 149 150 150 150 150 150 150 151 151 151 151 151 151 155 155 155 152 152 152 154 154 154 156 156 156 159 159 159 159 159 159 161 161 161 158 158 158 159 159 159 154 154 154 157 157 157 156 156 156 158 158 158 159 159 159 158 158 158 164 164 164 162 162 162 161 161 161 164 164 164 162 162 162 162 162 162 161 161 161 162 162 162 160 160 160 160 160 160 158 158 158 155 155 155 154 154 154 150 150 150 149 149 149 148 148 148 158 158 158 148 148 148 150 150 150 150 150 150 155 155 155 154 154 154 152 152 152 156 156 156 150 150 150 153 153 153 152 152 152 156 156 156 154 154 154 157 157 157 154 154 154 154 154 154 155 155 155 154 154 154 151 151 151 153 153 153 158 158 158 156 156 156 162 162 162 164 164 164 166 166 166 164 164 164 163 163 163 163 163 163 163 163 163 161 161 161 161 161 161 161 161 161 161 161 161 161 161 161 160 160 160 154 154 154 152 152 152 154 154 154 149 149 149 152 152 152 151 151 151 154 154 154 157 157 157 156 156 156 159 159 159 155 155 155 155 155 155 153 153 153 148 148 148 152 152 152 149 149 149 148 148 148 151 151 151 152 152 152 153 153 153 149 149 149 153 153 153 153 153 153 152 152 152 156 156 156 157 157 157 160 160 160 161 161 161 166 166 166 166 166 166 165 165 165 159 159 159 158 158 158 161 161 161 157 157 157 160 160 160 156 156 156 150 150 150 160 160 160 159 159 159 158 158 158 156 156 156 154 154 154 159 159 159 156 156 156 156 156 156 161 161 161 158 158 158 160 160 160 157 157 157
156 156 156 150 150 150 149 149 149 146 146 146 149 149 149 146 146 146 147 147 147 150 150 150 153 153 153 151 151 151 152 152 152 153 153 153 153 153 153 152 152 152 156 156 156 158 158 158 162 162 162 159 159 159 161 161 161 161 161 161 156 156 156 159 159 159 157 157 157 154 154 154 155 155 155 156 156 156 160 160 160 160 160 160 170 170 170 163 163 163 164 164 164 163 163 163 160 160 160 159 159 159 159 159 159 160 160 160 159 159 159 156 156 156 159 159 159 155 155 155 149 149 149 147 147 147 149 149 149 146 146 146 147 147 147 144 144 144 150 150 150 153 153 153 156 156 156 154 154 154 152 152 152 154 154 154 153 153 153 151 151 151 156 156 156 153 153 153 153 153 153 153 153 153 155 155 155 156 156 156 152 152 152 156 156 156 156 156 156 156 156 156 156 156 156 162 162 162 165 165 165 166 166 166 164 164 164 166 166 166 166 166 166 159 159 159 161 161 161 157 157 157 161 161 161 159 159 159 156 156 156 160 160 160 155 155 155 156 156 156 155 155 155 151 151 151 150 150 150 150 150 150 155 155 155 156 156 156 154 154 154 159 159 159 155 155 155 156 156 156 153 153 153 148 148 148 149 149 149 149 149 149 152 152 152 150 150 150 150 150 150 151 151 151 150 150 150 153 153 153 152 152 152 154 154 154 155 155 155 157 157 157 161 161 161 162 162 162 165 165 165 165 165 165 161 161 161 163 163 163 158 158 158 161 161 161 156 156 156 157 157 157 157 157 157 160 160 160 161 161 161 160 160 160 159 159 159 159 159 159 156 156 156 155 155 155 155 155 155 159 159 159 159 159 159 158 158 158 160 160 160 159 159 159
154 154 154 153 153 153 150 150 150 147 147 147 146 146 146 148 148 148 150 150 150 151 151 151 152 152 152 155 155 155 154 154 154 152 152 152 156 156 156 166 166 166 155 155 155 158 158 158 161 161 161 159 159 159 159 159 159 159 159 159 158 158 158 158 158 158 154 154 154 157 157 157 158 158 158 156 156 156 162 162 162 162 162 162 164 164 164 163 163 163 161 161 161 162 162 162 158 158 158 159 159 159 157 157 157 158 158 158 158 158 158 156 156 156 158 158 158 155 155 155 152 152 152 150 150 150 150 150 150 146 146 146 150 150 150 149 149 149 154 154 154 155 155 155 156 156 156 156 156 156 153 153 153 156 156 156 151 151 151 152 152 152 156 156 156 153 153 153 157 157 157 154 154 154 155 155 155 155 155 155 156 156 156 154 154 154 155 155 155 158 158 158 157 157 157 161 161 161 161 161 161 166 166 166 168 168 168 163 163 163 165 165 165 164 164 164 159 159 159 160 160 160 159 159 159 159 159 159 157 157 157 158 158 158 158 158 158 156 156 156 152 152 152 152 152 152 150 150 150 153 153 153 151 151 151 157 157 157 157 157 157 158 158 158 154 154 154 154 154 154 150 150 150 151 151 151 149 149 149 151 151 151 151 151 151 152 152 152 149 149 149 151 151 151 154 154 154 153 153 153 154 154 154 156 156 156 151 151 151 159 159 159 161 161 161 164 164 164 166 166 166 163 163 163 164 164 164 161 161 161 160 160 160 156 156 156 159 159 159 156 156 156 157 157 157 157 157 157 160 160 160 158 158 158 160 160 160 157 157 157 155 155 155 154 154 154 157 157 157 157 157 157 157 157 157 157 157 157 165 165 165 154 154 154
155 155 155 150 150 150 150 150 150 148 148 148 146 146 146 149 149 149 148 148 148 152 152 152 152 152 152 152 152 152 153 153 153 154 154 154 155 155 155 155 155 155 158 158 158 157 157 157 157 157 157 161 161 161 159 159 159 161 161 161 158 158 158 157 157 157 157 157 157 153 153 153 158 158 158 156 156 156 162 162 162 161 161 161 161 161 161 164 164 164 162 162 162 160 160 160 156 156 156 157 157 157 158 158 158 159 159 159 158 158 158 159 159 159 154 154 154 155 155 155 151 151 151 149 149 149 146 146 146 147 147 147 148 148 148 150 150 150 154 154 154 153 153 153 155 155 155 153 153 153 153 153 153 156 156 156 153 153 153 153 153 153 151 151 151 155 155 155 155 155 155 155 155 155 153 153 153 157 157 157 153 153 153 154 154 154 153 153 153 159 159 159 159 159 159 161 161 161 162 162 162 167 167 167 168 168 168 167 167 167 165 165 165 162 162 162 162 162 162 156 156 156 156 156 156 159 159 159 159 159 159 154 154 154 155 155 155 156 156 156 152 152 152 153 153 153 150 150 150 154 154 154 155 155 155 152 152 152 158 158 158 154 154 154 154 154 154 156 156 156 150 150 150 149 149 149 150 150 150 150 150 150 148 148 148 153 153 153 150 150 150 155 155 155 153 153 153 152 152 152 154 154 154 155 155 155 155 155 155 158 158 158 159 159 159 163 163 163 165 165 165 162 162 162 164 164 164 163 163 163 162 162 162 170 170 170 156 156 156 157 157 157 155 155 155 159 159 159 159 159 159 157 157 157 159 159 159 158 158 158 156 156 156 156 156 156 154 154 154 155 155 155 158 158 158 156 156 156 158 158 158 157 157 157
152 152 152 152 152 152 149 149 149 145 145 145 144 144 144 145 145 145 146 146 146 150 150 150 153 153 153 153 153 153 153 153 153 153 153 153 155 155 155 154 154 154 158 158 158 157 157 157 157 157 157 159 159 159 163 163 163 159 159 159 161 161 161 157 157 157 155 155 155 158 158 158 158 158 158 158 158 158 162 162 162 159 159 159 165 165 165 165 165 165 161 161 161 164 164 164 163 163 163 158 158 158 160 160 160 159 159 159 157 157 157 154 154 154 157 157 157 153 153 153 153 153 153 150 150 150 148 148 148 146 146 146 149 149 149 148 148 148 152 152 152 151 151 151 155 155 155 157 157 157 155 155 155 153 153 153 152 152 152 151 151 151 152 152 152 154 154 154 156 156 156 153 153 153 157 157 157 157 157 157 154 154 154 155 155 155 156 156 156 157 157 157 160 160 160 159 159 159 163 163 163 164 164 164 165 165 165 163 163 163 163 163 163 160 160 160 161 161 161 157 157 157 155 155 155 155 155 155 157 157 157 156 156 156 155 155 155 156 156 156 151 151 151 152 152 152 150 150 150 150 150 150 155 155 155 157 157 157 157 157 157 156 156 156 154 154 154 149 149 149 151 151 151 148 148 148 148 148 148 147 147 147 149 149 149 150 150 150 161 161 161 154 154 154 153 153 153 153 153 153 153 153 153 157 157 157 156 156 156 157 157 157 160 160 160 163 163 163 162 162 162 165 165 165 163 163 163 165 165 165 159 159 159 159 159 159 159 159 159 155 155 155 159 159 159 156 156 156 157 157 157 162 162 162 157 157 157 160 160 160 157 157 157 158 158 158 156 156 156 159 159 159 156 156 156 158 158 158 158 158 158 154 154 154
151 151 151 152 152 152 148 148 148 144 144 144 144 144 144 146 146 146 149 149 149 150 150 150 150 150 150 153 153 153 155 155 155 156 156 156 156 156 156 157 157 157 155 155 155 156 156 156 160 160 160 159 159 159 158 158 158 153 153 153 159 159 159 156 156 156 157 157 157 154 154 154 156 156 156 160 160 160 158 158 158 164 164 164 161 161 161 164 164 164 163 163 163 165 165 165 162 162 162 158 158 158 159 159 159 158 158 158 155 155 155 156 156 156 157 157 157 155 155 155 153 153 153 148 148 148 149 149 149 148 148 148 149 149 149 149 149 149 150 150 150 152 152 152 154 154 154 157 157 157 154 154 154 155 155 155 155 155 155 150 150 150 152 152 152 152 152 152 155 155 155 156 156 156 157 157 157 154 154 154 154 154 154 158 158 158 154 154 154 158 158 158 158 158 158 162 162 162 164 164 164 164 164 164 165 165 165 168 168 168 161 161 161 164 164 164 157 157 157 160 160 160 155 155 155 157 157 157 158 158 158 156 156 156 155 155 155 155 155 155 154 154 154 165 165 165 151 151 151 152 152 152 151 151 151 153 153 153 155 155 155 154 154 154 154 154 154 153 153 153 153 153 153 150 150 150 148 148 148 147 147 147 147 147 147 151 151 151 151 151 151 154 154 154 154 154 154 156 156 156 159 159 159 156 156 156 158 158 158 159 159 159 161 161 161 165 165 165 164 164 164 166 166 166 162 162 162 162 162 162 160 160 160 157 157 157 157 157 157 155 155 155 155 155 155 156 156 156 160 160 160 160 160 160 157 157 157 160 160 160 159 159 159 155 155 155 155 155 155 158 158 158 155 155 155 154 154 154 154 154 154 153 153 153
155 155 155 153 153 153 150 150 150 145 145 145 147 147 147 147 147 147 150 150 150 150 150 150 154 154 154 154 154 154 158 158 158 158 158 158 156 156 156 159 159 159 158 158 158 157 157 157 159 159 159 161 161 161 161 161 161 160 160 160 160 160 160 160 160 160 155 155 155 155 155 155 155 155 155 159 159 159 157 157 157 164 164 164 162 162 162 165 165 165 165 165 165 160 160 160 158 158 158 156 156 156 155 155 155 157 157 157 156 156 156 156 156 156 155 155 155 153 153 153 153 153 153 148 148 148 149 149 149 146 146 146 148 148 148 151 151 151 154 154 154 152 152 152 153 153 153 156 156 156 155 155 155 154 154 154 155 155 155 154 154 154 152 152 152 154 154 154 154 154 154 155 155 155 158 158 158 156 156 156 157 157 157 157 157 157 157 157 157 156 156 156 161 161 161 163 163 163 173 173 173 163 163 163 168 168 168 166 166 166 164 164 164 162 162 162 159 159 159 158 158 158 154 154 154 156 156 156 150 150 150 156 156 156 154 154 154 154 154 154 154 154 154 152 152 152 150 150 150 150 150 150 153 153 153 154 154 154 154 154 154 153 153 153 156 156 156 155 155 155 154 154 154 148 148 148 149 149 149 147 147 147 149 149 149 149 149 149 153 153 153 152 152 152 153 153 153 158 158 158 158 158 158 156 156 156 159 159 159 158 158 158 163 163 163 161 161 161 162 162 162 163 163 163 162 162 162 165 165 165 162 162 162 158 158 158 154 154 154 154 154 154 158 158 158 159 159 159 160 160 160 158 158 158 159 159 159 160 160 160 157 157 157 158 158 158 155 155 155 157 157 157 155 155 155 157 157 157 158 158 158 153 153 153
150 150 150 151 151 151 147 147 147 147 147 147 147 147 147 144 144 144 143 143 143 150 150 150 154 154 154 153 153 153 156 156 156 156 156 156 155 155 155 159 159 159 159 159 159 157 157 157 160 160 160 160 160 160 159 159 159 162 162 162 159 159 159 160 160 160 156 156 156 155 155 155 158 158 158 158 158 158 160 160 160 160 160 160 166 166 166 162 162 162 162 162 162 163 163 163 159 159 159 157 157 157 159 159 159 155 155 155 156 156 156 156 156 156 153 153 153 150 150 150 154 154 154 149 149 149 150 150 150 150 150 150 149 149 149 151 151 151 153 153 153 156 156 156 155 155 155 158 158 158 158 158 158 167 167 167 155 155 155 153 153 153 150 150 150 152 152 152 153 153 153 153 153 153 154 154 154 155 155 155 156 156 156 160 160 160 159 159 159 156 156 156 158 158 158 160 160 160 163 163 163 167 167 167 165 165 165 165 165 165 165 165 165 163 163 163 157 157 157 159 159 159 156 156 156 155 155 155 155 155 155 154 154 154 155 155 155 157 157 157 156 156 156 153 153 153 155 155 155 151 151 151 153 153 153 154 154 154 155 155 155 154 154 154 156 156 156 154 154 154 151 151 151 149 149 149 149 149 149 146 146 146 148 148 148 147 147 147 150 150 150 153 153 153 158 158 158 157 157 157 159 159 159 160 160 160 157 157 157 157 157 157 162 162 162 162 162 162 163 163 163 165 165 165 162 162 162 160 160 160 160 160 160 158 158 158 155 155 155 155 155 155 156 156 156 156 156 156 157 157 157 160 160 160 158 158 158 161 161 161 160 160 160 156 156 156 156 156 156 156 156 156 156 156 156 154 154 154 152 152 152 155 155 155
150 150 150 153 153 153 149 149 149 147 147 147 146 146 146 149 149 149 148 148 148 152 152 152 153 153 153 158 158 158 157 157 157 159 159 159 159 159 159 156 156 156 159 159 159 158 158 158 160 160 160 158 158 158 158 158 158 160 160 160 161 161 161 158 158 158 158 158 158 157 157 157 155 155 155 158 158 158 157 157 157 160 160 160 162 162 162 165 165 165 163 163 163 161 161 161 158 158 158 160 160 160 158 158 158 153 153 153 162 162 162 154 154 154 151 151 151 151 151 151 149 149 149 149 149 149 151 151 151 148 148 148 148 148 148 152 152 152 152 152 152 155 155 155 155 155 155 158 158 158 159 159 159 157 157 157 155 155 155 151 151 151 151 151 151 151 151 151 151 151 151 157 157 157 156 156 156 159 159 159 156 156 156 160 160 160 160 160 160 153 153 153 162 162 162 163 163 163 163 163 163 166 166 166 164 164 164 165 165 165 164 164 164 161 161 161 158 158 158 158 158 158 156 156 156 156 156 156 153 153 153 154 154 154 152 152 152 157 157 157 156 156 156 154 154 154 153 153 153 151 151 151 153 153 153 152 152 152 155 155 155 155 155 155 155 155 155 155 155 155 152 152 152 152 152 152 149 149 149 146 146 146 146 146 146 150 150 150 150 150 150 153 153 153 157 157 157 156 156 156 160 160 160 157 157 157 162 162 162 161 161 161 160 160 160 160 160 160 162 162 162 163 163 163 163 163 163 162 162 162 162 162 162 159 159 159 154 154 154 156 156 156 157 157 157 158 158 158 158 158 158 160 160 160 160 160 160 162 162 162 158 158 158 155 155 155 156 156 156 156 156 156 153 153 153 155 155 155 152 152 152 154 154 154
151 151 151 152 152 152 148 148 148 147 147 147 146 146 146 147 147 147 150 150 150 149 149 149 156 156 156 157 157 157 157 157 157 160 160 160 161 161 161 158 158 158 155 155 155 156 156 156 158 158 158 157 157 157 158 158 158 161 161 161 159 159 159 171 171 171 159 159 159 158 158 158 158 158 158 160 160 160 161 161 161 160 160 160 161 161 161 162 162 162 163 163 163 163 163 163 159 159 159 156 156 156 155 155 155 155 155 155 151 151 151 150 150 150 150 150 150 150 150 150 152 152 152 152 152 152 147 147 147 146 146 146 149 149 149 149 149 149 153 153 153 152 152 152 153 153 153 157 157 157 157 157 157 157 157 157 156 156 156 154 154 154 151 151 151 152 152 152 152 152 152 153 153 153 156 156 156 158 158 158 158 158 158 159 159 159 160 160 160 160 160 160 162 162 162 162 162 162 161 161 161 163 163 163 167 167 167 164 164 164 162 162 162 163 163 163 158 158 158 153 153 153 155 155 155 152 152 152 156 156 156 155 155 155 155 155 155 153 153 153 152 152 152 153 153 153 152 152 152 153 153 153 153 153 153 152 152 152 156 156 156 153 153 153 156 156 156 152 152 152 151 151 151 150 150 150 150 150 150 146 146 146 146 146 146 151 151 151 152 152 152 156 156 156 155 155 155 156 156 156 162 162 162 159 159 159 159 159 159 158 158 158 163 163 163 163 163 163 164 164 164 163 163 163 164 164 164 161 161 161 159 159 159 157 157 157 157 157 157 155 155 155 153 153 153 155 155 155 156 156 156 157 157 157 160 160 160 158 158 158 150 150 150 156 156 156 154 154 154 156 156 156 154 154 154 152 152 152 154 154 154 152 152 152
154 154 154 148 148 148 147 147 147 146 146 146 148 148 148 148 148 148 159 159 159 153 153 153 156 156 156 158 158 158 158 158 158 162 162 162 160 160 160 158 158 158 157 157 157 159 159 159 157 157 157 155 155 155 161 161 161 157 157 157 162 162 162 157 157 157 158 158 158 160 160 160 156 156 156 160 160 160 161 161 161 160 160 160 165 165 165 162 162 162 163 163 163 161 161 161 158 158 158 158 158 158 153 153 153 152 152 152 152 152 152 153 153 153 152 152 152 151 151 151 149 149 149 152 152 152 149 149 149 148 148 148 149 149 149 148 148 148 151 151 151 153 153 153 154 154 154 158 158 158 148 148 148 155 155 155 156 156 156 154 154 154 152 152 152 153 153 153 155 155 155 155 155 155 157 157 157 159 159 159 161 161 161 161 161 161 157 157 157 160 160 160 160 160 160 163 163 163 161 161 161 165 165 165 163 163 163 165 165 165 163 163 163 159 159 159 159 159 159 155 155 155 156 156 156 150 150 150 152 152 152 152 152 152 155 155 155 152 152 152 156 156 156 155 155 155 154 154 154 155 155 155 154 154 154 152 152 152 155 155 155 153 153 153 153 153 153 155 155 155 151 151 151 150 150 150 149 149 149 147 147 147 150 150 150 147 147 147 152 152 152 153 153 153 158 158 158 161 161 161 162 162 162 160 160 160 160 160 160 161 161 161 163 163 163 160 160 160 162 162 162 163 163 163 161 161 161 161 161 161 162 162 162 157 157 157 158 158 158 154 154 154 155 155 155 157 157 157 159 159 159 159 159 159 158 158 158 169 169 169 161 161 161 157 157 157 154 154 154 153 153 153 152 152 152 153 153 153 155 155 155 153 153 153
152 152 152 152 152 152 147 147 147 149 149 149 147 147 147 148 148 148 150 150 150 153 153 153 153 153 153 155 155 155 159 159 159 158 158 158 160 160 160 159 159 159 158 158 158 156 156 156 155 155 155 157 157 157 160 160 160 161 161 161 157 157 157 158 158 158 159 159 159 158 158 158 161 161 161 160 160 160 161 161 161 163 163 163 165 165 165 166 166 166 162 162 162 160 160 160 158 158 158 159 159 159 156 156 156 154 154 154 152 152 152 150 150 150 151 151 151 153 153 153 150 150 150 152 152 152 151 151 151 148 148 148 149 149 149 152 152 152 153 153 153 152 152 152 158 158 158 155 155 155 155 155 155 156 156 156 154 154 154 152 152 152 154 154 154 152 152 152 153 153 153 156 156 156 154 154 154 159 159 159 158 158 158 162 162 162 159 159 159 162 162 162 161 161 161 164 164 164 163 163 163 165 165 165 162 162 162 167 167 167 162 162 162 161 161 161 157 157 157 156 156 156 154 154 154 153 153 153 152 152 152 155 155 155 154 154 154 156 156 156 154 154 154 154 154 154 154 154 154 154 154 154 152 152 152 152 152 152 154 154 154 152 152 152 156 156 156 155 155 155 154 154 154 153 153 153 151 151 151 149 149 149 148 148 148 152 152 152 152 152 152 154 154 154 157 157 157 160 160 160 161 161 161 162 162 162 159 159 159 159 159 159 172 172 172 163 163 163 160 160 160 153 153 153 163 163 163 162 162 162 161 161 161 158 158 158 158 158 158 156 156 156 156 156 156 157 157 157 159 159 159 159 159 159 160 160 160 158 158 158 160 160 160 158 158 158 156 156 156 154 154 154 152 152 152 151 151 151 152 152 152 151 151 151
152 152 152 148 148 148 149 149 149 151 151 151 149 149 149 147 147 147 151 151 151 153 153 153 154 154 154 160 160 160 159 159 159 163 163 163 160 160 160 162 162 162 159 159 159 159 159 159 156 156 156 159 159 159 160 160 160 159 159 159 160 160 160 157 157 157 161 161 161 160 160 160 157 157 157 157 157 157 157 157 157 162 162 162 163 163 163 162 162 162 162 162 162 160 160 160 158 158 158 158 158 158 152 152 152 151 151 151 152 152 152 142 142 142 150 150 150 151 151 151 150 150 150 149 149 149 151 151 151 150 150 150 152 152 152 152 152 152 153 153 153 155 155 155 153 153 153 159 159 159 159 159 159 155 155 155 153 153 153 154 154 154 153 153 153 151 151 151 152 152 152 154 154 154 156 156 156 159 159 159 159 159 159 163 163 163 163 163 163 159 159 159 163 163 163 164 164 164 162 162 162 161 161 161 163 163 163 164 164 164 163 163 163 160 160 160 156 156 156 156 156 156 154 154 154 152 152 152 150 150 150 155 155 155 152 152 152 153 153 153 156 156 156 156 156 156 155 155 155 155 155 155 152 152 152 150 150 150 155 155 155 156 156 156 153 153 153 163 163 163 153 153 153 149 149 149 148 148 148 149 149 149 148 148 148 147 147 147 152 152 152 154 154 154 157 157 157 160 160 160 161 161 161 160 160 160 159 159 159 159 159 159 163 163 163 160 160 160 162 162 162 163 163 163 164 164 164 161 161 161 160 160 160 159 159 159 155 155 155 154 154 154 155 155 155 155 155 155 158 158 158 158 158 158 162 162 162 159 159 159 159 159 159 157 157 157 158 158 158 155 155 155 153 153 153 149 149 149 151 151 151 151 151 151
151 151 151 149 149 149 148 148 148 147 147 147 151 151 151 148 148 148 150 150 150 151 151 151 157 157 157 156 156 156 160 160 160 162 162 162 159 159 159 158 158 158 160 160 160 158 158 158 158 158 158 158 158 158 157 157 157 160 160 160 161 161 161 162 162 162 161 161 161 162 162 162 161 161 161 158 158 158 161 161 161 159 159 159 163 163 163 161 161 161 161 161 161 162 162 162 161 161 161 156 156 156 156 156 156 150 150 150 152 152 152 151 151 151 148 148 148 149 149 149 150 150 150 151 151 151 152 152 152 149 149 149 148 148 148 152 152 152 150 150 150 152 152 152 155 155 155 154 154 154 156 156 156 158 158 158 156 156 156 154 154 154 150 150 150 154 154 154 154 154 154 153 153 153 158 158 158 160 160 160 160 160 160 162 162 162 162 162 162 162 162 162 164 164 164 162 162 162 162 162 162 163 163 163 164 164 164 164 164 164 163 163 163 161 161 161 158 158 158 156 156 156 161 161 161 151 151 151 152 152 152 152 152 152 152 152 152 154 154 154 156 156 156 157 157 157 154 154 154 151 151 151 153 153 153 150 150 150 153 153 153 154 154 154 154 154 154 155 155 155 153 153 153 150 150 150 151 151 151 150 150 150 144 144 144 150 150 150 151 151 151 154 154 154 160 160 160 160 160 160 159 159 159 161 161 161 162 162 162 160 160 160 160 160 160 160 160 160 159 159 159 160 160 160 160 160 160 159 159 159 161 161 161 160 160 160 155 155 155 153 153 153 153 153 153 156 156 156 159 159 159 158 158 158 160 160 160 161 161 161 160 160 160 155 155 155 155 155 155 153 153 153 154 154 154 149 149 149 149 149 149 148 148 148
150 150 150 152 152 152 151 151 151 148 148 148 151 151 151 148 148 148 151 151 151 153 153 153 154 154 154 159 159 159 161 161 161 163 163 163 162 162 162 162 162 162 158 158 158 155 155 155 156 156 156 157 157 157 158 158 158 156 156 156 158 158 158 161 161 161 160 160 160 159 159 159 153 153 153 159 159 159 160 160 160 161 161 161 163 163 163 161 161 161 164 164 164 161 161 161 161 161 161 157 157 157 156 156 156 149 149 149 151 151 151 151 151 151 149 149 149 150 150 150 152 152 152 153 153 153 150 150 150 151 151 151 151 151 151 153 153 153 153 153 153 155 155 155 154 154 154 154 154 154 157 157 157 158 158 158 156 156 156 154 154 154 152 152 152 151 151 151 153 153 153 156 156 156 155 155 155 170 170 170 159 159 159 160 160 160 165 165 165 161 161 161 160 160 160 161 161 161 164 164 164 164 164 164 165 165 165 162 162 162 163 163 163 157 157 157 157 157 157 154 154 154 151 151 151 150 150 150 151 151 151 150 150 150 154 154 154 154 154 154 158 158 158 157 157 157 152 152 152 153 153 153 153 153 153 152 152 152 153 153 153 152 152 152 152 152 152 151 151 151 152 152 152 154 154 154 148 148 148 150 150 150 149 149 149 152 152 152 154 154 154 157 157 157 160 160 160 161 161 161 162 162 162 165 165 165 160 160 160 163 163 163 160 160 160 158 158 158 162 162 162 158 158 158 162 162 162 161 161 161 159 159 159 157 157 157 155 155 155 155 155 155 155 155 155 154 154 154 158 158 158 158 158 158 158 158 158 160 160 160 159 159 159 158 158 158 157 157 157 155 155 155 154 154 154 153 153 153 148 148 148 148 148 148
149 149 149 152 152 152 148 148 148 148 148 148 149 149 149 152 152 152 149 149 149 152 152 152 157 157 157 156 156 156 158 158 158 159 159 159 161 161 161 161 161 161 160 160 160 159 159 159 157 157 157 155 155 155 158 158 158 159 159 159 161 161 161 160 160 160 162 162 162 161 161 161 162 162 162 158 158 158 158 158 158 162 162 162 163 163 163 162 162 162 164 164 164 161 161 161 159 159 159 158 158 158 154 154 154 151 151 151 150 150 150 150 150 150 151 151 151 148 148 148 150 150 150 153 153 153 153 153 153 150 150 150 161 161 161 150 150 150 150 150 150 152 152 152 156 156 156 155 155 155 157 157 157 157 157 157 158 158 158 155 155 155 151 151 151 152 152 152 153 153 153 157 157 157 156 156 156 161 161 161 163 163 163 162 162 162 165 165 165 164 164 164 164 164 164 160 160 160 161 161 161 161 161 161 162 162 162 160 160 160 161 161 161 161 161 161 157 157 157 157 157 157 151 151 151 151 151 151 151 151 151 153 153 153 155 155 155 157 157 157 154 154 154 146 146 146 157 157 157 154 154 154 153 153 153 152 152 152 150 150 150 152 152 152 152 152 152 153 153 153 152 152 152 152 152 152 149 149 149 150 150 150 152 152 152 151 151 151 154 154 154 156 156 156 158 158 158 163 163 163 164 164 164 164 164 164 161 161 161 164 164 164 163 163 163 161 161 161 159 159 159 158 158 158 162 162 162 161 161 161 157 157 157 159 159 159 157 157 157 155 155 155 153 153 153 156 156 156 158 158 158 158 158 158 161 161 161 160 160 160 160 160 160 156 156 156 153 153 153 151 151 151 153 153 153 151 151 151 151 151 151 149 149 149
150 150 150 150 150 150 148 148 148 149 149 149 149 149 149 152 152 152 149 149 149 155 155 155 158 158 158 157 157 157 159 159 159 154 154 154 160 160 160 161 161 161 157 157 157 158 158 158 158 158 158 156 156 156 159 159 159 156 156 156 157 157 157 159 159 159 160 160 160 162 162 162 158 158 158 161 161 161 162 162 162 159 159 159 162 162 162 172 172 172 162 162 162 158 158 158 159 159 159 155 155 155 155 155 155 152 152 152 147 147 147 148 148 148 149 149 149 147 147 147 150 150 150 150 150 150 150 150 150 153 153 153 153 153 153 152 152 152 152 152 152 153 153 153 153 153 153 157 157 157 158 158 158 159 159 159 158 158 158 153 153 153 154 154 154 150 150 150 153 153 153 156 156 156 157 157 157 161 161 161 162 162 162 164 164 164 164 164 164 162 162 162 161 161 161 164 164 164 164 164 164 162 162 162 161 161 161 160 160 160 160 160 160 157 157 157 157 157 157 152 152 152 151 151 151 153 153 153 151 151 151 151 151 151 151 151 151 156 156 156 155 155 155 156 156 156 155 155 155 155 155 155 152 152 152 152 152 152 152 152 152 153 153 153 152 152 152 151 151 151 153 153 153 150 150 150 153 153 153 151 151 151 150 150 150 149 149 149 153 153 153 155 155 155 158 158 158 163 163 163 165 165 165 162 162 162 161 161 161 165 165 165 160 160 160 161 161 161 160 160 160 161 161 161 162 162 162 160 160 160 158 158 158 160 160 160 155 155 155 158 158 158 156 156 156 156 156 156 155 155 155 159 159 159 159 159 159 161 161 161 161 161 161 156 156 156 156 156 156 153 153 153 152 152 152 150 150 150 151 151 151 147 147 147
151 151 151 149 149 149 149 149 149 153 153 153 150 150 150 151 151 151 153 153 153 152 152 152 157 157 157 156 156 156 159 159 159 161 161 161 163 163 163 159 159 159 170 170 170 159 159 159 154 154 154 154 154 154 159 159 159 157 157 157 157 157 157 162 162 162 163 163 163 162 162 162 159 159 159 161 161 161 158 158 158 158 158 158 162 162 162 163 163 163 160 160 160 160 160 160 156 156 156 157 157 157 155 155 155 151 151 151 148 148 148 149 149 149 150 150 150 148 148 148 151 151 151 150 150 150 154 154 154 154 154 154 152 152 152 153 153 153 151 151 151 155 155 155 152 152 152 157 157 157 157 157 157 156 156 156 156 156 156 153 153 153 152 152 152 155 155 155 153 153 153 156 156 156 157 157 157 158 158 158 164 164 164 164 164 164 163 163 163 164 164 164 163 163 163 160 160 160 161 161 161 160 160 160 152 152 152 159 159 159 159 159 159 157 157 157 157 157 157 155 155 155 152 152 152 149 149 149 149 149 149 152 152 152 154 154 154 154 154 154 157 157 157 154 154 154 156 156 156 152 152 152 152 152 152 153 153 153 149 149 149 150 150 150 152 152 152 150 150 150 154 154 154 150 150 150 151 151 151 153 153 153 149 149 149 153 153 153 152 152 152 155 155 155 159 159 159 160 160 160 165 165 165 166 166 166 163 163 163 163 163 163 160 160 160 161 161 161 157 157 157 158 158 158 159 159 159 159 159 159 162 162 162 160 160 160 159 159 159 154 154 154 157 157 157 158 158 158 156 156 156 157 157 157 158 158 158 161 161 161 159 159 159 160 160 160 156 156 156 153 153 153 148 148 148 150 150 150 150 150 150 156 156 156
151 151 151 148 148 148 149 149 149 153 153 153 150 150 150 151 151 151 153 153 153 155 155 155 158 158 158 160 160 160 162 162 162 160 160 160 161 161 161 159 159 159 159 159 159 159 159 159 156 156 156 154 154 154 158 158 158 159 159 159 158 158 158 162 162 162 160 160 160 162 162 162 162 162 162 162 162 162 160 160 160 158 158 158 158 158 158 160 160 160 159 159 159 159 159 159 160 160 160 155 155 155 151 151 151 148 148 148 151 151 151 145 145 145 148 148 148 147 147 147 150 150 150 153 153 153 152 152 152 151 151 151 154 154 154 153 153 153 152 152 152 155 155 155 155 155 155 155 155 155 157 157 157 155 155 155 155 155 155 153 153 153 156 156 156 155 155 155 151 151 151 154 154 154 156 156 156 159 159 159 163 163 163 165 165 165 166 166 166 164 164 164 163 163 163 165 165 165 162 162 162 158 158 158 161 161 161 160 160 160 158 158 158 157 157 157 156 156 156 155 155 155 154 154 154 153 153 153 152 152 152 151 151 151 155 155 155 155 155 155 156 156 156 156 156 156 157 157 157 153 153 153 155 155 155 151 151 151 152 152 152 151 151 151 150 150 150 151 151 151 154 154 154 154 154 154 153 153 153 150 150 150 153 153 153 153 153 153 154 154 154 154 154 154 160 160 160 163 163 163 164 164 164 164 164 164 166 166 166 161 161 161 161 161 161 158 158 158 159 159 159 157 157 157 160 160 160 159 159 159 159 159 159 158 158 158 170 170 170 157 157 157 154 154 154 157 157 157 157 157 157 157 157 157 159 159 159 161 161 161 161 161 161 157 157 157 155 155 155 154 154 154 150 150 150 140 140 140 149 149 149 148 148 148
147 147 147 151 151 151 153 153 153 154 154 154 152 152 152 150 150 150 155 155 155 153 153 153 154 154 154 156 156 156 158 158 158 163 163 163 160 160 160 163 163 163 157 157 157 157 157 157 157 157 157 154 154 154 156 156 156 155 155 155 159 159 159 162 162 162 160 160 160 162 162 162 160 160 160 160 160 160 158 158 158 162 162 162 162 162 162 158 158 158 161 161 161 160 160 160 158 158 158 158 158 158 152 152 152 150 150 150 147 147 147 146 146 146 147 147 147 151 151 151 153 153 153 154 154 154 151 151 151 155 155 155 153 153 153 151 151 151 152 152 152 153 153 153 155 155 155 154 154 154 156 156 156 154 154 154 154 154 154 155 155 155 155 155 155 145 145 145 152 152 152 156 156 156 157 157 157 158 158 158 160 160 160 162 162 162 165 165 165 163 163 163 165 165 165 163 163 163 159 159 159 162 162 162 157 157 157 157 157 157 160 160 160 158 158 158 155 155 155 156 156 156 154 154 154 150 150 150 150 150 150 149 149 149 154 154 154 152 152 152 155 155 155 156 156 156 158 158 158 154 154 154 152 152 152 151 151 151 148 148 148 149 149 149 150 150 150 153 153 153 152 152 152 154 154 154 154 154 154 152 152 152 153 153 153 154 154 154 153 153 153 169 169 169 157 157 157 163 163 163 165 165 165 164 164 164 167 167 167 161 161 161 164 164 164 161 161 161 156 156 156 160 160 160 160 160 160 160 160 160 161 161 161 159 159 159 158 158 158 159 159 159 157 157 157 153 153 153 158 158 158 158 158 158 157 157 157 157 157 157 159 159 159 157 157 157 155 155 155 155 155 155 148 148 148 150 150 150 146 146 146 145 145 145
149 149 149 151 151 151 151 151 151 152 152 152 155 155 155 153 153 153 156 156 156 155 155 155 155 155 155 159 159 159 161 161 161 161 161 161 163 163 163 162 162 162 162 162 162 159 159 159 156 156 156 157 157 157 156 156 156 155 155 155 160 160 160 160 160 160 162 162 162 163 163 163 162 162 162 160 160 160 159 159 159 159 159 159 159 159 159 161 161 161 161 161 161 159 159 159 155 155 155 152 152 152 153 153 153 148 148 148 148 148 148 146 146 146 145 145 145 148 148 148 151 151 151 155 155 155 153 153 153 152 152 152 153 153 153 154 154 154 155 155 155 154 154 154 153 153 153 154 154 154 155 155 155 157 157 157 154 154 154 155 155 155 152 152 152 154 154 154 152 152 152 153 153 153 156 156 156 158 158 158 162 162 162 165 165 165 163 163 163 163 163 163 163 163 163 161 161 161 163 163 163 161 161 161 159 159 159 159 159 159 159 159 159 156 156 156 156 156 156 156 156 156 153 153 153 150 150 150 152 152 152 151 151 151 153 153 153 153 153 153 154 154 154 156 156 156 166 166 166 153 153 153 152 152 152 150 150 150 150 150 150 150 150 150 150 150 150 149 149 149 152 152 152 153 153 153 152 152 152 155 155 155 154 154 154 153 153 153 154 154 154 156 156 156 160 160 160 160 160 160 162 162 162 167 167 167 165 165 165 164 164 164 162 162 162 159 159 159 159 159 159 157 157 157 157 157 157 158 158 158 157 157 157 161 161 161 153 153 153 159 159 159 155 155 155 158 158 158 155 155 155 157 157 157 160 160 160 159 159 159 156 156 156 159 159 159 153 153 153 153 153 153 151 151 151 148 148 148 146 146 146 145 145 145
150 150 150 149 149 149 152 152 152 152 152 152 152 152 152 154 154 154 156 156 156 155 155 155 157 157 157 159 159 159 159 159 159 158 158 158 160 160 160 163 163 163 158 158 158 156 156 156 155 155 155 156 156 156 158 158 158 158 158 158 159 159 159 163 163 163 160 160 160 165 165 165 161 161 161 162 162 162 159 159 159 160 160 160 157 157 157 157 157 157 158 158 158 155 155 155 158 158 158 155 155 155 151 151 151 151 151 151 146 146 146 145 145 145 149 149 149 148 148 148 150 150 150 150 150 150 149 149 149 153 153 153 154 154 154 152 152 152 155 155 155 151 151 151 155 155 155 153 153 153 153 153 153 156 156 156 158 158 158 155 155 155 155 155 155 154 154 154 155 155 155 158 158 158 158 158 158 158 158 158 161 161 161 164 164 164 166 166 166 167 167 167 165 165 165 163 163 163 162 162 162 171 171 171 156 156 156 157 157 157 159 159 159 158 158 158 158 158 158 154 154 154 151 151 151 151 151 151 153 153 153 150 150 150 153 153 153 155 155 155 154 154 154 155 155 155 158 158 158 157 157 157 153 153 153 150 150 150 151 151 151 151 151 151 150 150 150 148 148 148 150 150 150 154 154 154 153 153 153 155 155 155 156 156 156 157 157 157 155 155 155 160 160 160 162 162 162 161 161 161 165 165 165 166 166 166 166 166 166 163 163 163 160 160 160 159 159 159 159 159 159 159 159 159 157 157 157 159 159 159 159 159 159 158 158 158 160 160 160 159 159 159 156 156 156 156 156 156 155 155 155 157 157 157 158 158 158 155 155 155 157 157 157 159 159 159 154 154 154 151 151 151 150 150 150 146 146 146 145 145 145 147 147 147
148 148 148 151 151 151 151 151 151 154 154 154 156 156 156 155 155 155 157 157 157 158 158 158 157 157 157 160 160 160 157 157 157 162 162 162 161 161 161 163 163 163 158 158 158 161 161 161 156 156 156 158 158 158 157 157 157 158 158 158 158 158 158 159 159 159 164 164 164 162 162 162 163 163 163 162 162 162 160 160 160 157 157 157 160 160 160 158 158 158 156 156 156 157 157 157 155 155 155 156 156 156 151 151 151 149 149 149 146 146 146 146 146 146 145 145 145 149 149 149 149 149 149 153 153 153 154 154 154 155 155 155 157 157 157 156 156 156 156 156 156 155 155 155 153 153 153 155 155 155 155 155 155 156 156 156 168 168 168 158 158 158 158 158 158 154 154 154 157 157 157 155 155 155 158 158 158 160 160 160 162 162 162 167 167 167 164 164 164 164 164 164 162 162 162 164 164 164 160 160 160 160 160 160 156 156 156 155 155 155 156 156 156 156 156 156 156 156 156 157 157 157 153 153 153 151 151 151 149 149 149 153 153 153 154 154 154 151 151 151 153 153 153 157 157 157 154 154 154 154 154 154 151 151 151 153 153 153 150 150 150 150 150 150 149 149 149 148 148 148 152 152 152 152 152 152 154 154 154 154 154 154 157 157 157 154 154 154 154 154 154 158 158 158 159 159 159 153 153 153 166 166 166 165 165 165 163 163 163 162 162 162 163 163 163 160 160 160 159 159 159 154 154 154 155 155 155 159 159 159 159 159 159 160 160 160 157 157 157 157 157 157 158 158 158 157 157 157 153 153 153 158 158 158 158 158 158 158 158 158 157 157 157 157 157 157 154 154 154 151 151 151 148 148 148 147 147 147 149 149 149 147 147 147
148 148 148 149 149 149 151 151 151 152 152 152 157 157 157 155 155 155 157 157 157 156 156 156 158 158 158 156 156 156 158 158 158 161 161 161 162 162 162 159 159 159 160 160 160 160 160 160 159 159 159 155 155 155 156 156 156 155 155 155 159 159 159 159 159 159 163 163 163 163 163 163 166 166 166 163 163 163 161 161 161 159 159 159 158 158 158 152 152 152 159 159 159 156 156 156 156 156 156 154 154 154 150 150 150 149 149 149 146 146 146 159 159 159 148 148 148 150 150 150 149 149 149 155 155 155 155 155 155 155 155 155 157 157 157 155 155 155 154 154 154 151 151 151 151 151 151 156 156 156 156 156 156 154 154 154 155 155 155 158 158 158 154 154 154 157 157 157 155 155 155 158 158 158 156 156 156 160 160 160 161 161 161 166 166 166 166 166 166 164 164 164 165 165 165 163 163 163 159 159 159 158 158 158 159 159 159 157 157 157 157 157 157 157 157 157 157 157 157 153 153 153 151 151 151 154 154 154 153 153 153 153 153 153 154 154 154 154 154 154 152 152 152 157 157 157 157 157 157 155 155 155 152 152 152 149 149 149 151 151 151 151 151 151 147 147 147 148 148 148 152 152 152 153 153 153 152 152 152 153 153 153 158 158 158 156 156 156 156 156 156 160 160 160 160 160 160 164 164 164 165 165 165 164 164 164 167 167 167 162 162 162 162 162 162 162 162 162 156 156 156 157 157 157 154 154 154 155 155 155 160 160 160 156 156 156 156 156 156 157 157 157 157 157 157 157 157 157 156 156 156 156 156 156 158 158 158 156 156 156 157 157 157 156 156 156 154 154 154 150 150 150 147 147 147 148 148 148 145 145 145 144 144 144
148 148 148 152 152 152 154 154 154 156 156 156 157 157 157 158 158 158 158 158 158 158 158 158 157 157 157 156 156 156 158 158 158 162 162 162 162 162 162 161 161 161 161 161 161 158 158 158 160 160 160 158 158 158 156 156 156 159 159 159 157 157 157 163 163 163 171 171 171 161 161 161 164 164 164 162 162 162 163 163 163 157 157 157 155 155 155 155 155 155 155 155 155 154 154 154 153 153 153 153 153 153 149 149 149 149 149 149 150 150 150 145 145 145 150 150 150 149 149 149 153 153 153 152 152 152 154 154 154 158 158 158 158 158 158 154 154 154 155 155 155 156 156 156 155 155 155 156 156 156 152 152 152 155 155 155 154 154 154 157 157 157 155 155 155 156 156 156 157 157 157 156 156 156 156 156 156 160 160 160 164 164 164 164 164 164 168 168 168 163 163 163 164 164 164 163 163 163 161 161 161 159 159 159 156 156 156 157 157 157 154 154 154 155 155 155 157 157 157 156 156 156 152 152 152 151 151 151 151 151 151 150 150 150 152 152 152 151 151 151 154 154 154 154 154 154 158 158 158 154 154 154 155 155 155 149 149 149 142 142 142 150 150 150 151 151 151 148 148 148 153 153 153 154 154 154 155 155 155 155 155 155 158 158 158 155 155 155 157 157 157 157 157 157 160 160 160 161 161 161 164 164 164 166 166 166 163 163 163 162 162 162 162 162 162 159 159 159 156 156 156 158 158 158 154 154 154 157 157 157 155 155 155 157 157 157 161 161 161 158 158 158 156 156 156 154 154 154 157 157 157 155 155 155 153 153 153 154 154 154 157 157 157 154 154 154 152 152 152 151 151 151 147 147 147 147 147 147 148 148 148 145 145 145
149 149 149 149 149 149 154 154 154 154 154 154 156 156 156 156 156 156 157 157 157 169 169 169 157 157 157 159 159 159 158 158 158 161 161 161 162 162 162 159 159 159 161 161 161 159 159 159 150 150 150 155 155 155 156 156 156 159 159 159 160 160 160 159 159 159 164 164 164 165 165 165 166 166 166 160 160 160 162 162 162 160 160 160 157 157 157 158 158 158 154 154 154 153 153 153 155 155 155 152 152 152 154 154 154 148 148 148 150 150 150 146 146 146 149 149 149 147 147 147 151 151 151 151 151 151 157 157 157 156 156 156 158 158 158 156 156 156 156 156 156 152 152 152 155 155 155 151 151 151 154 154 154 156 156 156 158 158 158 157 157 157 155 155 155 158 158 158 158 158 158 159 159 159 160 160 160 162 162 162 160 160 160 163 163 163 168 168 168 165 165 165 162 162 162 164 164 164 158 158 158 155 155 155 153 153 153 157 157 157 155 155 155 157 157 157 154 154 154 155 155 155 153 153 153 153 153 153 150 150 150 151 151 151 150 150 150 155 155 155 156 156 156 154 154 154 154 154 154 155 155 155 153 153 153 154 154 154 149 149 149 151 151 151 148 148 148 150 150 150 153 153 153 153 153 153 157 157 157 157 157 157 159 159 159 157 157 157 156 156 156 157 157 157 161 161 161 164 164 164 163 163 163 162 162 162 164 164 164 161 161 161 160 160 160 161 161 161 155 155 155 154 154 154 156 156 156 154 154 154 157 157 157 157 157 157 158 158 158 161 161 161 158 158 158 158 158 158 155 155 155 157 157 157 153 153 153 157 157 157 165 165 165 154 154 154 155 155 155 152 152 152 151 151 151 146 146 146 144 144 144 146 146 146
150 150 150 148 148 148 151 151 151 155 155 155 158 158 158 160 160 160 158 158 158 157 157 157 156 156 156 156 156 156 157 157 157 159 159 159 160 160 160 160 160 160 160 160 160 158 158 158 158 158 158 155 155 155 159 159 159 157 157 157 159 159 159 161 161 161 160 160 160 162 162 162 162 162 162 163 163 163 162 162 162 161 161 161 156 156 156 153 153 153 155 155 155 152 152 152 155 155 155 154 154 154 153 153 153 150 150 150 149 149 149 147 147 147 147 147 147 147 147 147 152 152 152 155 155 155 154 154 154 158 158 158 157 157 157 158 158 158 154 154 154 152 152 152 152 152 152 152 152 152 156 156 156 152 152 152 154 154 154 158 158 158 157 157 157 158 158 158 160 160 160 158 158 158 161 161 161 158 158 158 162 162 162 164 164 164 167 167 167 167 167 167 166 166 166 162 162 162 160 160 160 159 159 159 156 156 156 156 156 156 152 152 152 152 152 152 154 154 154 146 146 146 155 155 155 151 151 151 151 151 151 154 154 154 152 152 152 151 151 151 153 153 153 153 153 153 158 158 158 155 155 155 155 155 155 150 150 150 150 150 150 150 150 150 149 149 149 148 148 148 150 150 150 152 152 152 154 154 154 155 155 155 156 156 156 160 160 160 157 157 157 160 160 160 162 162 162 162 162 162 162 162 162 162 162 162 166 166 166 162 162 162 159 159 159 169 169 169 159 159 159 157 157 157 154 154 154 156 156 156 157 157 157 157 157 157 161 161 161 161 161 161 158 158 158 157 157 157 155 155 155 156 156 156 156 156 156 154 154 154 153 153 153 154 154 154 155 155 155 150 150 150 147 147 147 148 148 148 145 145 145 148 148 148
145 145 145 152 152 152 154 154 154 146 146 146 160 160 160 160 160 160 157 157 157 159 159 159 156 156 156 158 158 158 156 156 156 161 161 161 160 160 160 161 161 161 161 161 161 160 160 160 157 157 157 155 155 155 156 156 156 159 159 159 160 160 160 159 159 159 164 164 164 161 161 161 163 163 163 160 160 160 162 162 162 161 161 161 158 158 158 154 154 154 152 152 152 155 155 155 150 150 150 152 152 152 150 150 150 153 153 153 149 149 149 148 148 148 147 147 147 150 150 150 151 151 151 152 152 152 157 157 157 157 157 157 156 156 156 155 155 155 154 154 154 154 154 154 154 154 154 154 154 154 151 151 151 156 156 156 157 157 157 157 157 157 160 160 160 159 159 159 159 159 159 156 156 156 160 160 160 161 161 161 162 162 162 167 167 167 163 163 163 168 168 168 164 164 164 161 161 161 161 161 161 155 155 155 157 157 157 151 151 151 153 153 153 155 155 155 153 153 153 154 154 154 156 156 156 152 152 152 150 150 150 154 154 154 151 151 151 154 154 154 155 155 155 153 153 153 154 154 154 156 156 156 152 152 152 150 150 150 151 151 151 148 148 148 149 149 149 149 149 149 162 162 162 151 151 151 158 158 158 159 159 159 157 157 157 160 160 160 160 160 160 158 158 158 160 160 160 160 160 160 161 161 161 164 164 164 162 162 162 164 164 164 159 159 159 160 160 160 155 155 155 154 154 154 155 155 155 156 156 156 158 158 158 157 157 157 160 160 160 159 159 159 160 160 160 155 155 155 154 154 154 155 155 155 153 153 153 153 153 153 152 152 152 152 152 152 153 153 153 151 151 151 148 148 148 150 150 150 147 147 147 148 148 148
146 146 146 152 152 152 155 155 155 154 154 154 159 159 159 162 162 162 161 161 161 159 159 159 156 156 156 155 155 155 157 157 157 156 156 156 160 160 160 160 160 160 159 159 159 159 159 159 161 161 161 160 160 160 158 158 158 159 159 159 160 160 160 160 160 160 160 160 160 165 165 165 165 165 165 163 163 163 161 161 161 157 157 157 157 157 157 153 153 153 151 151 151 150 150 150 151 151 151 152 152 152 150 150 150 151 151 151 150 150 150 146 146 146 148 148 148 151 151 151 151 151 151 153 153 153 155 155 155 156 156 156 160 160 160 157 157 157 157 157 157 154 154 154 153 153 153 151 151 151 152 152 152 155 155 155 157 157 157 158 158 158 157 157 157 160 160 160 157 157 157 158 158 158 158 158 158 163 163 163 154 154 154 165 165 165 163 163 163 164 164 164 164 164 164 164 164 164 157 157 157 158 158 158 153 153 153 152 152 152 153 153 153 151 151 151 155 155 155 155 155 155 154 154 154 165 165 165 154 154 154 153 153 153 150 150 150 153 153 153 155 155 155 152 152 152 154 154 154 152 152 152 151 151 151 154 154 154 152 152 152 148 148 148 146 146 146 152 152 152 151 151 151 156 156 156 155 155 155 159 159 159 161 161 161 158 158 158 162 162 162 159 159 159 160 160 160 162 162 162 164 164 164 164 164 164 164 164 164 164 164 164 161 161 161 161 161 161 159 159 159 155 155 155 154 154 154 153 153 153 155 155 155 156 156 156 158 158 158 161 161 161 159 159 159 158 158 158 157 157 157 156 156 156 152 152 152 154 154 154 154 154 154 155 155 155 154 154 154 151 151 151 147 147 147 151 151 151 145 145 145 146 146 146
148 148 148 149 149 149 154 154 154 157 157 157 156 156 156 160 160 160 161 161 161 160 160 160 156 156 156 158 158 158 160 160 160 157 157 157 160 160 160 160 160 160 159 159 159 162 162 162 159 159 159 158 158 158 156 156 156 159 159 159 159 159 159 161 161 161 160 160 160 161 161 161 162 162 162 164 164 164 162 162 162 159 159 159 155 155 155 156 156 156 152 152 152 152 152 152 149 149 149 149 149 149 149 149 149 148 148 148 148 148 148 151 151 151 151 151 151 149 149 149 153 153 153 152 152 152 157 157 157 156 156 156 158 158 158 156 156 156 157 157 157 156 156 156 152 152 152 155 155 155 153 153 153 153 153 153 155 155 155 159 159 159 157 157 157 161 161 161 158 158 158 162 162 162 163 163 163 159 159 159 170 170 170 165 165 165 165 165 165 166 166 166 162 162 162 160 160 160 161 161 161 157 157 157 154 154 154 151 151 151 154 154 154 154 154 154 154 154 154 156 156 156 154 154 154 155 155 155 152 152 152 151 151 151 151 151 151 152 152 152 155 155 155 153 153 153 152 152 152 155 155 155 151 151 151 152 152 152 149 149 149 151 151 151 148 148 148 151 151 151 149 149 149 154 154 154 156 156 156 158 158 158 162 162 162 162 162 162 161 161 161 160 160 160 160 160 160 161 161 161 163 163 163 161 161 161 161 161 161 163 163 163 161 161 161 159 159 159 159 159 159 154 154 154 156 156 156 157 157 157 156 156 156 156 156 156 159 159 159 160 160 160 157 157 157 157 157 157 156 156 156 147 147 147 155 155 155 152 152 152 151 151 151 152 152 152 153 153 153 152 152 152 150 150 150 149 149 149 148 148 148 149 149 149
149 149 149 150 150 150 154 154 154 155 155 155 160 160 160 159 159 159 161 161 161 160 160 160 160 160 160 159 159 159 157 157 157 158 158 158 158 158 158 160 160 160 161 161 161 157 157 157 157 157 157 159 159 159 157 157 157 156 156 156 160 160 160 158 158 158 163 163 163 162 162 162 165 165 165 161 161 161 162 162 162 158 158 158 156 156 156 155 155 155 153 153 153 152 152 152 150 150 150 151 151 151 152 152 152 152 152 152 149 149 149 147 147 147 151 151 151 151 151 151 150 150 150 151 151 151 153 153 153 158 158 158 157 157 157 169 169 169 154 154 154 148 148 148 155 155 155 153 153 153 154 154 154 154 154 154 156 156 156 160 160 160 161 161 161 159 159 159 159 159 159 163 163 163 159 159 159 161 161 161 162 162 162 165 165 165 163 163 163 162 162 162 164 164 164 163 163 163 161 161 161 158 158 158 151 151 151 150 150 150 150 150 150 152 152 152 154 154 154 154 154 154 153 153 153 152 152 152 155 155 155 155 155 155 154 154 154 153 153 153 154 154 154 155 155 155 156 156 156 156 156 156 153 153 153 150 150 150 153 153 153 152 152 152 150 150 150 150 150 150 153 153 153 156 156 156 159 159 159 157 157 157 163 163 163 160 160 160 164 164 164 162 162 162 161 161 161 160 160 160 161 161 161 161 161 161 163 163 163 162 162 162 160 160 160 160 160 160 158 158 158 154 154 154 155 155 155 155 155 155 155 155 155 157 157 157 157 157 157 161 161 161 160 160 160 159 159 159 158 158 158 156 156 156 152 152 152 152 152 152 150 150 150 152 152 152 152 152 152 153 153 153 152 152 152 147 147 147 148 148 148 148 148 148
149 149 149 152 152 152 151 151 151 154 154 154 159 159 159 161 161 161 159 159 159 162 162 162 159 159 159 158 158 158 155 155 155 157 157 157 159 159 159 159 159 159 158 158 158 160 160 160 157 157 157 157 157 157 156 156 156 156 156 156 160 160 160 157 157 157 163 163 163 164 164 164 161 161 161 161 161 161 159 159 159 158 158 158 155 155 155 151 151 151 162 162 162 147 147 147 150 150 150 148 148 148 153 153 153 149 149 149 151 151 151 150 150 150 152 152 152 148 148 148 150 150 150 155 155 155 155 155 155 157 157 157 158 158 158 155 155 155 156 156 156 153 153 153 155 155 155 155 155 155 153 153 153 154 154 154 155 155 155 157 157 157 158 158 158 162 162 162 163 163 163 162 162 162 162 162 162 162 162 162 162 162 162 162 162 162 163 163 163 165 165 165 164 164 164 159 159 159 158 158 158 157 157 157 154 154 154 152 152 152 153 153 153 153 153 153 151 151 151 155 155 155 153 153 153 152 152 152 156 156 156 152 152 152 153 153 153 150 150 150 153 153 153 151 151 151 153 153 153 156 156 156 154 154 154 154 154 154 151 151 151 148 148 148 148 148 148 148 148 148 153 153 153 153 153 153 157 157 157 159 159 159 163 163 163 163 163 163 162 162 162 163 163 163 160 160 160 163 163 163 164 164 164 160 160 160 160 160 160 159 159 159 155 155 155 160 160 160 155 155 155 157 157 157 152 152 152 155 155 155 154 154 154 158 158 158 158 158 158 159 159 159 158 158 158 158 158 158 158 158 158 153 153 153 153 153 153 154 154 154 150 150 150 151 151 151 152 152 152 151 151 151 148 148 148 149 149 149 148 148 148 150 150 150
152 152 152 153 153 153 155 155 155 156 156 156 161 161 161 163 163 163 159 159 159 160 160 160 161 161 161 159 159 159 157 157 157 155 155 155 159 159 159 157 157 157 160 160 160 172 172 172 161 161 161 158 158 158 157 157 157 159 159 159 160 160 160 162 162 162 159 159 159 161 161 161 163 163 163 164 164 164 160 160 160 157 157 157 156 156 156 150 150 150 152 152 152 149 149 149 149 149 149 151 151 151 142 142 142 151 151 151 153 153 153 151 151 151 149 149 149 150 150 150 154 154 154 152 152 152 156 156 156 154 154 154 157 157 157 159 159 159 156 156 156 154 154 154 154 154 154 151 151 151 153 153 153 154 154 154 156 156 156 159 159 159 162 162 162 162 162 162 161 161 161 161 161 161 162 162 162 160 160 160 164 164 164 162 162 162 163 163 163 162 162 162 163 163 163 163 163 163 161 161 161 158 158 158 155 155 155 153 153 153 151 151 151 151 151 151 151 151 151 153 153 153 153 153 153 153 153 153 153 153 153 156 156 156 155 155 155 151 151 151 154 154 154 152 152 152 151 151 151 152 152 152 156 156 156 151 151 151 152 152 152 152 152 152 147 147 147 149 149 149 151 151 151 155 155 155 156 156 156 158 158 158 161 161 161 160 160 160 163 163 163 163 163 163 161 161 161 159 159 159 161 161 161 162 162 162 162 162 162 162 162 162 160 160 160 159 159 159 159 159 159 156 156 156 153 153 153 152 152 152 157 157 157 157 157 157 159 159 159 159 159 159 160 160 160 156 156 156 158 158 158 153 153 153 154 154 154 152 152 152 152 152 152 148 148 148 148 148 148 148 148 148 148 148 148 151 151 151 148 148 148 149 149 149
161 161 161 152 152 152 152 152 152 157 157 157 159 159 159 162 162 162 164 164 164 163 163 163 161 161 161 157 157 157 160 160 160 159 159 159 155 155 155 156 156 156 160 160 160 158 158 158 161 161 161 162 162 162 158 158 158 159 159 159 160 160 160 158 158 158 160 160 160 159 159 159 162 162 162 161 161 161 160 160 160 158 158 158 154 154 154 154 154 154 149 149 149 151 151 151 150 150 150 149 149 149 152 152 152 153 153 153 153 153 153 153 153 153 152 152 152 151 151 151 154 154 154 152 152 152 154 154 154 158 158 158 157 157 157 158 158 158 158 158 158 154 154 154 154 154 154 155 155 155 152 152 152 156 156 156 155 155 155 156 156 156 160 160 160 162 162 162 165 165 165 163 163 163 162 162 162 164 164 164 164 164 164 162 162 162 161 161 161 162 162 162 164 164 164 160 160 160 160 160 160 153 153 153 155 155 155 152 152 152 149 149 149 149 149 149 150 150 150 153 153 153 154 154 154 156 156 156 155 155 155 153 153 153 152 152 152 151 151 151 150 150 150 151 151 151 152 152 152 155 155 155 153 153 153 151 151 151 153 153 153 153 153 153 149 149 149 149 149 149 149 149 149 149 149 149 156 156 156 161 161 161 161 161 161 162 162 162 162 162 162 163 163 163 162 162 162 162 162 162 158 158 158 158 158 158 159 159 159 162 162 162 158 158 158 158 158 158 156 156 156 157 157 157 156 156 156 154 154 154 157 157 157 156 156 156 159 159 159 171 171 171 160 160 160 156 156 156 156 156 156 154 154 154 153 153 153 151 151 151 152 152 152 150 150 150 149 149 149 150 150 150 152 152 152 150 150 150 150 150 150 149 149 149
150 150 150 151 151 151 152 152 152 158 158 158 161 161 161 162 162 162 161 161 161 160 160 160 160 160 160 159 159 159 156 156 156 155 155 155 159 159 159 158 158 158 160 160 160 161 161 161 161 161 161 159 159 159 159 159 159 159 159 159 161 161 161 151 151 151 159 159 159 162 162 162 162 162 162 161 161 161 159 159 159 157 157 157 154 154 154 149 149 149 149 149 149 149 149 149 150 150 150 148 148 148 148 148 148 151 151 151 150 150 150 152 152 152 152 152 152 152 152 152 150 150 150 152 152 152 153 153 153 155 155 155 156 156 156 159 159 159 158 158 158 154 154 154 154 154 154 153 153 153 151 151 151 152 152 152 155 155 155 160 160 160 162 162 162 163 163 163 165 165 165 163 163 163 162 162 162 161 161 161 161 161 161 163 163 163 160 160 160 162 162 162 161 161 161 162 162 162 157 157 157 154 154 154 151 151 151 150 150 150 149 149 149 150 150 150 154 154 154 153 153 153 155 155 155 154 154 154 157 157 157 152 152 152 152 152 152 151 151 151 153 153 153 150 150 150 155 155 155 151 151 151 153 153 153 153 153 153 151 151 151 150 150 150 149 149 149 151 151 151 153 153 153 154 154 154 158 158 158 161 161 161 164 164 164 162 162 162 164 164 164 162 162 162 172 172 172 159 159 159 162 162 162 161 161 161 161 161 161 160 160 160 158 158 158 158 158 158 156 156 156 158 158 158 155 155 155 152 152 152 155 155 155 155 155 155 156 156 156 160 160 160 159 159 159 159 159 159 156 156 156 155 155 155 152 152 152 151 151 151 149 149 149 151 151 151 151 151 151 152 152 152 152 152 152 150 150 150 148 148 148 152 152 152
149 149 149 152 152 152 153 153 153 156 156 156 160 160 160 163 163 163 164 164 164 163 163 163 161 161 161 158 158 158 157 157 157 157 157 157 156 156 156 157 157 157 157 157 157 159 159 159 163 163 163 163 163 163 161 161 161 161 161 161 160 160 160 157 157 157 160 160 160 159 159 159 163 163 163 160 160 160 160 160 160 157 157 157 156 156 156 153 153 153 151 151 151 146 146 146 148 148 148 147 147 147 151 151 151 151 151 151 152 152 152 152 152 152 152 152 152 152 152 152 151 151 151 151 151 151 154 154 154 155 155 155 157 157 157 158 158 158 159 159 159 156 156 156 153 153 153 152 152 152 153 153 153 153 153 153 154 154 154 158 158 158 160 160 160 163 163 163 165 165 165 164 164 164 165 165 165 161 161 161 161 161 161 164 164 164 161 161 161 159 159 159 161 161 161 160 160 160 157 157 157 153 153 153 151 151 151 150 150 150 150 150 150 152 152 152 152 152 152 154 154 154 153 153 153 154 154 154 155 155 155 153 153 153 146 146 146 152 152 152 150 150 150 153 153 153 151 151 151 164 164 164 154 154 154 153 153 153 152 152 152 149 149 149 152 152 152 152 152 152 151 151 151 155 155 155 157 157 157 159 159 159 163 163 163 165 165 165 163 163 163 165 165 165 163 163 163 160 160 160 158 158 158 160 160 160 157 157 157 162 162 162 161 161 161 161 161 161 156 156 156 156 156 156 157 157 157 155 155 155 155 155 155 155 155 155 158 158 158 157 157 157 157 157 157 159 159 159 154 154 154 152 152 152 153 153 153 149 149 149 150 150 150 147 147 147 148 148 148 150 150 150 150 150 150 151 151 151 150 150 150 152 152 152
149 149 149 155 155 155 157 157 157 157 157 157 161 161 161 159 159 159 161 161 161 163 163 163 153 153 153 160 160 160 159 159 159 154 154 154 154 154 154 159 159 159 159 159 159 161 161 161 159 159 159 160 160 160 159 159 159 159 159 159 159 159 159 159 159 159 161 161 161 159 159 159 158 158 158 160 160 160 158 158 158 159 159 159 152 152 152 153 153 153 148 148 148 146 146 146 146 146 146 146 146 146 152 152 152 150 150 150 153 153 153 151 151 151 154 154 154 153 153 153 152 152 152 153 153 153 154 154 154 156 156 156 159 159 159 157 157 157 156 156 156 158 158 158 154 154 154 155 155 155 155 155 155 155 155 155 158 158 158 157 157 157 163 163 163 162 162 162 166 166 166 164 164 164 163 163 163 162 162 162 159 159 159 160 160 160 159 159 159 159 159 159 161 161 161 157 157 157 156 156 156 153 153 153 164 164 164 153 153 153 149 149 149 149 149 149 149 149 149 151 151 151 155 155 155 155 155 155 155 155 155 154 154 154 151 151 151 150 150 150 153 153 153 153 153 153 152 152 152 150 150 150 151 151 151 152 152 152 151 151 151 153 153 153 152 152 152 154 154 154 151 151 151 157 157 157 159 159 159 163 163 163 163 163 163 165 165 165 162 162 162 165 165 165 163 163 163 159 159 159 161 161 161 161 161 161 161 161 161 159 159 159 160 160 160 159 159 159 158 158 158 157 157 157 154 154 154 152 152 152 155 155 155 158 158 158 159 159 159 157 157 157 161 161 161 156 156 156 157 157 157 152 152 152 151 151 151 149 149 149 149 149 149 148 148 148 149 149 149 148 148 148 151 151 151 151 151 151 150 150 150 151 151 151
154 154 154 156 156 156 155 155 155 155 155 155 161 161 161 159 159 159 161 161 161 164 164 164 163 163 163 157 157 157 157 157 157 155 155 155 157 157 157 155 155 155 158 158 158 158 158 158 161 161 161 162 162 162 164 164 164 162 162 162 159 159 159 157 157 157 160 160 160 160 160 160 159 159 159 157 157 157 160 160 160 154 154 154 154 154 154 152 152 152 148 148 148 147 147 147 146 146 146 147 147 147 149 149 149 150 150 150 154 154 154 155 155 155 152 152 152 155 155 155 152 152 152 154 154 154 154 154 154 154 154 154 158 158 158 156 156 156 157 157 157 156 156 156 156 156 156 152 152 152 151 151 151 156 156 156 156 156 156 167 167 167 159 159 159 163 163 163 165 165 165 165 165 165 164 164 164 163 163 163 164 164 164 161 161 161 158 158 158 161 161 161 162 162 162 151 151 151 158 158 158 157 157 157 152 152 152 151 151 151 148 148 148 149 149 149 151 151 151 153 153 153 154 154 154 154 154 154 157 157 157 153 153 153 155 155 155 153 153 153 149 149 149 151 151 151 153 153 153 149 149 149 154 154 154 151 151 151 150 150 150 155 155 155 151 151 151 153 153 153 155 155 155 153 153 153 157 157 157 160 160 160 165 165 165 167 167 167 167 167 167 166 166 166 163 163 163 159 159 159 160 160 160 158 158 158 156 156 156 161 161 161 157 157 157 160 160 160 158 158 158 157 157 157 157 157 157 155 155 155 154 154 154 157 157 157 159 159 159 158 158 158 161 161 161 155 155 155 155 155 155 156 156 156 153 153 153 149 149 149 148 148 148 149 149 149 148 148 148 148 148 148 150 150 150 150 150 150 150 150 150 152 152 152
154 154 154 153 153 153 154 154 154 157 157 157 158 158 158 162 162 162 161 161 161 163 163 163 162 162 162 161 161 161 155 155 155 155 155 155 155 155 155 156 156 156 158 158 158 161 161 161 160 160 160 161 161 161 164 164 164 161 161 161 161 161 161 159 159 159 161 161 161 161 161 161 160 160 160 161 161 161 158 158 158 156 156 156 154 154 154 151 151 151 150 150 150 148 148 148 149 149 149 148 148 148 148 148 148 150 150 150 151 151 151 153 153 153 163 163 163 152 152 152 152 152 152 153 153 153 154 154 154 155 155 155 156 156 156 155 155 155 155 155 155 155 155 155 158 158 158 157 157 157 155 155 155 155 155 155 155 155 155 158 158 158 159 159 159 164 164 164 167 167 167 167 167 167 166 166 166 162 162 162 162 162 162 162 162 162 159 159 159 157 157 157 157 157 157 159 159 159 157 157 157 154 154 154 155 155 155 151 151 151 148 148 148 149 149 149 152 152 152 155 155 155 155 155 155 157 157 157 155 155 155 157 157 157 153 153 153 150 150 150 149 149 149 151 151 151 152 152 152 151 151 151 153 153 153 153 153 153 154 154 154 154 154 154 154 154 154 155 155 155 155 155 155 155 155 155 160 160 160 160 160 160 164 164 164 167 167 167 166 166 166 163 163 163 160 160 160 158 158 158 157 157 157 160 160 160 160 160 160 159 159 159 156 156 156 160 160 160 158 158 158 155 155 155 156 156 156 157 157 157 154 154 154 156 156 156 156 156 156 156 156 156 157 157 157 156 156 156 156 156 156 151 151 151 150 150 150 148 148 148 147 147 147 147 147 147 141 141 141 148 148 148 152 152 152 150 150 150 153 153 153 155 155 155
154 154 154 155 155 155 157 157 157 157 157 157 159 159 159 161 161 161 162 162 162 161 161 161 162 162 162 160 160 160 157 157 157 156 156 156 158 158 158 159 159 159 157 157 157 158 158 158 160 160 160 161 161 161 161 161 161 162 162 162 162 162 162 161 161 161 158 158 158 171 171 171 158 158 158 157 157 157 157 157 157 153 153 153 151 151 151 151 151 151 147 147 147 145 145 145 146 146 146 147 147 147 148 148 148 153 153 153 151 151 151 153 153 153 154 154 154 156 156 156 155 155 155 156 156 156 155 155 155 157 157 157 157 157 157 158 158 158 156 156 156 157 157 157 158 158 158 155 155 155 153 153 153 153 153 153 151 151 151 156 156 156 160 160 160 162 162 162 167 167 167 166 166 166 164 164 164 164 164 164 159 159 159 161 161 161 157 157 157 156 156 156 157 157 157 155 155 155 157 157 157 157 157 157 152 152 152 150 150 150 149 149 149 152 152 152 152 152 152 152 152 152 154 154 154 157 157 157 154 154 154 153 153 153 153 153 153 154 154 154 152 152 152 152 152 152 148 148 148 150 150 150 151 151 151 150 150 150 151 151 151 151 151 151 156 156 156 155 155 155 157 157 157 154 154 154 159 159 159 164 164 164 161 161 161 165 165 165 167 167 167 165 165 165 164 164 164 162 162 162 158 158 158 156 156 156 155 155 155 157 157 157 160 160 160 159 159 159 159 159 159 157 157 157 154 154 154 156 156 156 157 157 157 155 155 155 155 155 155 155 155 155 156 156 156 155 155 155 155 155 155 156 156 156 151 151 151 146 146 146 145 145 145 146 146 146 149 149 149 148 148 148 149 149 149 152 152 152 154 154 154 156 156 156
156 156 156 157 157 157 158 158 158 160 160 160 158 158 158 159 159 159 162 162 162 161 161 161 169 169 169 159 159 159 159 159 159 156 156 156 158 158 158 155 155 155 156 156 156 159 159 159 160 160 160 164 164 164 164 164 164 160 160 160 160 160 160 159 159 159 156 156 156 157 157 157 155 155 155 159 159 159 156 156 156 155 155 155 151 151 151 152 152 152 150 150 150 145 145 145 147 147 147 148 148 148 148 148 148 152 152 152 153 153 153 153 153 153 156 156 156 153 153 153 153 153 153 155 155 155 152 152 152 156 156 156 155 155 155 159 159 159 158 158 158 159 159 159 154 154 154 156 156 156 153 153 153 156 156 156 156 156 156 158 158 158 159 159 159 165 165 165 164 164 164 163 163 163 164 164 164 161 161 161 160 160 160 158 158 158 158 158 158 155 155 155 157 157 157 156 156 156 154 154 154 154 154 154 155 155 155 152 152 152 151 151 151 148 148 148 153 153 153 154 154 154 155 155 155 157 157 157 158 158 158 156 156 156 156 156 156 152 152 152 150 150 150 150 150 150 148 148 148 149 149 149 153 153 153 150 150 150 154 154 154 156 156 156 155 155 155 153 153 153 157 157 157 155 155 155 161 161 161 159 159 159 163 163 163 164 164 164 164 164 164 164 164 164 164 164 164 160 160 160 157 157 157 156 156 156 155 155 155 155 155 155 159 159 159 157 157 157 156 156 156 156 156 156 157 157 157 146 146 146 157 157 157 154 154 154 157 157 157 158 158 158 155 155 155 155 155 155 157 157 157 152 152 152 150 150 150 147 147 147 148 148 148 157 157 157 146 146 146 151 151 151 149 149 149 153 153 153 154 154 154 156 156 156
154 154 154 156 156 156 156 156 156 158 158 158 160 160 160 161 161 161 160 160 160 161 161 161 162 162 162 161 161 161 158 158 158 155 155 155 157 157 157 156 156 156 157 157 157 161 161 161 161 161 161 161 161 161 162 162 162 164 164 164 162 162 162 161 161 161 159 159 159 155 155 155 158 158 158 155 155 155 158 158 158 154 154 154 154 154 154 150 150 150 148 148 148 147 147 147 147 147 147 148 148 148 151 151 151 151 151 151 153 153 153 154 154 154 156 156 156 148 148 148 156 156 156 154 154 154 155 155 155 153 153 153 155 155 155 154 154 154 157 157 157 159 159 159 157 157 157 155 155 155 154 154 154 155 155 155 155 155 155 157 157 157 159 159 159 165 165 165 164 164 164 165 165 165 165 165 165 165 165 165 160 160 160 158 158 158 159 159 159 158 158 158 156 156 156 157 157 157 154 154 154 156 156 156 152 152 152 154 154 154 149 149 149 149 149 149 152 152 152 151 151 151 156 156 156 157 157 157 158 158 158 156 156 156 154 154 154 150 150 150 153 153 153 149 149 149 150 150 150 151 151 151 153 153 153 152 152 152 152 152 152 155 155 155 157 157 157 158 158 158 157 157 157 156 156 156 158 158 158 162 162 162 163 163 163 165 165 165 168 168 168 165 165 165 165 165 165 162 162 162 158 158 158 155 155 155 156 156 156 156 156 156 158 158 158 156 156 156 170 170 170 156 156 156 158 158 158 158 158 158 157 157 157 154 154 154 154 154 154 156 156 156 156 156 156 156 156 156 155 155 155 153 153 153 151 151 151 148 148 148 147 147 147 148 148 148 146 146 146 150 150 150 150 150 150 151 151 151 157 157 157 153 153 153
158 158 158 158 158 158 160 160 160 158 158 158 159 159 159 160 160 160 162 162 162 162 162 162 160 160 160 162 162 162 161 161 161 157 157 157 156 156 156 159 159 159 159 159 159 160 160 160 163 163 163 165 165 165 161 161 161 163 163 163 162 162 162 160 160 160 158 158 158 159 159 159 155 155 155 155 155 155 156 156 156 155 155 155 150 150 150 150 150 150 147 147 147 148 148 148 145 145 145 148 148 148 150 150 150 152 152 152 151 151 151 157 157 157 154 154 154 156 156 156 154 154 154 153 153 153 156 156 156 152 152 152 156 156 156 156 156 156 158 158 158 157 157 157 159 159 159 154 154 154 155 155 155 156 156 156 157 157 157 161 161 161 160 160 160 166 166 166 168 168 168 166 166 166 167 167 167 162 162 162 161 161 161 159 159 159 158 158 158 157 157 157 153 153 153 155 155 155 157 157 157 154 154 154 153 153 153 154 154 154 149 149 149 152 152 152 151 151 151 153 153 153 155 155 155 156 156 156 158 158 158 157 157 157 156 156 156 155 155 155 152 152 152 147 147 147 151 151 151 151 151 151 150 150 150 152 152 152 152 152 152 157 157 157 156 156 156 156 156 156 157 157 157 166 166 166 158 158 158 160 160 160 166 166 166 167 167 167 159 159 159 166 166 166 162 162 162 159 159 159 157 157 157 154 154 154 158 158 158 156 156 156 158 158 158 158 158 158 156 156 156 159 159 159 159 159 159 155 155 155 155 155 155 155 155 155 157 157 157 158 158 158 154 154 154 156 156 156 157 157 157 152 152 152 151 151 151 151 151 151 145 145 145 146 146 146 145 145 145 147 147 147 149 149 149 151 151 151 156 156 156 158 158 158
155 155 155 157 157 157 156 156 156 157 157 157 157 157 157 159 159 159 163 163 163 160 160 160 160 160 160 159 159 159 160 160 160 157 157 157 156 156 156 156 156 156 156 156 156 161 161 161 160 160 160 161 161 161 162 162 162 161 161 161 162 162 162 158 158 158 159 159 159 155 155 155 153 153 153 154 154 154 149 149 149 154 154 154 153 153 153 151 151 151 148 148 148 148 148 148 147 147 147 149 149 149 151 151 151 152 152 152 153 153 153 156 156 156 159 159 159 159 159 159 154 154 154 156 156 156 154 154 154 156 156 156 154 154 154 155 155 155 154 154 154 157 157 157 159 159 159 159 159 159 155 155 155 156 156 156 158 158 158 158 158 158 161 161 161 162 162 162 167 167 167 166 166 166 167 167 167 162 162 162 161 161 161 158 158 158 159 159 159 155 155 155 155 155 155 156 156 156 156 156 156 153 153 153 155 155 155 155 155 155 152 152 152 151 151 151 152 152 152 154 154 154 155 155 155 154 154 154 163 163 163 155 155 155 157 157 157 155 155 155 149 149 149 152 152 152 149 149 149 151 151 151 153 153 153 154 154 154 152 152 152 157 157 157 156 156 156 157 157 157 158 158 158 158 158 158 162 162 162 163 163 163 162 162 162 166 166 166 167 167 167 166 166 166 161 161 161 163 163 163 160 160 160 157 157 157 154 154 154 153 153 153 158 158 158 158 158 158 159 159 159 160 160 160 158 158 158 155 155 155 154 154 154 157 157 157 157 157 157 154 154 154 155 155 155 156 156 156 156 156 156 154 154 154 149 149 149 149 149 149 148 148 148 147 147 147 146 146 146 148 148 148 151 151 151 155 155 155 155 155 155 156 156 156
157 157 157 159 159 159 156 156 156 157 157 157 161 161 161 158 158 158 163 163 163 159 159 159 161 161 161 160 160 160 157 157 157 158 158 158 157 157 157 158 158 158 157 157 157 160 160 160 162 162 162 163 163 163 162 162 162 164 164 164 160 160 160 159 159 159 156 156 156 153 153 153 153 153 153 154 154 154 153 153 153 155 155 155 152 152 152 149 149 149 149 149 149 147 147 147 146 146 146 147 147 147 147 147 147 152 152 152 153 153 153 156 156 156 155 155 155 155 155 155 156 156 156 154 154 154 152 152 152 155 155 155 154 154 154 154 154 154 158 158 158 159 159 159 159 159 159 160 160 160 155 155 155 157 157 157 161 161 161 160 160 160 161 161 161 163 163 163 165 165 165 168 168 168 163 163 163 165 165 165 161 161 161 170 170 170 157 157 157 154 154 154 155 155 155 155 155 155 154 154 154 153 153 153 154 154 154 155 155 155 154 154 154 150 150 150 152 152 152 151 151 151 154 154 154 153 153 153 156 156 156 154 154 154 153 153 153 151 151 151 152 152 152 151 151 151 148 148 148 144 144 144 152 152 152 153 153 153 155 155 155 158 158 158 159 159 159 160 160 160 157 157 157 158 158 158 161 161 161 160 160 160 162 162 162 162 162 162 165 165 165 162 162 162 164 164 164 159 159 159 157 157 157 157 157 157 157 157 157 154 154 154 157 157 157 156 156 156 159 159 159 158 158 158 157 157 157 157 157 157 156 156 156 157 157 157 154 154 154 152 152 152 156 156 156 153 153 153 153 153 153 152 152 152 149 149 149 147 147 147 146 146 146 148 148 148 146 146 146 148 148 148 150 150 150 155 155 155 157 157 157 157 157 157
159 159 159 159 159 159 159 159 159 159 159 159 156 156 156 159 159 159 159 159 159 160 160 160 162 162 162 161 161 161 159 159 159 158 158 158 155 155 155 149 149 149 155 155 155 159 159 159 160 160 160 164 164 164 161 161 161 164 164 164 160 160 160 160 160 160 155 155 155 153 153 153 154 154 154 154 154 154 152 152 152 155 155 155 151 151 151 148 148 148 149 149 149 147 147 147 149 149 149 149 149 149 147 147 147 152 152 152 156 156 156 154 154 154 158 158 158 159 159 159 155 155 155 155 155 155 153 153 153 153 153 153 152 152 152 156 156 156 167 167 167 157 157 157 157 157 157 158 158 158 160 160 160 158 158 158 157 157 157 158 158 158 161 161 161 162 162 162 166 166 166 167 167 167 164 164 164 161 161 161 163 163 163 157 157 157 154 154 154 151 151 151 155 155 155 152 152 152 152 152 152 155 155 155 152 152 152 151 151 151 154 154 154 149 149 149 149 149 149 153 153 153 155 155 155 154 154 154 156 156 156 156 156 156 155 155 155 155 155 155 153 153 153 149 149 149 148 148 148 148 148 148 150 150 150 154 154 154 157 157 157 157 157 157 158 158 158 161 161 161 157 157 157 159 159 159 159 159 159 163 163 163 161 161 161 165 165 165 162 162 162 164 164 164 162 162 162 161 161 161 158 158 158 155 155 155 152 152 152 157 157 157 155 155 155 155 155 155 156 156 156 157 157 157 159 159 159 159 159 159 158 158 158 154 154 154 155 155 155 152 152 152 155 155 155 153 153 153 155 155 155 150 150 150 149 149 149 150 150 150 145 145 145 148 148 148 145 145 145 151 151 151 151 151 151 155 155 155 155 155 155 157 157 157
160 160 160 161 161 161 158 158 158 159 159 159 160 160 160 160 160 160 160 160 160 162 162 162 161 161 161 159 159 159 160 160 160 156 156 156 156 156 156 155 155 155 157 157 157 160 160 160 158 158 158 165 165 165 165 165 165 162 162 162 162 162 162 159 159 159 159 159 159 154 154 154 154 154 154 150 150 150 153 153 153 150 150 150 152 152 152 151 151 151 151 151 151 159 159 159 146 146 146 150 150 150 147 147 147 151 151 151 155 155 155 158 158 158 159 159 159 157 157 157 159 159 159 157 157 157 152 152 152 154 154 154 154 154 154 154 154 154 157 157 157 156 156 156 159 159 159 157 157 157 158 158 158 157 157 157 157 157 157 159 159 159 159 159 159 166 166 166 167 167 167 166 166 166 166 166 166 161 161 161 162 162 162 157 157 157 155 155 155 151 151 151 152 152 152 151 151 151 154 154 154 155 155 155 154 154 154 154 154 154 146 146 146 153 153 153 149 149 149 151 151 151 151 151 151 156 156 156 155 155 155 154 154 154 156 156 156 152 152 152 149 149 149 148 148 148 150 150 150 147 147 147 149 149 149 153 153 153 155 155 155 157 157 157 158 158 158 160 160 160 162 162 162 161 161 161 160 160 160 159 159 159 164 164 164 163 163 163 162 162 162 164 164 164 164 164 164 162 162 162 160 160 160 153 153 153 157 157 157 156 156 156 153 153 153 158 158 158 160 160 160 158 158 158 159 159 159 159 159 159 156 156 156 155 155 155 154 154 154 154 154 154 152 152 152 156 156 156 152 152 152 153 153 153 151 151 151 150 150 150 150 150 150 147 147 147 145 145 145 150 150 150 153 153 153 152 152 152 159 159 159 160 160 160
152 152 152 159 159 159 160 160 160 158 158 158 159 159 159 158 158 158 157 157 157 162 162 162 159 159 159 160 160 160 159 159 159 157 157 157 159 159 159 155 155 155 157 157 157 161 161 161 169 169 169 160 160 160 164 164 164 161 161 161 159 159 159 159 159 159 158 158 158 153 153 153 155 155 155 150 150 150 153 153 153 153 153 153 151 151 151 150 150 150 150 150 150 147 147 147 150 150 150 148 148 148 151 151 151 154 154 154 154 154 154 157 157 157 160 160 160 160 160 160 158 158 158 156 156 156 156 156 156 155 155 155 155 155 155 154 154 154 155 155 155 156 156 156 156 156 156 159 159 159 158 158 158 162 162 162 160 160 160 162 162 162 161 161 161 165 165 165 166 166 166 166 166 166 163 163 163 161 161 161 159 159 159 157 157 157 154 154 154 153 153 153 153 153 153 154 154 154 150 150 150 155 155 155 152 152 152 154 154 154 152 152 152 151 151 151 151 151 151 150 150 150 153 153 153 154 154 154 155 155 155 156 156 156 155 155 155 152 152 152 152 152 152 149 149 149 151 151 151 148 148 148 153 153 153 152 152 152 157 157 157 156 156 156 162 162 162 161 161 161 163 163 163 162 162 162 159 159 159 162 162 162 160 160 160 164 164 164 163 163 163 162 162 162 163 163 163 162 162 162 156 156 156 155 155 155 154 154 154 154 154 154 153 153 153 158 158 158 159 159 159 156 156 156 160 160 160 158 158 158 157 157 157 153 153 153 155 155 155 155 155 155 151 151 151 152 152 152 150 150 150 152 152 152 150 150 150 147 147 147 147 147 147 147 147 147 147 147 147 150 150 150 151 151 151 154 154 154 157 157 157 152 152 152
