P3
# VIMS red wood calibration texture
64 64
255
164 43 22 175 47 23 188 52 24 190 52 25 187 50 25 187 51 25 182 50 24 168 44 22 159 42 21 156 42 19 151 40 18 146 38 18 144 37 18 152 40 19 162 44 20 165 44 22 177 48 23 185 51 24 190 52 25 190 52 25 183 49 24 180 49 23 172 47 22 160 42 21 154 41 19 145 38 18 142 37 18 149 40 18 153 41 19 158 42 20 170 46 22 177 48 23 188 52 24 186 50 25 192 53 25 183 49 24 177 47 23 169 45 22 161 43 21 152 40 19 149 39 18 142 37 18 147 39 18 154 41 19 163 44 20 166 44 22 178 48 23 189 52 24 189 52 25 191 53 25 189 52 24 178 48 23 171 46 22 160 43 21 151 39 19 150 40 18 142 37 18 145 38 18 153 41 19 160 43 20 167 45 22 179 49 23 186 51 24 193 54 25
169 45 22 176 47 23 186 50 24 189 51 25 187 51 25 183 49 24 174 46 23 169 46 22 160 43 20 154 41 19 143 37 18 142 36 18 149 39 18 154 41 19 162 43 21 175 48 22 184 51 23 184 49 24 193 54 25 190 52 25 184 50 24 176 48 23 170 46 22 158 42 20 148 38 19 150 40 18 143 37 18 144 37 18 156 42 19 162 43 21 170 46 22 179 48 23 186 50 24 188 51 25 186 50 25 181 49 24 173 46 23 168 45 22 161 43 20 150 39 19 143 37 18 144 38 18 149 39 18 151 39 19 165 44 21 173 47 22 181 50 24 190 53 25 189 52 25 190 52 25 188 52 24 176 47 23 171 47 22 155 40 20 153 41 19 148 39 18 145 38 18 151 40 18 154 41 19 166 45 21 174 47 22 184 51 24 187 51 25 186 50 25
177 48 23 183 50 24 188 51 25 188 51 25 190 52 25 183 50 24 172 46 23 166 45 21 154 41 20 149 39 19 145 38 18 149 40 18 152 41 19 160 43 20 167 45 21 174 47 23 184 50 24 188 51 25 188 51 25 189 52 25 180 49 24 176 48 23 165 44 21 152 40 20 146 38 19 145 38 18 149 40 18 151 40 19 157 42 20 162 43 21 171 45 23 186 52 24 188 52 25 194 54 25 189 52 25 181 49 24 177 48 23 162 43 21 158 42 20 151 40 19 144 37 18 142 36 18 153 41 19 155 41 20 167 45 21 179 49 23 183 50 24 192 53 25 189 51 25 186 50 25 181 49 24 172 46 22 167 45 21 155 41 20 145 37 19 147 39 18 146 38 18 147 38 19 159 43 20 168 45 21 175 47 23 181 49 24 185 50 25 193 54 25
180 50 23 185 51 24 192 53 25 192 53 25 184 49 25 182 50 24 175 48 22 164 44 21 155 41 19 151 40 18 147 39 18 143 37 18 148 39 19 162 44 20 172 47 22 179 49 23 188 52 24 188 51 25 189 52 25 183 49 24 180 49 23 175 48 22 164 44 21 152 40 19 148 39 18 144 37 18 145 38 18 148 38 19 163 44 20 171 46 22 181 50 23 186 51 24 185 50 25 191 52 25 190 53 24 183 50 23 173 47 22 160 42 21 151 39 19 151 41 18 144 37 18 150 40 18 152 40 19 157 41 20 169 46 22 175 47 23 187 52 24 190 52 25 186 50 25 183 49 24 176 47 23 172 47 22 159 42 21 155 42 19 144 37 18 141 36 18 147 39 18 154 41 19 163 44 20 173 47 22 179 49 23 186 51 24 188 51 25 189 51 25
182 50 23 183 49 24 188 51 25 185 50 25 183 49 24 182 50 23 170 46 22 157 41 20 155 42 19 149 39 18 143 37 18 151 41 18 157 42 19 160 42 21 175 48 22 176 47 23 189 52 24 191 53 25 191 53 25 189 52 24 176 48 23 165 44 22 162 44 20 153 41 19 145 38 18 143 37 18 150 40 18 156 42 19 160 43 21 170 45 22 177 47 23 187 51 24 191 53 25 190 52 25 186 51 24 177 48 23 168 45 22 158 42 20 151 40 19 148 39 18 142 37 18 147 38 18 154 41 19 163 44 21 168 44 22 183 50 23 187 51 24 194 54 25 190 52 25 181 48 24 173 46 23 170 46 22 156 41 20 152 41 19 150 40 18 146 39 18 150 40 18 151 39 19 163 44 21 173 47 22 182 50 24 186 51 25 186 50 25 185 50 25
182 50 24 190 52 25 188 51 25 192 53 25 186 51 24 172 46 23 170 47 21 156 41 20 147 38 19 148 39 18 148 40 18 151 41 19 154 41 20 164 44 21 172 46 22 185 51 24 185 50 25 193 53 25 189 52 25 185 51 24 177 48 23 165 44 21 154 40 20 151 40 19 142 36 18 142 37 18 146 38 19 158 42 20 162 43 21 177 49 22 179 48 24 185 50 25 188 51 25 185 50 25 182 49 24 175 47 23 166 44 21 155 41 20 148 39 19 144 38 18 146 38 18 147 38 19 153 40 20 166 45 21 178 49 22 180 48 24 190 53 25 188 51 25 190 52 25 184 50 24 178 49 23 164 44 21 158 43 20 150 40 19 142 36 18 145 38 18 150 40 19 155 41 20 162 43 21 177 49 23 181 49 24 187 51 25 187 50 25 190 52 25
185 51 24 188 51 25 192 53 25 188 52 25 185 51 24 175 48 23 163 43 21 156 41 20 149 39 19 142 36 18 149 40 18 148 39 19 157 42 20 162 43 21 172 46 23 185 51 24 189 52 25 194 54 25 185 50 25 179 48 24 171 46 22 164 44 21 158 42 20 147 38 19 146 38 18 148 39 18 153 41 19 160 43 20 169 46 21 173 46 23 181 49 24 189 52 25 192 53 25 192 53 25 184 51 24 172 46 22 167 45 21 154 40 20 148 39 19 148 39 18 143 37 18 151 40 19 155 41 20 163 43 21 174 46 23 180 48 24 188 51 25 193 53 25 184 50 25 182 50 24 172 46 22 166 45 21 152 40 20 145 37 19 149 40 18 145 38 18 147 38 19 158 42 20 165 44 21 178 49 23 180 48 24 189 52 25 191 52 25 184 50 25
187 52 24 190 52 25 189 51 25 187 51 25 185 51 24 171 46 22 168 46 21 152 40 20 152 41 19 148 40 18 149 40 18 151 40 19 160 43 20 167 45 21 179 49 23 187 52 24 190 52 25 193 54 25 187 51 25 185 51 24 176 48 22 164 44 21 155 41 19 148 39 18 148 40 18 145 38 18 151 40 19 156 41 20 165 44 21 173 46 23 186 51 24 193 53 25 192 53 25 188 52 25 181 49 24 172 46 22 164 44 21 156 42 19 151 40 18 148 40 18 147 39 18 149 39 19 157 41 20 171 47 22 181 50 23 181 48 24 189 52 25 190 52 25 183 49 25 181 49 24 170 45 22 162 43 21 155 41 19 146 38 18 144 37 18 142 36 18 148 38 19 157 41 20 171 47 22 175 47 23 182 49 24 192 53 25 193 54 25 190 53 24
185 51 24 187 51 25 193 54 25 185 50 25 180 49 24 171 46 22 160 42 21 152 40 19 148 39 18 142 36 18 145 38 18 154 41 19 160 43 20 164 43 22 178 49 23 188 52 24 192 53 25 188 51 25 188 52 25 184 51 24 175 48 22 162 43 21 153 40 19 148 39 18 148 40 18 144 38 18 154 41 19 161 43 20 171 47 22 178 48 23 181 49 24 189 52 25 189 52 25 189 52 24 183 50 23 169 45 22 165 45 21 150 39 19 145 38 18 146 38 18 146 38 18 155 42 19 156 41 20 168 45 22 180 49 23 187 51 24 189 51 25 192 53 25 188 52 24 181 49 23 167 44 22 162 43 21 150 39 19 149 39 18 141 36 18 150 40 18 148 38 19 161 43 20 166 44 22 177 48 23 185 50 24 191 53 25 190 52 25 185 50 24
184 50 24 187 51 25 192 53 25 190 52 25 181 50 24 175 48 22 162 43 21 154 41 19 145 37 18 141 36 18 146 38 18 149 39 19 156 41 20 171 47 22 174 46 23 182 49 24 188 51 25 192 53 25 189 52 24 180 49 23 173 47 22 166 45 21 153 40 19 148 39 18 144 38 18 148 39 18 151 40 19 161 44 20 172 47 22 179 49 23 188 52 24 189 52 25 191 53 25 183 49 24 179 49 23 171 46 22 166 45 21 155 41 19 149 40 18 145 38 18 143 37 18 154 41 19 157 41 20 166 44 22 178 48 23 184 50 24 186 50 25 186 50 25 190 53 24 178 48 23 168 45 22 163 44 21 157 42 19 146 38 18 146 38 18 149 40 18 150 39 19 163 44 20 168 45 22 174 46 23 184 50 24 185 50 25 192 53 25 185 50 24
182 49 24 191 53 25 189 51 25 184 49 25 177 47 24 173 47 22 160 42 21 156 41 19 148 39 18 143 37 18 147 39 18 151 40 19 156 41 20 166 44 21 177 48 23 181 49 24 187 51 25 188 51 25 189 52 25 177 47 24 169 45 22 162 43 21 156 42 19 152 41 18 149 40 18 146 38 18 148 38 19 161 44 20 165 44 22 181 50 23 181 48 24 185 50 25 192 53 25 184 49 25 183 51 24 172 47 22 166 45 21 153 40 19 149 39 18 144 38 18 148 39 18 148 38 19 160 43 20 169 46 22 179 49 23 183 50 24 193 54 25 188 51 25 190 53 24 176 47 23 175 48 22 160 42 21 151 39 19 144 37 18 143 37 18 149 40 18 153 41 19 160 43 20 167 44 22 180 49 23 189 52 24 187 51 25 189 52 25 182 49 24
184 50 24 188 51 25 191 52 25 184 49 25 178 48 24 177 49 22 165 44 21 158 43 20 152 41 19 147 39 18 145 38 18 148 39 19 158 42 20 170 46 21 174 47 23 186 51 24 189 52 25 193 54 25 190 52 25 184 50 24 171 46 22 161 43 21 152 40 20 150 40 19 149 40 18 143 37 18 153 41 19 154 40 20 168 45 21 174 47 23 186 51 24 188 51 25 187 50 25 187 51 25 183 50 24 173 47 22 161 43 21 152 40 20 149 39 19 148 39 18 148 39 18 154 42 19 157 42 20 169 46 21 175 47 23 187 52 24 185 50 25 192 53 25 191 53 25 184 51 24 170 46 22 160 42 21 157 42 19 149 39 18 142 37 18 149 40 18 147 38 19 156 41 20 164 43 21 175 47 23 184 50 24 185 50 25 190 52 25 186 51 25
185 51 24 189 52 25 190 52 25 190 52 25 184 50 24 177 49 23 164 43 21 155 41 20 152 41 19 143 37 18 147 39 18 149 39 19 157 42 20 167 45 21 175 48 23 181 49 24 184 49 25 189 52 25 187 51 25 179 48 24 178 49 23 166 45 21 157 42 20 148 39 19 142 37 18 147 39 18 147 38 19 156 41 20 167 45 21 171 45 23 184 51 24 190 52 25 190 52 25 188 51 25 185 51 24 173 47 23 165 44 21 155 41 20 149 39 19 149 40 18 147 39 18 152 41 19 155 41 20 164 44 21 179 49 23 185 51 24 192 53 25 190 52 25 188 51 25 184 50 24 176 48 23 167 45 21 153 40 20 153 41 19 147 39 18 146 38 18 146 38 19 153 40 20 163 43 21 174 47 23 182 50 24 188 51 25 193 53 25 188 52 25
183 50 23 185 50 24 191 53 25 192 53 25 188 52 24 181 50 23 169 46 22 161 43 20 148 38 19 146 38 18 149 40 18 150 40 18 157 42 19 160 42 21 171 46 22 183 50 24 188 52 25 186 50 25 190 52 25 188 52 24 175 47 23 167 45 22 160 43 20 148 39 19 150 40 18 147 39 18 149 39 18 153 40 19 165 45 21 171 46 22 180 49 24 191 53 25 186 50 25 191 53 25 187 52 24 175 47 23 168 45 21 155 41 20 148 38 19 144 37 18 143 37 18 148 39 19 153 40 20 162 43 21 170 45 22 181 49 24 188 52 25 192 53 25 188 51 25 182 49 24 177 48 23 170 46 21 161 44 20 153 41 19 148 39 18 144 37 18 149 39 19 152 40 20 163 44 21 172 46 22 179 48 24 187 51 25 189 51 25 190 52 25
177 48 23 183 50 24 189 51 25 186 50 25 186 51 24 180 49 23 174 48 22 159 42 21 154 41 19 146 38 18 145 38 18 148 39 18 148 38 19 160 43 20 167 44 22 177 48 23 184 50 24 187 51 25 189 51 25 185 50 24 179 49 23 168 45 22 163 44 20 153 40 19 146 38 18 142 37 18 150 40 18 150 39 19 157 41 20 173 47 22 182 50 23 186 51 24 190 52 25 188 51 25 183 50 24 176 47 23 167 44 22 162 44 20 151 40 19 147 38 18 145 38 18 150 40 18 152 40 19 158 42 20 173 47 22 179 49 23 183 49 24 187 51 25 191 53 25 183 49 24 176 47 23 173 47 22 161 43 20 150 39 19 145 38 18 149 40 18 149 39 18 149 39 19 162 44 21 167 44 22 176 47 23 182 49 24 190 52 25 191 53 25
172 46 23 182 49 24 190 52 25 187 50 25 186 50 25 184 51 24 176 48 22 167 45 21 154 41 20 150 40 19 145 38 18 148 39 18 149 39 19 154 40 20 166 44 21 174 47 23 187 52 24 191 53 25 187 50 25 185 50 25 179 48 24 174 47 22 165 44 21 154 41 20 151 40 19 149 40 18 148 39 18 148 38 19 162 44 20 164 43 21 175 47 23 180 48 24 191 53 25 187 51 25 189 52 25 184 51 24 173 47 22 160 42 21 154 41 19 148 39 18 145 38 18 145 38 18 154 41 19 158 42 20 164 44 21 179 49 23 183 49 24 186 50 25 189 52 25 183 49 25 178 48 24 171 46 22 162 43 21 155 41 19 148 39 18 142 37 18 144 37 18 147 38 19 155 40 20 165 44 22 179 49 23 183 50 24 188 51 25 188 51 25
174 47 22 178 48 24 187 51 25 187 51 25 187 51 25 182 49 24 173 46 23 163 43 21 160 43 20 148 38 19 145 38 18 148 40 18 150 40 19 158 43 20 163 43 21 171 46 22 178 48 24 188 51 25 187 51 25 190 52 25 187 51 24 177 48 23 167 45 21 160 43 20 148 39 19 147 39 18 143 37 18 150 40 19 154 41 20 167 45 21 172 46 22 181 49 24 191 53 25 188 51 25 192 53 25 182 49 24 176 48 23 169 46 21 155 41 20 152 40 19 144 37 18 149 40 18 150 40 19 158 42 20 160 42 21 173 47 22 184 51 24 190 53 25 191 53 25 187 51 25 181 49 24 176 48 23 169 46 21 155 41 20 152 41 19 144 37 18 144 37 18 149 39 19 156 42 20 166 45 21 177 49 22 182 50 24 192 53 25 191 53 25
172 47 22 178 48 23 183 50 24 186 50 25 189 51 25 186 51 24 180 49 23 167 44 22 158 42 21 153 41 19 147 39 18 147 39 18 149 40 18 150 39 19 158 42 20 169 45 22 175 47 23 187 52 24 192 53 25 191 52 25 185 50 24 179 49 23 171 46 22 164 44 20 153 41 19 147 39 18 147 39 18 149 40 18 148 38 19 162 43 20 166 44 22 179 49 23 188 52 24 188 51 25 188 51 25 185 50 24 180 49 23 166 44 22 159 42 20 150 39 19 149 39 18 145 38 18 145 37 18 155 42 19 158 41 20 169 45 22 178 48 23 187 51 24 186 50 25 186 50 25 185 51 24 179 49 23 171 46 22 163 44 20 151 40 19 146 38 18 144 38 18 144 37 18 157 42 19 161 43 21 169 45 22 180 49 23 190 53 24 188 51 25
164 43 21 171 45 23 187 52 24 192 53 25 187 50 25 185 50 25 186 51 24 175 47 22 166 45 21 160 43 20 150 40 19 146 39 18 142 36 18 153 41 19 155 41 20 164 44 21 175 48 23 184 50 24 191 53 25 189 52 25 184 49 25 178 48 24 176 48 22 166 45 21 152 39 20 150 40 19 142 36 18 142 37 18 153 41 19 158 42 20 167 45 21 177 48 23 182 49 24 192 53 25 190 52 25 188 52 25 185 51 24 170 45 22 164 44 21 157 42 20 149 39 19 145 38 18 148 39 18 150 40 19 156 41 20 170 46 21 180 49 23 182 49 24 188 51 25 192 53 25 188 52 25 182 50 24 171 46 22 166 45 21 158 43 20 148 39 19 144 37 18 150 40 18 150 39 19 161 44 20 167 45 21 177 48 23 180 48 24 191 53 25
165 45 21 171 46 22 180 49 24 186 50 24 188 51 25 187 51 25 185 51 24 177 48 23 164 43 22 156 41 20 151 40 19 148 39 18 142 36 18 152 41 18 158 43 19 160 42 21 169 45 22 182 50 24 186 50 25 188 51 25 186 50 25 186 51 24 173 46 23 164 43 21 158 42 20 148 38 19 146 38 18 144 38 18 145 37 18 153 40 19 160 42 21 171 46 22 180 49 24 185 50 25 190 52 25 189 52 25 180 48 24 175 47 23 163 43 21 158 42 20 154 41 19 145 38 18 142 36 18 145 37 19 159 43 20 161 42 21 171 46 22 180 49 24 183 49 25 190 52 25 190 52 25 186 51 24 174 47 23 166 44 21 156 41 20 154 41 19 144 37 18 149 40 18 149 39 19 153 40 20 161 42 21 175 48 22 184 50 24 188 51 25
163 44 20 172 47 22 174 46 23 187 52 24 186 50 25 187 51 25 188 52 24 179 49 23 175 48 22 165 45 21 153 41 19 149 39 18 144 37 18 149 40 18 155 42 19 159 42 20 170 46 22 177 48 23 185 50 24 187 51 25 192 53 25 185 50 24 179 48 23 169 45 22 162 44 21 152 40 19 148 39 18 149 40 18 150 40 18 151 40 19 164 44 20 169 45 22 180 49 23 188 52 24 187 51 25 188 51 25 188 52 24 181 50 23 172 47 22 162 43 20 151 40 19 146 38 18 144 37 18 149 40 18 156 42 19 159 42 20 169 46 22 177 48 23 188 52 24 189 52 25 188 51 25 186 51 24 183 50 23 169 45 22 161 43 20 154 41 19 143 37 18 144 38 18 145 38 18 156 42 19 164 44 20 168 45 22 181 50 23 188 52 24
154 40 20 165 44 21 171 45 23 183 50 24 191 53 25 188 51 25 190 53 25 181 49 24 174 47 22 168 46 21 153 40 20 152 41 19 147 39 18 145 38 18 151 40 19 160 43 20 165 44 21 174 47 23 181 49 24 191 53 25 190 52 25 191 53 25 183 50 24 175 48 22 161 43 21 159 43 20 146 38 19 142 36 18 149 40 18 149 39 19 155 41 20 168 46 21 175 47 23 185 51 24 190 52 25 187 50 25 187 51 25 184 51 24 177 48 22 165 44 21 158 42 20 146 38 19 145 38 18 143 37 18 153 41 19 154 40 20 168 45 21 173 46 23 183 49 24 186 50 25 190 52 25 187 51 25 184 50 24 174 47 22 161 43 21 156 42 19 146 38 19 142 36 18 146 38 18 148 38 19 161 43 20 171 47 21 176 48 23 180 48 24
154 41 19 166 45 21 174 47 22 179 48 24 187 51 25 189 52 25 192 53 25 186 51 24 172 46 23 170 46 21 157 42 20 147 38 19 143 37 18 148 40 18 149 39 19 158 42 20 161 43 21 173 47 22 184 51 24 188 52 25 192 53 25 192 53 25 186 51 24 178 49 23 170 47 21 160 43 20 154 41 19 150 40 18 149 40 18 148 39 19 153 40 20 160 42 21 171 45 22 182 49 24 189 52 25 187 50 25 190 52 25 185 51 24 178 49 23 169 46 21 160 43 20 152 41 19 147 39 18 142 37 18 148 39 19 158 42 20 161 42 21 175 48 22 180 49 24 192 53 25 192 53 25 185 50 25 182 50 24 176 48 23 168 46 21 155 41 20 146 38 19 147 39 18 146 39 18 150 40 19 157 42 20 167 45 21 174 47 23 184 51 24
155 41 19 159 42 21 173 47 22 176 47 23 189 52 24 193 54 25 193 54 25 182 49 24 174 46 23 172 47 22 158 41 20 156 42 19 144 37 18 148 40 18 146 38 18 155 42 19 163 44 21 171 46 22 180 49 23 189 52 24 190 52 25 189 52 25 186 51 24 177 48 23 169 46 22 162 44 20 152 40 19 146 38 18 147 39 18 145 37 18 153 40 19 162 43 21 168 44 22 182 50 23 184 50 24 190 52 25 186 50 25 185 50 24 177 48 23 168 45 22 159 43 20 150 39 19 146 38 18 143 37 18 146 38 18 156 42 19 163 44 21 172 46 22 182 50 23 183 49 24 186 50 25 192 53 25 187 52 24 181 50 23 167 45 22 161 43 20 149 39 19 146 38 18 144 37 18 151 40 18 158 43 19 166 45 21 168 45 22 179 48 24
155 42 19 158 42 20 169 45 22 182 50 23 186 51 24 186 50 25 189 51 25 185 50 24 176 47 23 170 46 22 163 44 21 156 42 19 143 37 18 142 36 18 150 40 18 148 38 19 163 44 20 171 47 22 178 48 23 189 52 24 189 52 25 186 50 25 188 52 24 178 48 23 166 44 22 161 43 20 150 39 19 149 40 18 142 36 18 148 39 18 153 41 19 164 45 20 167 45 22 179 49 23 186 51 24 192 53 25 191 53 25 188 52 24 175 47 23 168 45 22 162 44 20 156 42 19 148 39 18 149 40 18 147 39 18 152 40 19 158 42 20 170 46 22 179 49 23 186 51 24 188 51 25 192 53 25 186 51 24 175 47 23 167 44 22 157 41 20 153 40 19 144 37 18 146 39 18 149 39 18 150 39 19 161 43 21 168 45 22 177 47 23
153 41 19 162 44 20 166 44 22 179 49 23 185 51 24 186 50 25 192 53 25 191 53 24 179 48 23 174 47 22 166 45 21 156 42 19 144 37 18 148 39 18 148 39 18 154 41 19 159 43 20 165 44 22 174 47 23 188 52 24 191 52 25 190 52 25 185 50 24 176 47 23 174 47 22 162 43 21 152 40 19 144 37 18 142 36 18 143 37 18 149 39 19 158 42 20 172 47 22 181 50 23 188 52 24 187 51 25 188 51 25 187 51 24 176 47 23 167 44 22 158 41 21 152 40 19 146 38 18 148 39 18 144 37 18 150 39 19 158 42 20 168 45 22 175 47 23 187 52 24 189 52 25 190 52 25 187 51 24 176 47 23 168 45 22 158 41 21 153 41 19 151 41 18 144 37 18 151 40 18 154 41 19 158 42 20 166 44 22 177 48 23
153 41 19 161 43 20 171 47 22 175 47 23 180 48 24 188 51 25 191 52 25 184 50 25 180 49 24 174 47 22 159 42 21 151 39 19 146 38 18 143 37 18 147 39 18 151 40 19 156 41 20 169 46 22 176 47 23 186 51 24 186 50 25 187 51 25 190 53 24 181 50 23 175 48 22 163 44 21 152 40 19 144 37 18 142 36 18 145 38 18 150 39 19 158 42 20 170 46 22 180 49 23 185 51 24 188 51 25 193 54 25 185 50 24 179 48 23 174 48 22 162 44 21 157 42 19 149 39 18 148 40 18 150 40 18 149 39 19 159 43 20 165 44 22 180 49 23 182 49 24 189 51 25 189 51 25 190 53 24 183 51 23 173 47 22 158 41 21 155 42 19 147 39 18 141 36 18 150 40 18 154 41 19 161 43 20 169 45 22 176 47 23
153 41 19 161 43 20 167 45 22 181 50 23 184 50 24 186 50 25 190 52 25 188 52 25 183 51 24 173 47 22 165 45 21 157 42 19 146 38 18 144 37 18 143 37 18 154 41 19 159 42 20 169 46 22 180 50 23 182 49 24 191 53 25 191 52 25 188 52 24 181 49 23 169 45 22 165 45 21 154 41 19 144 37 18 144 37 18 143 37 18 148 38 19 160 43 20 169 45 22 178 49 23 185 50 24 188 51 25 187 51 25 188 52 24 177 48 23 170 46 22 161 43 21 157 42 19 149 40 18 141 36 18 143 37 18 150 39 19 161 43 20 170 46 22 181 50 23 186 51 24 187 51 25 192 53 25 190 53 24 182 50 23 170 46 22 163 44 21 151 39 19 149 40 18 146 38 18 148 39 18 149 39 19 159 42 20 167 45 22 178 48 23
150 39 19 158 42 20 171 46 22 180 49 23 186 51 24 190 52 25 194 54 25 188 51 24 183 50 23 174 47 22 164 45 21 155 42 19 151 41 18 141 36 18 145 38 18 150 39 19 159 42 20 170 46 22 180 50 23 188 52 24 186 50 25 188 51 25 183 49 24 176 47 23 167 44 22 158 42 21 154 41 19 150 40 18 144 38 18 143 37 18 156 42 19 157 41 20 171 46 22 179 49 23 184 50 24 189 52 25 186 50 25 188 52 24 177 47 23 174 48 22 164 45 20 156 42 19 150 40 18 145 38 18 147 39 18 150 39 19 160 43 20 168 45 22 175 47 23 187 51 24 192 53 25 190 52 25 189 52 24 179 48 23 169 45 22 160 43 20 154 41 19 145 37 18 144 38 18 144 37 18 149 39 19 163 44 20 172 47 22 180 49 23
149 39 19 163 44 20 173 47 22 182 50 23 186 51 24 190 52 25 190 52 25 187 51 24 181 50 23 171 46 22 157 41 20 152 40 19 149 40 18 147 39 18 143 37 18 150 39 19 162 44 20 173 47 22 179 48 23 184 50 24 193 54 25 189 52 25 185 50 24 179 49 23 170 46 22 160 43 20 155 42 19 151 40 18 142 37 18 150 40 18 155 41 19 162 44 21 170 46 22 181 49 23 184 50 24 191 52 25 186 50 25 187 51 24 175 47 23 169 45 22 158 42 20 153 41 19 148 39 18 145 38 18 149 40 18 154 41 19 165 45 21 171 46 22 183 51 23 187 51 24 193 53 25 189 52 25 188 52 24 178 48 23 165 43 22 163 44 20 153 41 19 148 39 18 146 39 18 146 38 18 157 43 19 163 44 21 173 47 22 179 48 23
155 42 19 164 44 21 172 46 22 181 49 24 187 51 25 189 51 25 191 53 25 182 49 24 179 49 23 169 46 22 156 41 20 154 42 19 149 40 18 147 39 18 147 38 18 153 40 19 164 44 21 176 48 22 178 48 24 186 50 25 187 51 25 191 53 25 186 51 24 173 46 23 164 43 21 157 42 20 153 41 19 143 37 18 141 36 18 149 39 18 154 41 19 164 44 21 170 45 22 177 47 24 184 50 25 189 51 25 189 52 25 180 48 24 174 47 23 165 44 21 155 41 20 147 38 19 142 36 18 145 38 18 151 40 19 156 41 20 166 45 21 175 48 22 181 49 24 187 51 25 186 50 25 189 52 25 186 51 24 172 46 23 169 46 21 157 42 20 150 40 19 145 38 18 149 40 18 147 38 19 155 41 20 165 44 21 170 45 22 183 50 24
154 41 20 162 43 21 171 46 23 185 51 24 185 50 25 191 53 25 186 50 25 182 49 24 171 45 23 163 43 21 159 43 20 146 38 19 146 38 18 145 38 18 153 41 19 158 43 20 166 44 21 171 45 23 180 48 24 189 52 25 190 52 25 184 50 25 183 50 24 172 46 23 167 45 21 156 41 20 146 38 19 149 40 18 145 38 18 152 41 19 156 41 20 167 45 21 171 45 23 181 49 24 192 53 25 186 50 25 188 51 25 183 50 24 176 48 23 162 43 21 154 40 20 150 40 19 145 38 18 143 37 18 151 40 19 154 40 20 167 45 21 172 46 23 180 48 24 191 53 25 188 51 25 189 52 25 183 50 24 177 49 22 161 43 21 156 41 20 151 40 19 143 37 18 148 40 18 146 38 19 156 41 20 170 46 21 179 49 23 181 49 24
161 43 20 167 45 22 180 49 23 185 51 24 192 53 25 193 54 25 191 53 25 178 48 24 174 47 22 163 44 21 152 40 19 151 40 18 141 36 18 143 37 18 149 39 19 159 43 20 171 47 22 176 47 23 182 49 24 187 51 25 188 51 25 187 51 24 178 48 23 172 47 22 163 44 21 153 40 19 147 38 18 149 40 18 144 37 18 155 42 19 159 42 20 167 44 22 177 48 23 181 49 24 192 53 25 187 50 25 188 52 24 177 47 23 174 48 22 163 44 21 156 42 19 151 41 18 143 37 18 150 40 18 150 39 19 156 41 20 166 44 22 176 48 23 181 48 24 191 53 25 192 53 25 188 52 24 178 48 23 175 48 22 160 42 21 155 42 19 151 40 18 146 39 18 150 40 18 154 41 19 158 42 20 172 47 22 175 47 23 188 52 24
161 43 21 172 47 22 181 50 23 186 51 24 191 52 25 191 53 25 185 51 24 179 49 23 169 46 22 158 42 20 150 39 19 148 39 18 146 39 18 144 37 18 150 39 19 160 42 21 169 45 22 177 47 23 186 51 24 188 51 25 187 51 25 183 49 24 179 49 23 168 45 22 159 42 20 150 39 19 150 40 18 146 38 18 146 38 18 154 41 19 163 44 21 169 45 22 184 51 23 190 53 24 186 50 25 186 50 25 181 48 24 177 48 23 169 45 22 155 40 20 152 40 19 149 40 18 144 38 18 149 40 18 153 40 19 163 44 21 172 46 22 179 48 23 184 49 24 186 50 25 186 50 25 183 49 24 179 49 23 166 44 22 158 42 20 149 39 19 150 40 18 144 37 18 147 38 18 152 40 19 161 43 21 169 45 22 183 50 24 185 50 25
162 43 21 173 47 22 181 49 24 188 51 25 193 53 25 186 50 25 187 52 24 174 47 23 163 43 21 159 43 20 146 38 19 149 40 18 145 38 18 147 38 19 156 41 20 163 43 21 172 46 23 179 48 24 191 53 25 189 52 25 191 53 25 186 52 24 176 48 23 169 46 21 153 40 20 148 39 19 144 38 18 143 37 18 152 41 19 152 40 20 165 44 21 171 45 23 181 49 24 186 50 25 189 52 25 192 53 25 185 51 24 175 48 23 167 45 21 159 43 20 146 38 19 148 39 18 144 37 18 147 38 19 153 40 20 169 46 21 176 48 23 185 51 24 191 53 25 191 52 25 192 53 25 181 49 24 170 45 22 165 44 21 156 42 20 147 38 19 149 40 18 148 39 18 149 39 19 160 43 20 170 46 21 173 46 23 182 49 24 191 53 25
170 46 22 178 49 23 185 50 24 189 52 25 188 51 25 185 50 24 177 47 23 170 46 22 164 44 21 154 41 19 150 40 18 146 38 18 148 39 18 148 38 19 159 42 20 168 45 22 179 49 23 187 51 24 192 53 25 190 52 25 183 49 24 179 49 23 173 47 22 158 41 21 152 40 19 149 40 18 145 38 18 146 38 18 151 40 19 163 44 20 169 45 22 175 47 23 189 52 24 187 51 25 186 50 25 188 52 24 181 49 23 167 44 22 159 42 21 154 41 19 143 37 18 144 38 18 146 38 18 154 41 19 162 44 20 172 47 22 179 49 23 189 52 24 191 52 25 191 53 25 188 52 24 177 48 23 168 45 22 161 43 21 150 39 19 147 39 18 147 39 18 147 39 18 156 42 19 161 43 20 168 45 22 182 50 23 186 51 24 187 51 25
170 45 22 184 51 23 186 51 24 190 52 25 192 53 25 183 49 24 175 47 23 169 46 22 158 42 20 153 41 19 146 38 18 147 39 18 150 40 18 153 40 19 160 42 21 175 48 22 176 47 23 189 52 24 188 51 25 189 52 25 183 50 24 179 49 23 170 46 22 158 42 20 154 41 19 149 40 18 145 38 18 147 39 18 157 42 19 162 43 21 173 47 22 182 50 24 190 52 25 188 51 25 188 51 25 188 52 24 180 49 23 168 45 22 159 43 20 149 39 19 149 40 18 145 38 18 151 40 18 154 41 19 162 43 21 169 45 22 179 48 24 190 53 25 191 52 25 186 50 25 182 49 24 174 46 23 168 45 21 162 44 20 151 40 19 142 36 18 142 36 18 147 38 19 155 41 19 164 44 21 175 48 22 183 50 24 189 52 25 191 53 25
172 46 23 184 51 24 190 52 25 193 53 25 188 51 25 181 49 24 177 48 23 168 46 21 160 43 20 149 39 19 146 38 18 145 38 18 148 39 19 154 41 20 166 45 21 173 46 23 185 51 24 192 53 25 186 50 25 187 51 25 185 51 24 171 46 23 165 44 21 158 43 20 149 39 19 145 38 18 147 39 18 149 39 19 153 40 20 170 46 21 175 47 23 187 52 24 188 51 25 190 52 25 190 53 25 183 50 24 171 45 22 167 46 21 155 41 20 152 41 19 146 39 18 144 38 18 150 39 19 161 44 20 165 44 21 174 47 23 184 50 24 189 52 25 190 52 25 190 53 25 183 50 24 175 48 22 161 42 21 154 41 20 149 39 19 144 38 18 148 39 18 152 41 19 156 41 20 163 43 21 178 49 23 181 49 24 186 50 25 188 51 25
175 47 23 184 50 24 191 53 25 188 51 25 187 51 24 180 49 23 170 45 22 163 44 21 153 41 19 147 39 18 143 37 18 148 39 18 154 42 19 158 42 20 171 46 22 180 49 23 186 51 24 189 51 25 191 53 25 189 52 24 181 49 23 173 47 22 163 44 21 155 41 19 144 37 18 145 38 18 144 37 18 154 41 19 163 44 20 170 46 22 179 49 23 186 51 24 190 52 25 186 50 25 183 49 24 179 49 23 168 44 22 163 44 21 149 39 19 151 40 18 142 36 18 147 39 18 155 42 19 161 43 20 170 46 22 178 48 23 184 50 24 187 51 25 192 53 25 190 53 24 177 48 23 173 47 22 159 42 20 150 39 19 148 39 18 143 37 18 144 37 18 153 40 19 160 43 20 172 47 22 176 47 23 182 49 24 192 53 25 186 50 25
182 50 23 187 51 24 187 51 25 189 52 25 185 50 24 178 48 23 171 46 22 160 43 20 149 39 19 147 39 18 146 38 18 148 39 18 152 40 19 158 42 21 172 46 22 180 49 23 187 51 24 189 51 25 193 53 25 183 49 24 175 47 23 171 47 22 162 44 20 153 41 19 145 38 18 149 40 18 145 38 18 156 42 19 161 43 21 175 48 22 176 47 23 185 50 24 191 53 25 193 54 25 183 49 24 180 50 23 167 45 22 160 43 20 149 39 19 149 40 18 147 39 18 148 39 18 153 40 19 165 45 21 171 46 22 181 49 24 185 50 25 190 52 25 193 54 25 186 51 24 173 46 23 171 47 22 155 40 20 152 40 19 148 39 18 149 40 18 149 39 18 156 42 19 166 45 21 172 46 22 177 47 24 191 53 25 191 53 25 185 50 25
185 51 24 191 53 25 192 53 25 188 51 25 186 51 24 177 48 23 168 45 21 158 42 20 152 40 19 149 40 18 149 40 18 149 39 19 153 40 20 165 45 21 173 47 22 183 50 24 187 51 25 191 52 25 186 50 25 186 51 24 174 47 23 170 46 21 155 41 20 147 38 19 147 39 18 147 39 18 151 40 19 153 40 20 166 45 21 175 48 22 179 48 24 190 53 25 192 53 25 186 50 25 181 49 24 174 47 23 164 44 21 159 43 20 150 40 19 145 38 18 149 40 18 152 41 19 157 42 20 162 43 21 171 46 23 185 51 24 190 52 25 191 52 25 187 51 25 184 51 24 178 49 23 166 44 21 157 42 20 153 41 19 145 38 18 148 40 18 153 41 19 160 43 20 165 44 21 175 48 23 184 50 24 186 50 25 187 50 25 185 50 25
186 51 24 186 50 25 187 51 25 186 50 25 182 50 24 176 48 23 168 46 21 154 40 20 149 39 19 145 38 18 143 37 18 150 40 19 157 42 20 169 46 21 178 49 23 184 50 24 189 52 25 189 51 25 188 51 25 180 49 24 174 47 22 165 44 21 153 40 20 152 41 19 147 39 18 146 38 18 150 40 19 156 41 20 168 45 21 176 48 23 182 49 24 187 51 25 192 53 25 191 53 25 180 48 24 176 48 22 161 42 21 158 43 20 146 38 19 148 40 18 150 40 18 153 41 19 155 41 20 169 46 21 179 49 23 184 50 24 187 51 25 187 51 25 189 52 25 185 51 24 177 49 22 160 42 21 156 41 20 148 39 19 148 39 18 144 37 18 154 42 19 161 43 20 164 43 21 179 49 23 187 52 24 189 52 25 191 52 25 190 52 25
186 51 24 186 50 25 194 54 25 191 53 25 181 49 24 174 47 22 166 45 21 155 41 20 147 38 19 144 38 18 145 38 18 154 42 19 156 41 20 166 44 21 172 46 23 187 52 24 192 53 25 194 54 25 187 51 25 181 49 24 175 48 22 162 43 21 151 39 19 145 37 18 146 38 18 143 37 18 150 39 19 161 43 20 164 43 21 177 48 23 184 50 24 191 52 25 193 54 25 189 52 25 184 51 24 168 45 22 163 43 21 156 42 19 150 40 18 147 39 18 143 37 18 149 39 19 157 41 20 170 46 22 177 48 23 181 49 24 189 51 25 189 52 25 185 50 24 178 48 23 169 45 22 165 45 21 155 41 19 151 40 18 146 39 18 150 40 18 151 40 19 157 41 20 169 45 22 181 50 23 188 52 24 185 50 25 193 53 25 189 52 24
183 50 24 185 50 25 188 51 25 188 52 25 181 49 24 170 45 22 165 44 21 155 41 19 148 39 18 141 36 18 148 39 18 155 42 19 155 41 20 168 45 22 181 50 23 181 49 24 186 50 25 191 52 25 190 53 25 178 48 24 170 45 22 159 42 21 154 41 19 144 37 18 148 39 18 146 38 18 153 41 19 157 41 20 168 45 22 177 48 23 186 51 24 187 51 25 191 53 25 190 53 24 181 49 23 168 44 22 160 42 21 156 42 19 146 38 18 147 39 18 144 37 18 148 38 19 161 43 20 170 46 22 175 47 23 181 48 24 186 50 25 187 50 25 189 52 24 177 47 23 172 47 22 158 41 21 157 43 19 148 39 18 141 36 18 144 37 18 151 40 19 159 42 20 166 44 22 182 50 23 187 52 24 187 51 25 190 52 25 186 51 24
181 48 24 188 51 25 187 51 25 191 53 25 184 51 24 176 48 22 163 44 21 157 42 19 145 37 18 148 40 18 146 38 18 149 39 19 162 44 20 168 45 22 180 50 23 187 52 24 191 53 25 192 53 25 189 52 24 181 49 23 172 46 22 159 42 21 151 39 19 146 38 18 145 38 18 147 39 18 153 41 19 162 44 20 168 45 22 174 46 23 182 49 24 190 52 25 191 52 25 189 52 24 183 50 23 168 45 22 165 45 21 157 42 19 148 39 18 141 36 18 146 38 18 150 39 19 159 42 20 170 46 22 178 49 23 185 50 24 190 52 25 190 52 25 188 52 24 179 49 23 172 47 22 165 45 21 157 42 19 148 39 18 148 39 18 146 38 18 153 41 19 157 41 20 173 47 22 182 50 23 184 50 24 189 52 25 193 54 25 184 50 24
187 52 24 189 52 25 187 51 25 188 52 25 182 50 24 171 46 22 166 45 21 154 41 19 150 40 18 143 37 18 146 38 18 148 38 19 161 43 20 164 43 21 175 47 23 183 50 24 186 50 25 188 51 25 190 52 25 183 50 24 169 45 22 163 44 21 154 41 19 149 40 18 143 37 18 144 37 18 149 39 19 159 42 20 164 43 22 174 46 23 185 51 24 191 53 25 186 50 25 188 52 25 178 48 24 168 44 22 165 45 21 152 40 19 149 39 18 149 40 18 143 37 18 153 41 19 155 40 20 168 45 22 175 47 23 183 49 24 191 53 25 193 54 25 185 50 24 179 48 23 169 45 22 164 44 21 154 41 19 146 38 18 145 38 18 148 39 18 155 42 19 161 43 20 171 47 22 180 49 23 185 50 24 191 53 25 188 51 25 186 51 24
186 51 24 187 51 25 190 52 25 190 52 25 182 50 24 170 45 22 162 43 21 159 43 20 148 39 19 149 40 18 147 39 18 150 40 19 160 43 20 168 45 21 175 47 23 180 49 24 185 50 25 193 53 25 187 51 25 180 49 24 174 47 22 163 43 21 159 43 20 148 39 19 148 39 18 144 37 18 150 40 19 158 42 20 164 43 21 175 47 23 180 48 24 191 53 25 190 52 25 190 52 25 180 49 24 176 48 22 163 43 21 155 41 20 149 40 19 142 36 18 145 38 18 147 38 19 160 43 20 164 44 21 176 48 23 186 51 24 187 51 25 187 50 25 187 51 25 182 50 24 172 46 22 161 42 21 153 40 19 146 38 18 148 39 18 149 40 18 152 40 19 156 41 20 169 46 21 177 48 23 186 51 24 193 54 25 187 50 25 184 49 25
181 49 24 191 53 25 190 52 25 191 53 25 180 48 24 175 47 23 163 43 21 159 43 20 150 39 19 143 37 18 141 36 18 151 40 19 152 39 20 163 43 21 176 48 22 185 51 24 186 50 25 193 54 25 188 51 25 180 48 24 176 48 23 165 44 21 156 41 20 150 40 19 148 40 18 142 37 18 148 39 19 157 42 20 168 46 21 172 46 23 179 48 24 189 52 25 186 50 25 185 50 25 184 50 24 172 46 23 164 44 21 159 43 20 149 39 19 147 39 18 148 39 18 146 38 19 158 42 20 166 45 21 171 45 23 181 49 24 186 50 25 193 54 25 189 52 25 180 48 24 173 46 23 165 44 21 152 40 20 146 38 19 144 38 18 150 40 18 146 38 19 159 43 20 162 43 21 177 48 23 185 51 24 192 53 25 194 54 25 187 51 25
177 47 23 186 50 24 187 50 25 192 53 25 188 52 24 179 49 23 168 45 22 162 44 20 150 39 19 147 39 18 141 36 18 150 40 18 158 43 19 166 45 21 169 45 22 178 48 24 186 51 25 193 54 25 189 52 25 186 51 24 174 46 23 166 44 22 162 44 20 149 39 19 148 39 18 145 38 18 152 41 18 156 42 19 162 43 21 171 46 22 180 49 24 188 52 25 187 50 25 191 53 25 183 50 24 178 48 23 167 45 21 157 41 20 153 41 19 147 39 18 146 38 18 148 39 18 151 39 19 161 43 21 169 45 22 179 48 24 185 50 25 191 53 25 185 50 25 182 49 24 175 47 23 166 44 21 156 41 20 147 38 19 147 39 18 142 37 18 148 39 19 151 39 20 162 43 21 172 46 22 182 50 24 190 53 25 186 50 25 189 52 25
180 50 23 181 48 24 189 51 25 191 52 25 187 51 24 178 48 23 172 47 22 165 45 21 156 42 19 150 40 18 141 36 18 145 38 18 155 42 19 162 44 20 171 46 22 181 50 23 183 49 24 189 52 25 192 53 25 182 49 24 176 47 23 173 47 22 163 44 20 150 39 19 149 40 18 148 40 18 149 40 18 149 39 19 162 44 20 169 45 22 177 48 23 182 49 24 186 50 25 190 52 25 188 52 24 179 49 23 172 47 22 158 41 20 150 39 19 147 38 18 147 39 18 144 37 18 150 39 19 160 42 20 166 44 22 179 49 23 187 51 24 188 51 25 189 52 25 185 50 24 177 48 23 166 44 22 158 41 20 156 42 19 143 37 18 142 36 18 150 40 18 157 42 19 160 43 20 172 47 22 183 51 23 189 52 24 191 52 25 188 51 25
179 49 23 181 49 24 189 52 25 192 53 25 186 51 25 182 49 24 171 46 22 167 46 21 159 43 20 145 37 19 143 37 18 144 37 18 150 40 19 160 43 20 164 44 21 178 49 23 181 49 24 185 50 25 190 52 25 188 51 25 180 49 24 177 49 22 165 44 21 154 41 20 146 38 19 146 39 18 150 40 18 149 39 19 154 40 20 167 45 21 178 49 23 185 51 24 189 52 25 188 51 25 184 49 25 182 50 24 173 47 22 163 44 21 158 43 20 145 38 19 147 39 18 150 40 18 147 38 19 158 42 20 166 44 21 179 49 23 187 52 24 185 50 25 190 52 25 188 51 25 178 48 24 173 47 22 163 43 21 151 39 19 147 38 18 142 36 18 146 38 18 149 39 19 160 43 20 170 46 21 173 46 23 188 52 24 189 52 25 193 54 25
170 45 22 177 47 24 184 50 25 192 53 25 192 53 25 184 50 24 177 48 23 168 45 21 162 44 20 153 41 19 144 37 18 146 39 18 150 40 18 158 43 19 161 42 21 170 45 22 184 51 24 184 50 25 189 51 25 191 53 25 180 48 24 177 48 23 167 45 21 160 43 20 147 38 19 142 37 18 146 38 18 152 41 19 151 39 20 163 43 21 169 45 22 178 48 24 184 49 25 192 53 25 192 53 25 187 51 24 174 47 23 166 44 21 160 43 20 154 41 19 143 37 18 148 39 18 148 39 19 153 40 20 160 42 21 170 45 22 179 48 24 190 52 25 192 53 25 186 50 25 180 48 24 177 48 23 169 46 21 155 41 20 146 38 19 148 39 18 145 38 18 147 38 19 156 41 20 162 43 21 176 48 22 184 51 24 186 51 25 192 53 25
166 44 22 177 48 23 181 49 24 186 50 25 192 53 25 183 49 24 183 51 23 167 44 22 158 41 21 155 41 19 150 40 18 142 37 18 146 38 18 151 40 19 158 41 20 169 45 22 177 48 23 182 49 24 189 52 25 189 51 25 186 51 24 180 49 23 167 44 22 159 42 21 155 42 19 147 38 18 145 38 18 150 40 18 156 42 19 162 44 20 173 47 22 181 49 23 187 51 24 192 53 25 190 52 25 185 50 24 177 48 23 167 44 22 163 44 20 150 39 19 149 40 18 144 38 18 147 39 18 154 41 19 160 43 20 168 45 22 175 47 23 187 51 24 189 51 25 193 53 25 183 49 24 177 48 23 170 46 22 159 42 20 155 42 19 148 39 18 148 39 18 149 39 18 153 41 19 161 43 20 166 44 22 179 48 23 183 49 24 186 50 25
164 44 21 173 46 23 181 49 24 191 53 25 193 54 25 187 51 25 184 50 24 175 47 23 167 45 21 154 40 20 151 40 19 149 40 18 146 39 18 149 39 19 160 44 20 164 44 21 173 46 23 187 52 24 188 51 25 188 51 25 191 53 25 180 48 24 172 46 22 165 44 21 159 43 20 147 38 19 148 40 18 146 38 18 153 41 19 158 42 20 165 44 21 173 46 23 180 48 24 187 51 25 193 53 25 187 51 25 178 48 24 177 49 22 166 45 21 152 40 20 151 40 19 147 39 18 149 40 18 152 41 19 160 43 20 165 44 21 177 48 23 186 51 24 189 52 25 193 54 25 188 51 25 180 48 24 176 48 22 166 45 21 155 41 20 145 37 19 148 40 18 144 37 18 148 39 19 156 41 20 163 43 21 178 49 23 183 49 24 189 52 25
163 44 21 174 48 22 178 48 23 186 50 24 193 54 25 193 54 25 182 49 24 179 49 23 171 47 22 161 43 20 152 40 19 145 38 18 144 37 18 144 37 18 152 40 19 166 45 21 169 45 22 178 48 24 184 50 25 187 51 25 192 53 25 184 50 24 173 46 23 170 46 22 159 43 20 149 39 19 142 37 18 146 38 18 150 40 18 154 41 19 166 45 21 170 45 22 178 48 24 184 50 25 191 53 25 186 50 25 186 51 24 173 46 23 171 47 21 157 41 20 152 41 19 143 37 18 148 40 18 145 37 18 156 41 19 160 42 21 176 48 22 185 51 24 190 52 25 194 54 25 189 52 25 186 51 24 180 50 23 166 44 21 156 41 20 153 41 19 150 40 18 142 36 18 145 37 19 153 40 20 160 42 21 177 49 22 185 51 24 184 49 25
163 44 20 165 44 22 177 48 23 188 52 24 191 53 25 191 53 25 185 50 24 182 50 23 171 46 22 163 44 21 157 43 19 147 39 18 145 38 18 143 37 18 148 38 19 158 42 20 171 47 22 176 47 23 186 51 24 185 50 25 194 54 25 188 52 24 177 48 23 170 46 22 160 43 21 155 41 19 145 38 18 149 40 18 147 39 18 149 39 19 158 42 20 172 47 22 181 50 23 181 49 24 190 52 25 188 51 25 184 50 24 180 49 23 173 47 22 165 45 21 152 40 19 149 39 18 148 40 18 145 38 18 153 41 19 160 43 20 166 44 22 178 48 23 184 50 24 193 54 25 193 54 25 184 50 24 178 48 23 169 46 22 161 43 20 154 41 19 148 39 18 146 39 18 145 38 18 154 41 19 160 43 20 171 46 22 180 49 23 183 50 24
160 43 20 166 45 21 173 46 23 179 48 24 186 50 25 193 53 25 187 51 25 184 50 24 170 45 23 168 46 21 157 42 20 145 37 19 148 39 18 147 39 18 153 41 19 159 43 20 167 45 21 176 48 23 180 48 24 185 50 25 188 51 25 190 53 25 183 50 24 173 47 22 167 45 21 159 43 20 148 39 19 149 40 18 144 37 18 152 41 19 157 42 20 170 47 21 177 48 23 180 48 24 191 53 25 186 50 25 191 53 25 183 50 24 174 47 22 163 43 21 156 42 20 152 41 19 149 40 18 143 37 18 148 39 19 158 42 20 167 45 21 175 47 23 183 50 24 191 53 25 188 51 25 186 51 25 184 51 24 174 47 22 165 44 21 156 41 20 148 39 19 149 40 18 148 39 18 146 38 19 161 43 20 164 43 21 179 49 23 187 52 24
158 43 19 161 43 21 175 48 22 178 48 24 184 50 25 189 52 25 188 51 25 184 50 24 179 49 23 166 44 21 159 43 20 147 38 19 145 38 18 146 38 18 151 40 19 151 39 20 161 43 21 169 45 22 179 48 24 190 53 25 190 52 25 189 52 25 187 51 24 175 47 23 170 47 21 159 43 20 154 41 19 145 38 18 142 36 18 152 41 19 155 41 20 162 43 21 175 48 22 184 51 24 184 50 25 194 54 25 189 52 25 186 51 24 175 47 23 167 45 21 154 40 20 146 38 19 145 38 18 146 39 18 146 38 19 159 43 20 165 44 21 175 47 22 179 48 24 187 51 25 193 54 25 188 51 25 184 50 24 174 47 23 167 45 21 156 41 20 148 39 19 147 39 18 146 39 18 149 39 19 157 42 20 165 44 21 170 45 22 182 49 24
155 41 19 158 42 20 167 44 22 176 47 23 187 51 24 193 54 25 189 51 25 184 50 24 180 49 23 172 47 22 158 42 20 154 41 19 150 40 18 143 37 18 150 40 18 153 41 19 164 44 21 172 46 22 178 48 23 185 50 24 191 53 25 193 54 25 188 52 24 178 48 23 168 45 22 163 44 20 153 41 19 148 39 18 148 39 18 144 37 18 150 39 19 159 42 21 175 48 22 178 48 23 189 52 24 189 52 25 186 50 25 186 51 24 178 49 23 169 45 22 160 43 20 150 39 19 150 40 18 147 39 18 151 41 18 157 42 19 163 44 21 167 44 22 184 51 23 189 52 24 187 51 25 190 52 25 187 52 24 180 50 23 171 47 22 161 44 20 155 42 19 144 37 18 142 37 18 149 39 18 151 39 19 162 43 21 172 47 22 183 50 24
149 39 19 161 43 20 166 44 22 179 49 23 184 50 24 189 52 25 190 52 25 183 49 24 182 50 23 171 46 22 161 43 21 153 40 19 145 38 18 143 37 18 150 40 18 153 41 19 156 41 20 168 45 22 181 50 23 184 50 24 193 53 25 189 51 25 184 50 24 178 48 23 167 44 22 157 41 20 149 39 19 151 41 18 148 40 18 146 38 18 156 42 19 157 41 20 166 44 22 181 50 23 187 52 24 193 53 25 189 51 25 185 50 24 175 47 23 170 46 22 158 42 20 150 39 19 143 37 18 148 40 18 147 39 18 153 41 19 161 43 20 174 48 22 177 48 23 189 52 24 192 53 25 187 51 25 182 49 24 177 48 23 167 44 22 159 42 20 154 41 19 145 38 18 143 37 18 149 40 18 154 41 19 162 44 20 172 47 22 183 51 23
155 42 19 161 43 20 170 46 22 180 49 23 185 50 24 189 52 25 191 53 25 185 50 24 180 49 23 172 47 22 166 45 21 157 42 19 150 40 18 147 39 18 150 40 18 152 40 19 158 42 20 172 47 22 176 47 23 185 51 24 191 52 25 191 52 25 186 51 24 183 50 23 169 45 22 165 45 21 154 41 19 148 39 18 147 39 18 148 39 18 154 41 19 156 41 20 171 47 22 176 47 23 186 51 24 185 50 25 187 50 25 184 50 24 176 47 23 174 48 22 158 41 21 150 39 19 147 38 18 144 37 18 150 40 18 152 40 19 158 42 20 171 47 22 175 47 23 184 50 24 190 52 25 189 52 25 189 52 24 176 47 23 168 44 22 158 42 21 157 42 19 146 38 18 148 39 18 150 40 18 152 40 19 160 43 20 173 47 22 175 47 23
148 38 19 157 41 20 165 44 22 178 49 23 182 49 24 186 50 25 188 51 25 188 52 25 181 49 24 171 46 22 162 43 21 158 43 19 145 38 18 142 36 18 146 38 18 154 41 19 157 41 20 168 45 22 177 48 23 183 50 24 191 53 25 191 53 25 189 52 24 180 49 23 174 47 22 165 45 21 153 40 19 147 39 18 146 39 18 148 39 18 152 40 19 156 41 20 171 47 22 178 48 23 182 49 24 192 53 25 186 50 25 187 51 24 180 49 23 173 47 22 161 43 21 151 40 19 147 39 18 142 36 18 150 40 18 150 39 19 161 43 20 171 46 22 178 48 23 183 49 24 189 51 25 189 52 25 184 50 24 180 49 23 167 44 22 162 43 21 153 40 19 149 39 18 144 38 18 145 38 18 155 42 19 159 42 20 169 46 22 176 47 23
148 39 19 160 43 20 170 46 22 181 50 23 188 52 24 186 50 25 188 51 25 187 51 25 184 51 24 168 44 22 160 42 21 154 41 19 147 38 18 142 37 18 143 37 18 155 42 19 160 43 20 170 46 22 175 47 23 184 50 24 187 51 25 188 51 25 189 52 24 182 50 23 174 47 22 166 45 21 150 39 19 147 38 18 145 38 18 146 38 18 148 38 19 161 43 20 165 44 22 179 49 23 187 52 24 193 53 25 192 53 25 188 52 24 177 47 23 169 45 22 164 44 21 154 41 19 151 40 18 143 37 18 147 38 18 152 40 19 162 44 20 169 45 22 180 49 23 186 51 24 185 50 25 191 52 25 182 49 24 180 49 23 171 46 22 157 41 21 155 42 19 144 37 18 143 37 18 147 39 18 151 40 19 159 42 20 170 46 22 175 47 23
150 39 19 162 44 20 169 46 22 178 48 23 187 51 24 188 51 25 187 50 25 184 49 24 178 48 23 172 47 22 160 42 21 152 40 19 145 37 18 148 39 18 149 40 18 156 42 19 157 41 20 170 46 22 182 50 23 183 50 24 186 50 25 193 53 25 184 50 24 177 48 23 167 44 22 158 41 21 156 42 19 149 40 18 144 38 18 148 39 18 155 42 19 162 43 20 172 47 22 181 50 23 183 49 24 193 53 25 193 53 25 184 50 24 182 50 23 173 47 22 161 43 20 156 42 19 148 39 18 148 39 18 145 37 18 155 41 19 159 42 20 171 47 22 178 48 23 187 51 24 191 52 25 190 52 25 187 51 24 179 48 23 170 46 22 163 44 20 151 40 19 148 39 18 147 39 18 144 37 18 153 40 19 160 42 20 167 44 22 177 48 23
