P3
# VIMS blue resin texture
32 32
255
14 53 200 14 55 206 14 53 201 14 56 207 14 54 202 14 56 208 14 54 203 14 57 209 14 55 204 14 57 210 14 55 205 14 53 200 14 55 206 14 53 201 14 56 207 14 54 202 14 56 208 14 54 203 14 57 209 14 55 204 14 57 210 14 55 205 14 53 200 14 55 206 14 53 201 14 56 207 14 54 202 14 56 208 14 54 203 14 57 209 14 55 204 14 57 210
14 56 207 14 54 202 14 56 208 14 54 203 14 57 209 14 55 204 14 57 210 14 55 205 14 53 200 14 55 206 14 53 201 14 56 207 14 54 202 14 56 208 14 54 203 14 57 209 14 55 204 14 57 210 14 55 205 14 53 200 14 55 206 14 53 201 14 56 207 14 54 202 14 56 208 14 54 203 14 57 209 14 55 204 14 57 210 14 55 205 14 53 200 14 55 206
14 54 203 14 57 209 14 55 204 14 57 210 14 55 205 14 53 200 14 55 206 14 53 201 14 56 207 14 54 202 14 56 208 14 54 203 14 57 209 14 55 204 14 57 210 14 55 205 14 53 200 14 55 206 14 53 201 14 56 207 14 54 202 14 56 208 14 54 203 14 57 209 14 55 204 14 57 210 14 55 205 14 53 200 14 55 206 14 53 201 14 56 207 14 54 202
14 57 210 14 55 205 14 53 200 14 55 206 14 53 201 14 56 207 14 54 202 14 56 208 14 54 203 14 57 209 14 55 204 14 57 210 14 55 205 14 53 200 14 55 206 14 53 201 14 56 207 14 54 202 14 56 208 14 54 203 14 57 209 14 55 204 14 57 210 14 55 205 14 53 200 14 55 206 14 53 201 14 56 207 14 54 202 14 56 208 14 54 203 14 57 209
14 55 206 14 53 201 14 56 207 14 54 202 14 56 208 14 54 203 14 57 209 14 55 204 14 57 210 14 55 205 14 53 200 14 55 206 14 53 201 14 56 207 14 54 202 14 56 208 14 54 203 14 57 209 14 55 204 14 57 210 14 55 205 14 53 200 14 55 206 14 53 201 14 56 207 14 54 202 14 56 208 14 54 203 14 57 209 14 55 204 14 57 210 14 55 205
14 54 202 14 56 208 14 54 203 14 57 209 14 55 204 14 57 210 14 55 205 14 53 200 14 55 206 14 53 201 14 56 207 14 54 202 14 56 208 14 54 203 14 57 209 14 55 204 14 57 210 14 55 205 14 53 200 14 55 206 14 53 201 14 56 207 14 54 202 14 56 208 14 54 203 14 57 209 14 55 204 14 57 210 14 55 205 14 53 200 14 55 206 14 53 201
14 57 209 14 55 204 14 57 210 14 55 205 14 53 200 14 55 206 14 53 201 14 56 207 14 54 202 14 56 208 14 54 203 14 57 209 14 55 204 14 57 210 14 55 205 14 53 200 14 55 206 14 53 201 14 56 207 14 54 202 14 56 208 14 54 203 14 57 209 14 55 204 14 57 210 14 55 205 14 53 200 14 55 206 14 53 201 14 56 207 14 54 202 14 56 208
14 55 205 14 53 200 14 55 206 14 53 201 14 56 207 14 54 202 14 56 208 14 54 203 14 57 209 14 55 204 14 57 210 14 55 205 14 53 200 14 55 206 14 53 201 14 56 207 14 54 202 14 56 208 14 54 203 14 57 209 14 55 204 14 57 210 14 55 205 14 53 200 14 55 206 14 53 201 14 56 207 14 54 202 14 56 208 14 54 203 14 57 209 14 55 204
14 53 201 14 56 207 14 54 202 14 56 208 14 54 203 14 57 209 14 55 204 14 57 210 14 55 205 14 53 200 14 55 206 14 53 201 14 56 207 14 54 202 14 56 208 14 54 203 14 57 209 14 55 204 14 57 210 14 55 205 14 53 200 14 55 206 14 53 201 14 56 207 14 54 202 14 56 208 14 54 203 14 57 209 14 55 204 14 57 210 14 55 205 14 53 200
14 56 208 14 54 203 14 57 209 14 55 204 14 57 210 14 55 205 14 53 200 14 55 206 14 53 201 14 56 207 14 54 202 14 56 208 14 54 203 14 57 209 14 55 204 14 57 210 14 55 205 14 53 200 14 55 206 14 53 201 14 56 207 14 54 202 14 56 208 14 54 203 14 57 209 14 55 204 14 57 210 14 55 205 14 53 200 14 55 206 14 53 201 14 56 207
14 55 204 14 57 210 14 55 205 14 53 200 14 55 206 14 53 201 14 56 207 14 54 202 14 56 208 14 54 203 14 57 209 14 55 204 14 57 210 14 55 205 14 53 200 14 55 206 14 53 201 14 56 207 14 54 202 14 56 208 14 54 203 14 57 209 14 55 204 14 57 210 14 55 205 14 53 200 14 55 206 14 53 201 14 56 207 14 54 202 14 56 208 14 54 203
14 53 200 14 55 206 14 53 201 14 56 207 14 54 202 14 56 208 14 54 203 14 57 209 14 55 204 14 57 210 14 55 205 14 53 200 14 55 206 14 53 201 14 56 207 14 54 202 14 56 208 14 54 203 14 57 209 14 55 204 14 57 210 14 55 205 14 53 200 14 55 206 14 53 201 14 56 207 14 54 202 14 56 208 14 54 203 14 57 209 14 55 204 14 57 210
14 56 207 14 54 202 14 56 208 14 54 203 14 57 209 14 55 204 14 57 210 14 55 205 14 53 200 14 55 206 14 53 201 14 56 207 14 54 202 14 56 208 14 54 203 14 57 209 14 55 204 14 57 210 14 55 205 14 53 200 14 55 206 14 53 201 14 56 207 14 54 202 14 56 208 14 54 203 14 57 209 14 55 204 14 57 210 14 55 205 14 53 200 14 55 206
14 54 203 14 57 209 14 55 204 14 57 210 14 55 205 14 53 200 14 55 206 14 53 201 14 56 207 14 54 202 14 56 208 14 54 203 14 57 209 14 55 204 14 57 210 14 55 205 14 53 200 14 55 206 14 53 201 14 56 207 14 54 202 14 56 208 14 54 203 14 57 209 14 55 204 14 57 210 14 55 205 14 53 200 14 55 206 14 53 201 14 56 207 14 54 202
14 57 210 14 55 205 14 53 200 14 55 206 14 53 201 14 56 207 14 54 202 14 56 208 14 54 203 14 57 209 14 55 204 14 57 210 14 55 205 14 53 200 14 55 206 14 53 201 14 56 207 14 54 202 14 56 208 14 54 203 14 57 209 14 55 204 14 57 210 14 55 205 14 53 200 14 55 206 14 53 201 14 56 207 14 54 202 14 56 208 14 54 203 14 57 209
14 55 206 14 53 201 14 56 207 14 54 202 14 56 208 14 54 203 14 57 209 14 55 204 14 57 210 14 55 205 14 53 200 14 55 206 14 53 201 14 56 207 14 54 202 14 56 208 14 54 203 14 57 209 14 55 204 14 57 210 14 55 205 14 53 200 14 55 206 14 53 201 14 56 207 14 54 202 14 56 208 14 54 203 14 57 209 14 55 204 14 57 210 14 55 205
14 54 202 14 56 208 14 54 203 14 57 209 14 55 204 14 57 210 14 55 205 14 53 200 14 55 206 14 53 201 14 56 207 14 54 202 14 56 208 14 54 203 14 57 209 14 55 204 14 57 210 14 55 205 14 53 200 14 55 206 14 53 201 14 56 207 14 54 202 14 56 208 14 54 203 14 57 209 14 55 204 14 57 210 14 55 205 14 53 200 14 55 206 14 53 201
14 57 209 14 55 204 14 57 210 14 55 205 14 53 200 14 55 206 14 53 201 14 56 207 14 54 202 14 56 208 14 54 203 14 57 209 14 55 204 14 57 210 14 55 205 14 53 200 14 55 206 14 53 201 14 56 207 14 54 202 14 56 208 14 54 203 14 57 209 14 55 204 14 57 210 14 55 205 14 53 200 14 55 206 14 53 201 14 56 207 14 54 202 14 56 208
14 55 205 14 53 200 14 55 206 14 53 201 14 56 207 14 54 202 14 56 208 14 54 203 14 57 209 14 55 204 14 57 210 14 55 205 14 53 200 14 55 206 14 53 201 14 56 207 14 54 202 14 56 208 14 54 203 14 57 209 14 55 204 14 57 210 14 55 205 14 53 200 14 55 206 14 53 201 14 56 207 14 54 202 14 56 208 14 54 203 14 57 209 14 55 204
14 53 201 14 56 207 14 54 202 14 56 208 14 54 203 14 57 209 14 55 204 14 57 210 14 55 205 14 53 200 14 55 206 14 53 201 14 56 207 14 54 202 14 56 208 14 54 203 14 57 209 14 55 204 14 57 210 14 55 205 14 53 200 14 55 206 14 53 201 14 56 207 14 54 202 14 56 208 14 54 203 14 57 209 14 55 204 14 57 210 14 55 205 14 53 200
14 56 208 14 54 203 14 57 209 14 55 204 14 57 210 14 55 205 14 53 200 14 55 206 14 53 201 14 56 207 14 54 202 14 56 208 14 54 203 14 57 209 14 55 204 14 57 210 14 55 205 14 53 200 14 55 206 14 53 201 14 56 207 14 54 202 14 56 208 14 54 203 14 57 209 14 55 204 14 57 210 14 55 205 14 53 200 14 55 206 14 53 201 14 56 207
14 55 204 14 57 210 14 55 205 14 53 200 14 55 206 14 53 201 14 56 207 14 54 202 14 56 208 14 54 203 14 57 209 14 55 204 14 57 210 14 55 205 14 53 200 14 55 206 14 53 201 14 56 207 14 54 202 14 56 208 14 54 203 14 57 209 14 55 204 14 57 210 14 55 205 14 53 200 14 55 206 14 53 201 14 56 207 14 54 202 14 56 208 14 54 203
14 53 200 14 55 206 14 53 201 14 56 207 14 54 202 14 56 208 14 54 203 14 57 209 14 55 204 14 57 210 14 55 205 14 53 200 14 55 206 14 53 201 14 56 207 14 54 202 14 56 208 14 54 203 14 57 209 14 55 204 14 57 210 14 55 205 14 53 200 14 55 206 14 53 201 14 56 207 14 54 202 14 56 208 14 54 203 14 57 209 14 55 204 14 57 210
14 56 207 14 54 202 14 56 208 14 54 203 14 57 209 14 55 204 14 57 210 14 55 205 14 53 200 14 55 206 14 53 201 14 56 207 14 54 202 14 56 208 14 54 203 14 57 209 14 55 204 14 57 210 14 55 205 14 53 200 14 55 206 14 53 201 14 56 207 14 54 202 14 56 208 14 54 203 14 57 209 14 55 204 14 57 210 14 55 205 14 53 200 14 55 206
14 54 203 14 57 209 14 55 204 14 57 210 14 55 205 14 53 200 14 55 206 14 53 201 14 56 207 14 54 202 14 56 208 14 54 203 14 57 209 14 55 204 14 57 210 14 55 205 14 53 200 14 55 206 14 53 201 14 56 207 14 54 202 14 56 208 14 54 203 14 57 209 14 55 204 14 57 210 14 55 205 14 53 200 14 55 206 14 53 201 14 56 207 14 54 202
14 57 210 14 55 205 14 53 200 14 55 206 14 53 201 14 56 207 14 54 202 14 56 208 14 54 203 14 57 209 14 55 204 14 57 210 14 55 205 14 53 200 14 55 206 14 53 201 14 56 207 14 54 202 14 56 208 14 54 203 14 57 209 14 55 204 14 57 210 14 55 205 14 53 200 14 55 206 14 53 201 14 56 207 14 54 202 14 56 208 14 54 203 14 57 209
14 55 206 14 53 201 14 56 207 14 54 202 14 56 208 14 54 203 14 57 209 14 55 204 14 57 210 14 55 205 14 53 200 14 55 206 14 53 201 14 56 207 14 54 202 14 56 208 14 54 203 14 57 209 14 55 204 14 57 210 14 55 205 14 53 200 14 55 206 14 53 201 14 56 207 14 54 202 14 56 208 14 54 203 14 57 209 14 55 204 14 57 210 14 55 205
14 54 202 14 56 208 14 54 203 14 57 209 14 55 204 14 57 210 14 55 205 14 53 200 14 55 206 14 53 201 14 56 207 14 54 202 14 56 208 14 54 203 14 57 209 14 55 204 14 57 210 14 55 205 14 53 200 14 55 206 14 53 201 14 56 207 14 54 202 14 56 208 14 54 203 14 57 209 14 55 204 14 57 210 14 55 205 14 53 200 14 55 206 14 53 201
14 57 209 14 55 204 14 57 210 14 55 205 14 53 200 14 55 206 14 53 201 14 56 207 14 54 202 14 56 208 14 54 203 14 57 209 14 55 204 14 57 210 14 55 205 14 53 200 14 55 206 14 53 201 14 56 207 14 54 202 14 56 208 14 54 203 14 57 209 14 55 204 14 57 210 14 55 205 14 53 200 14 55 206 14 53 201 14 56 207 14 54 202 14 56 208
14 55 205 14 53 200 14 55 206 14 53 201 14 56 207 14 54 202 14 56 208 14 54 203 14 57 209 14 55 204 14 57 210 14 55 205 14 53 200 14 55 206 14 53 201 14 56 207 14 54 202 14 56 208 14 54 203 14 57 209 14 55 204 14 57 210 14 55 205 14 53 200 14 55 206 14 53 201 14 56 207 14 54 202 14 56 208 14 54 203 14 57 209 14 55 204
14 53 201 14 56 207 14 54 202 14 56 208 14 54 203 14 57 209 14 55 204 14 57 210 14 55 205 14 53 200 14 55 206 14 53 201 14 56 207 14 54 202 14 56 208 14 54 203 14 57 209 14 55 204 14 57 210 14 55 205 14 53 200 14 55 206 14 53 201 14 56 207 14 54 202 14 56 208 14 54 203 14 57 209 14 55 204 14 57 210 14 55 205 14 53 200
14 56 208 14 54 203 14 57 209 14 55 204 14 57 210 14 55 205 14 53 200 14 55 206 14 53 201 14 56 207 14 54 202 14 56 208 14 54 203 14 57 209 14 55 204 14 57 210 14 55 205 14 53 200 14 55 206 14 53 201 14 56 207 14 54 202 14 56 208 14 54 203 14 57 209 14 55 204 14 57 210 14 55 205 14 53 200 14 55 206 14 53 201 14 56 207
