P3
# VIMS silver spindle metal texture
32 32
255
170 170 173 172 172 175 169 169 172 166 166 169 163 163 166 160 160 163 174 174 177 171 171 174 168 168 171 165 165 168 162 162 165 159 159 162 173 173 176 170 170 173 167 167 170 164 164 167 161 161 164 158 158 161 172 172 175 169 169 172 166 166 169 163 163 166 160 160 163 174 174 177 171 171 174 168 168 171 165 165 168 162 162 165 159 159 162 185 185 188 170 170 173 167 167 170
171 171 174 168 168 171 165 165 168 162 162 165 159 159 162 173 173 176 170 170 173 167 167 170 164 164 167 161 161 164 158 158 161 172 172 175 169 169 172 166 166 169 163 163 166 160 160 163 174 174 177 171 171 174 168 168 171 165 165 168 162 162 165 159 159 162 173 173 176 170 170 173 167 167 170 164 164 167 173 173 176 158 158 161 172 172 175 169 169 172 166 166 169 163 163 166
167 167 170 164 164 167 161 161 164 158 158 161 172 172 175 169 169 172 166 166 169 163 163 166 160 160 163 174 174 177 171 171 174 168 168 171 165 165 168 162 162 165 159 159 162 173 173 176 170 170 173 167 167 170 164 164 167 161 161 164 158 158 161 172 172 175 169 169 172 178 178 181 163 163 166 160 160 163 174 174 177 171 171 174 168 168 171 165 165 168 162 162 165 159 159 162
163 163 166 160 160 163 174 174 177 171 171 174 168 168 171 165 165 168 162 162 165 159 159 162 173 173 176 170 170 173 167 167 170 164 164 167 161 161 164 158 158 161 172 172 175 169 169 172 166 166 169 163 163 166 160 160 163 174 174 177 183 183 186 168 168 171 165 165 168 162 162 165 159 159 162 173 173 176 170 170 173 167 167 170 164 164 167 161 161 164 158 158 161 172 172 175
159 159 162 173 173 176 170 170 173 167 167 170 164 164 167 161 161 164 158 158 161 172 172 175 169 169 172 166 166 169 163 163 166 160 160 163 174 174 177 171 171 174 168 168 171 165 165 168 162 162 165 171 171 174 173 173 176 170 170 173 167 167 170 164 164 167 161 161 164 158 158 161 172 172 175 169 169 172 166 166 169 163 163 166 160 160 163 174 174 177 171 171 174 168 168 171
172 172 175 169 169 172 166 166 169 163 163 166 160 160 163 174 174 177 171 171 174 168 168 171 165 165 168 162 162 165 159 159 162 173 173 176 170 170 173 167 167 170 176 176 179 161 161 164 158 158 161 172 172 175 169 169 172 166 166 169 163 163 166 160 160 163 174 174 177 171 171 174 168 168 171 165 165 168 162 162 165 159 159 162 173 173 176 170 170 173 167 167 170 164 164 167
168 168 171 165 165 168 162 162 165 159 159 162 173 173 176 170 170 173 167 167 170 164 164 167 161 161 164 158 158 161 172 172 175 181 181 184 166 166 169 163 163 166 160 160 163 174 174 177 171 171 174 168 168 171 165 165 168 162 162 165 159 159 162 173 173 176 170 170 173 167 167 170 164 164 167 161 161 164 158 158 161 172 172 175 169 169 172 166 166 169 163 163 166 160 160 163
164 164 167 161 161 164 158 158 161 172 172 175 169 169 172 166 166 169 163 163 166 160 160 163 186 186 189 171 171 174 168 168 171 165 165 168 162 162 165 159 159 162 173 173 176 170 170 173 167 167 170 164 164 167 161 161 164 158 158 161 172 172 175 169 169 172 166 166 169 163 163 166 160 160 163 174 174 177 171 171 174 168 168 171 165 165 168 162 162 165 159 159 162 173 173 176
160 160 163 174 174 177 171 171 174 168 168 171 165 165 168 174 174 177 159 159 162 173 173 176 170 170 173 167 167 170 164 164 167 161 161 164 158 158 161 172 172 175 169 169 172 166 166 169 163 163 166 160 160 163 174 174 177 171 171 174 168 168 171 165 165 168 162 162 165 159 159 162 173 173 176 170 170 173 167 167 170 164 164 167 161 161 164 158 158 161 172 172 175 169 169 172
173 173 176 170 170 173 179 179 182 164 164 167 161 161 164 158 158 161 172 172 175 169 169 172 166 166 169 163 163 166 160 160 163 174 174 177 171 171 174 168 168 171 165 165 168 162 162 165 159 159 162 173 173 176 170 170 173 167 167 170 164 164 167 161 161 164 158 158 161 172 172 175 169 169 172 166 166 169 163 163 166 160 160 163 174 174 177 171 171 174 168 168 171 177 177 180
169 169 172 166 166 169 163 163 166 160 160 163 174 174 177 171 171 174 168 168 171 165 165 168 162 162 165 159 159 162 173 173 176 170 170 173 167 167 170 164 164 167 161 161 164 158 158 161 172 172 175 169 169 172 166 166 169 163 163 166 160 160 163 174 174 177 171 171 174 168 168 171 165 165 168 162 162 165 159 159 162 173 173 176 182 182 185 167 167 170 164 164 167 161 161 164
165 165 168 162 162 165 159 159 162 173 173 176 170 170 173 167 167 170 164 164 167 161 161 164 158 158 161 172 172 175 169 169 172 166 166 169 163 163 166 160 160 163 174 174 177 171 171 174 168 168 171 165 165 168 162 162 165 159 159 162 173 173 176 170 170 173 167 167 170 164 164 167 161 161 164 170 170 173 172 172 175 169 169 172 166 166 169 163 163 166 160 160 163 174 174 177
161 161 164 158 158 161 172 172 175 169 169 172 166 166 169 163 163 166 160 160 163 174 174 177 171 171 174 168 168 171 165 165 168 162 162 165 159 159 162 173 173 176 170 170 173 167 167 170 164 164 167 161 161 164 158 158 161 172 172 175 169 169 172 166 166 169 175 175 178 160 160 163 174 174 177 171 171 174 168 168 171 165 165 168 162 162 165 159 159 162 173 173 176 170 170 173
174 174 177 171 171 174 168 168 171 165 165 168 162 162 165 159 159 162 173 173 176 170 170 173 167 167 170 164 164 167 161 161 164 158 158 161 172 172 175 169 169 172 166 166 169 163 163 166 160 160 163 174 174 177 171 171 174 180 180 183 165 165 168 162 162 165 159 159 162 173 173 176 170 170 173 167 167 170 164 164 167 161 161 164 158 158 161 172 172 175 169 169 172 166 166 169
170 170 173 167 167 170 164 164 167 161 161 164 158 158 161 172 172 175 169 169 172 166 166 169 163 163 166 160 160 163 174 174 177 171 171 174 168 168 171 165 165 168 162 162 165 159 159 162 185 185 188 170 170 173 167 167 170 164 164 167 161 161 164 158 158 161 172 172 175 169 169 172 166 166 169 163 163 166 160 160 163 174 174 177 171 171 174 168 168 171 165 165 168 162 162 165
166 166 169 163 163 166 160 160 163 174 174 177 171 171 174 168 168 171 165 165 168 162 162 165 159 159 162 173 173 176 170 170 173 167 167 170 164 164 167 173 173 176 158 158 161 172 172 175 169 169 172 166 166 169 163 163 166 160 160 163 174 174 177 171 171 174 168 168 171 165 165 168 162 162 165 159 159 162 173 173 176 170 170 173 167 167 170 164 164 167 161 161 164 158 158 161
162 162 165 159 159 162 173 173 176 170 170 173 167 167 170 164 164 167 161 161 164 158 158 161 172 172 175 169 169 172 178 178 181 163 163 166 160 160 163 174 174 177 171 171 174 168 168 171 165 165 168 162 162 165 159 159 162 173 173 176 170 170 173 167 167 170 164 164 167 161 161 164 158 158 161 172 172 175 169 169 172 166 166 169 163 163 166 160 160 163 174 174 177 171 171 174
158 158 161 172 172 175 169 169 172 166 166 169 163 163 166 160 160 163 174 174 177 183 183 186 168 168 171 165 165 168 162 162 165 159 159 162 173 173 176 170 170 173 167 167 170 164 164 167 161 161 164 158 158 161 172 172 175 169 169 172 166 166 169 163 163 166 160 160 163 174 174 177 171 171 174 168 168 171 165 165 168 162 162 165 159 159 162 173 173 176 170 170 173 167 167 170
171 171 174 168 168 171 165 165 168 162 162 165 171 171 174 173 173 176 170 170 173 167 167 170 164 164 167 161 161 164 158 158 161 172 172 175 169 169 172 166 166 169 163 163 166 160 160 163 174 174 177 171 171 174 168 168 171 165 165 168 162 162 165 159 159 162 173 173 176 170 170 173 167 167 170 164 164 167 161 161 164 158 158 161 172 172 175 169 169 172 166 166 169 163 163 166
167 167 170 176 176 179 161 161 164 158 158 161 172 172 175 169 169 172 166 166 169 163 163 166 160 160 163 174 174 177 171 171 174 168 168 171 165 165 168 162 162 165 159 159 162 173 173 176 170 170 173 167 167 170 164 164 167 161 161 164 158 158 161 172 172 175 169 169 172 166 166 169 163 163 166 160 160 163 174 174 177 171 171 174 168 168 171 165 165 168 174 174 177 159 159 162
163 163 166 160 160 163 174 174 177 171 171 174 168 168 171 165 165 168 162 162 165 159 159 162 173 173 176 170 170 173 167 167 170 164 164 167 161 161 164 158 158 161 172 172 175 169 169 172 166 166 169 163 163 166 160 160 163 174 174 177 171 171 174 168 168 171 165 165 168 162 162 165 159 159 162 173 173 176 170 170 173 179 179 182 164 164 167 161 161 164 158 158 161 172 172 175
159 159 162 173 173 176 170 170 173 167 167 170 164 164 167 161 161 164 158 158 161 172 172 175 169 169 172 166 166 169 163 163 166 160 160 163 174 174 177 171 171 174 168 168 171 165 165 168 162 162 165 159 159 162 173 173 176 170 170 173 167 167 170 164 164 167 161 161 164 158 158 161 184 184 187 169 169 172 166 166 169 163 163 166 160 160 163 174 174 177 171 171 174 168 168 171
172 172 175 169 169 172 166 166 169 163 163 166 160 160 163 174 174 177 171 171 174 168 168 171 165 165 168 162 162 165 159 159 162 173 173 176 170 170 173 167 167 170 164 164 167 161 161 164 158 158 161 172 172 175 169 169 172 166 166 169 163 163 166 172 172 175 174 174 177 171 171 174 168 168 171 165 165 168 162 162 165 159 159 162 173 173 176 170 170 173 167 167 170 164 164 167
168 168 171 165 165 168 162 162 165 159 159 162 173 173 176 170 170 173 167 167 170 164 164 167 161 161 164 158 158 161 172 172 175 169 169 172 166 166 169 163 163 166 160 160 163 174 174 177 171 171 174 168 168 171 177 177 180 162 162 165 159 159 162 173 173 176 170 170 173 167 167 170 164 164 167 161 161 164 158 158 161 172 172 175 169 169 172 166 166 169 163 163 166 160 160 163
164 164 167 161 161 164 158 158 161 172 172 175 169 169 172 166 166 169 163 163 166 160 160 163 174 174 177 171 171 174 168 168 171 165 165 168 162 162 165 159 159 162 173 173 176 182 182 185 167 167 170 164 164 167 161 161 164 158 158 161 172 172 175 169 169 172 166 166 169 163 163 166 160 160 163 174 174 177 171 171 174 168 168 171 165 165 168 162 162 165 159 159 162 173 173 176
160 160 163 174 174 177 171 171 174 168 168 171 165 165 168 162 162 165 159 159 162 173 173 176 170 170 173 167 167 170 164 164 167 161 161 164 170 170 173 172 172 175 169 169 172 166 166 169 163 163 166 160 160 163 174 174 177 171 171 174 168 168 171 165 165 168 162 162 165 159 159 162 173 173 176 170 170 173 167 167 170 164 164 167 161 161 164 158 158 161 172 172 175 169 169 172
173 173 176 170 170 173 167 167 170 164 164 167 161 161 164 158 158 161 172 172 175 169 169 172 166 166 169 175 175 178 160 160 163 174 174 177 171 171 174 168 168 171 165 165 168 162 162 165 159 159 162 173 173 176 170 170 173 167 167 170 164 164 167 161 161 164 158 158 161 172 172 175 169 169 172 166 166 169 163 163 166 160 160 163 174 174 177 171 171 174 168 168 171 165 165 168
169 169 172 166 166 169 163 163 166 160 160 163 174 174 177 171 171 174 180 180 183 165 165 168 162 162 165 159 159 162 173 173 176 170 170 173 167 167 170 164 164 167 161 161 164 158 158 161 172 172 175 169 169 172 166 166 169 163 163 166 160 160 163 174 174 177 171 171 174 168 168 171 165 165 168 162 162 165 159 159 162 173 173 176 170 170 173 167 167 170 164 164 167 161 161 164
165 165 168 162 162 165 159 159 162 185 185 188 170 170 173 167 167 170 164 164 167 161 161 164 158 158 161 172 172 175 169 169 172 166 166 169 163 163 166 160 160 163 174 174 177 171 171 174 168 168 171 165 165 168 162 162 165 159 159 162 173 173 176 170 170 173 167 167 170 164 164 167 161 161 164 158 158 161 172 172 175 169 169 172 166 166 169 163 163 166 160 160 163 174 174 177
173 173 176 158 158 161 172 172 175 169 169 172 166 166 169 163 163 166 160 160 163 174 174 177 171 171 174 168 168 171 165 165 168 162 162 165 159 159 162 173 173 176 170 170 173 167 167 170 164 164 167 161 161 164 158 158 161 172 172 175 169 169 172 166 166 169 163 163 166 160 160 163 174 174 177 171 171 174 168 168 171 165 165 168 162 162 165 171 171 174 173 173 176 170 170 173
174 174 177 171 171 174 168 168 171 165 165 168 162 162 165 159 159 162 173 173 176 170 170 173 167 167 170 164 164 167 161 161 164 158 158 161 172 172 175 169 169 172 166 166 169 163 163 166 160 160 163 174 174 177 171 171 174 168 168 171 165 165 168 162 162 165 159 159 162 173 173 176 170 170 173 167 167 170 176 176 179 161 161 164 158 158 161 172 172 175 169 169 172 166 166 169
170 170 173 167 167 170 164 164 167 161 161 164 158 158 161 172 172 175 169 169 172 166 166 169 163 163 166 160 160 163 174 174 177 171 171 174 168 168 171 165 165 168 162 162 165 159 159 162 173 173 176 170 170 173 167 167 170 164 164 167 161 161 164 158 158 161 172 172 175 181 181 184 166 166 169 163 163 166 160 160 163 174 174 177 171 171 174 168 168 171 165 165 168 162 162 165
